;FLAVOR:UltiGCode
;TIME:1199
;MATERIAL:2037
;MATERIAL2:0
;NOZZLE_DIAMETER:0.4
;Generated with Cura_SteamEngine 3.4.1
M82 ;absolute extrusion mode

G92 E0
G10
;LAYER_COUNT:43
;LAYER:0
M107
G0 F3600 X39.875 Y42.776 Z0.3
;TYPE:SKIRT
G11
G1 F1800 X40.443 Y42.33 E0.08666
G1 X41.011 Y41.925 E0.17037
G1 X41.676 Y41.5 E0.26508
G1 X42.381 Y41.144 E0.35985
G1 X42.763 Y40.987 E0.40941
G1 X43.842 Y40.576 E0.54797
G1 X44.593 Y40.333 E0.64269
G1 X45.365 Y40.166 E0.73747
G1 X46.15 Y40.079 E0.83225
G1 X46.618 Y40.065 E0.88843
G1 X50.618 Y40.065 E1.36843
G1 X51.407 Y40.105 E1.46324
G1 X52.187 Y40.224 E1.55792
G1 X52.952 Y40.422 E1.65274
G1 X53.692 Y40.696 E1.74743
G1 X54.401 Y41.044 E1.84221
G1 X55.072 Y41.462 E1.93708
G1 X55.696 Y41.945 E2.03177
G1 X56.269 Y42.488 E2.1265
G1 X56.784 Y43.087 E2.22129
G1 X57.235 Y43.735 E2.31603
G1 X57.292 Y43.838 E2.33016
G1 X58.622 Y43.839 E2.48976
G1 X59.41 Y43.879 E2.58444
G1 X60.191 Y43.999 E2.67926
G1 X60.955 Y44.197 E2.77397
G1 X61.645 Y44.453 E2.86228
G1 X61.785 Y44.375 E2.88151
G1 X62.51 Y44.063 E2.97623
G1 X63.263 Y43.826 E3.07096
G1 X64.037 Y43.667 E3.16578
G1 X65.206 Y43.576 E3.30648
G1 X66.55 Y43.573 E3.46776
G1 X66.597 Y43.488 E3.47942
G1 X67.046 Y42.839 E3.57412
G1 X67.56 Y42.239 E3.66893
G1 X68.131 Y41.693 E3.76373
G1 X68.754 Y41.209 E3.8584
G1 X69.424 Y40.789 E3.95329
G1 X70.132 Y40.44 E4.04801
G1 X70.872 Y40.164 E4.14279
G1 X71.636 Y39.964 E4.23756
G1 X72.416 Y39.843 E4.33228
G1 X73.224 Y39.801 E4.42937
G1 X77.224 Y39.801 E4.90937
G1 X78.013 Y39.841 E5.00417
G1 X78.793 Y39.96 E5.09885
G1 X79.558 Y40.158 E5.19368
G1 X80 Y40.312 E5.24985
G1 X81.079 Y40.723 E5.3884
G1 X81.802 Y41.041 E5.48318
G1 X82.489 Y41.431 E5.57798
G1 X82.827 Y41.658 E5.62684
G1 X83.393 Y42.061 E5.71022
G1 X84.012 Y42.551 E5.80495
G1 X84.579 Y43.101 E5.89974
G1 X85.044 Y43.65 E5.98608
G1 X85.47 Y44.202 E6.06975
G1 X85.92 Y44.85 E6.16442
G1 X86.302 Y45.541 E6.25917
G1 X86.613 Y46.267 E6.35395
G1 X86.808 Y46.872 E6.43022
G1 X86.96 Y47.417 E6.49812
G1 X87.134 Y48.187 E6.59285
G1 X87.228 Y48.971 E6.6876
G1 X87.247 Y49.537 E6.75556
G1 X87.213 Y59.944 E8.00441
G1 X87.17 Y60.733 E8.09923
G1 X87.048 Y61.513 E8.19397
G1 X86.848 Y62.277 E8.28874
G1 X86.571 Y63.017 E8.38355
G1 X86.23 Y63.709 E8.47613
G1 X85.828 Y64.432 E8.5754
G1 X85.41 Y65.102 E8.67016
G1 X84.926 Y65.726 E8.76493
G1 X84.382 Y66.298 E8.85965
G1 X83.515 Y67.01 E8.99428
G1 X82.589 Y67.665 E9.13039
G1 X81.922 Y68.088 E9.22517
G1 X81.216 Y68.441 E9.31989
G1 X80.682 Y68.652 E9.38879
G1 X79.821 Y68.956 E9.49836
G1 X79.064 Y69.181 E9.59313
G1 X78.288 Y69.328 E9.6879
G1 X77.224 Y69.401 E9.81588
G1 X74.082 Y69.401 E10.19292
G1 X74.132 Y69.744 E10.23452
G1 X74.167 Y70.533 E10.32929
G1 X74.121 Y71.321 E10.42401
G1 X73.996 Y72.101 E10.5188
G1 X73.793 Y72.864 E10.61355
G1 X73.514 Y73.602 E10.70823
G1 X73.161 Y74.309 E10.80305
G1 X72.739 Y74.976 E10.89777
G1 X72.317 Y75.521 E10.98048
G1 X69.249 Y79.14 E11.54982
G1 X68.708 Y79.716 E11.64464
G1 X68.112 Y80.234 E11.7394
G1 X67.713 Y80.527 E11.7988
G1 X67.171 Y80.899 E11.87769
G1 X66.498 Y81.312 E11.97244
G1 X65.485 Y81.775 E12.1061
G1 X64.719 Y82.061 E12.20422
G1 X63.966 Y82.3 E12.29902
G1 X63.046 Y82.482 E12.41156
G1 X62.555 Y82.549 E12.47102
G1 X61.498 Y82.621 E12.59816
G1 X54.274 Y82.619 E13.46504
G1 X53.485 Y82.579 E13.55984
G1 X52.705 Y82.459 E13.65454
G1 X51.779 Y82.209 E13.76964
G1 X51.116 Y81.985 E13.85362
G1 X50.382 Y81.694 E13.94837
G1 X49.681 Y81.331 E14.0431
G1 X49.02 Y80.899 E14.13785
G1 X48.406 Y80.402 E14.23265
G1 X48.037 Y80.049 E14.29393
G1 X47.545 Y79.546 E14.37836
G1 X47.022 Y78.954 E14.47315
G1 X46.562 Y78.313 E14.56783
G1 X46.168 Y77.628 E14.66266
G1 X45.847 Y76.907 E14.75736
G1 X45.688 Y76.456 E14.81475
G1 X45.481 Y75.805 E14.89672
G1 X45.28 Y75.041 E14.99152
G1 X45.157 Y74.261 E15.08628
G1 X45.115 Y73.324 E15.19883
G1 X45.152 Y70.86 E15.49455
G1 X45.204 Y70.072 E15.58931
G1 X45.293 Y69.543 E15.65368
G1 X45.05 Y69.506 E15.68318
G1 X44.04 Y69.226 E15.80895
G1 X43.181 Y68.925 E15.91818
G1 X42.45 Y68.627 E16.0129
G1 X41.531 Y68.118 E16.13897
G1 X40.756 Y67.618 E16.24965
G1 X40.115 Y67.157 E16.34439
G1 X39.524 Y66.634 E16.43909
G1 X38.898 Y65.941 E16.55116
G1 X38.491 Y65.433 E16.62927
G1 X38.029 Y64.793 E16.72399
G1 X37.634 Y64.109 E16.81877
G1 X37.345 Y63.476 E16.90228
G1 X37.194 Y63.102 E16.95068
G1 X36.936 Y62.356 E17.0454
G1 X36.755 Y61.587 E17.1402
G1 X36.652 Y60.804 E17.23497
G1 X36.627 Y60.207 E17.30667
G1 X36.593 Y49.804 E18.55504
G1 X36.63 Y49.016 E18.6497
G1 X36.747 Y48.235 E18.74447
G1 X36.889 Y47.651 E18.81659
G1 X37.045 Y47.101 E18.88519
G1 X37.299 Y46.353 E18.97999
G1 X37.627 Y45.634 E19.07482
G1 X38.026 Y44.953 E19.16954
G1 X38.369 Y44.47 E19.24062
G1 X38.791 Y43.922 E19.32362
G1 X39.304 Y43.322 E19.41835
G1 X39.875 Y42.776 E19.51316
G0 F3600 X40.167 Y43.053
G1 F1800 X40.675 Y42.656 E19.59052
G1 X41.243 Y42.251 E19.67424
G1 X41.891 Y41.837 E19.76651
G1 X42.905 Y41.361 E19.90093
G1 X43.984 Y40.95 E20.03949
G1 X44.716 Y40.714 E20.13178
G1 X45.469 Y40.555 E20.22413
G1 X46.618 Y40.465 E20.36243
G1 X50.618 Y40.465 E20.84243
G1 X51.386 Y40.505 E20.93472
G1 X52.146 Y40.624 E21.02703
G1 X52.889 Y40.822 E21.1193
G1 X53.608 Y41.096 E21.21163
G1 X54.294 Y41.443 E21.30389
G1 X54.941 Y41.859 E21.39619
G1 X55.541 Y42.34 E21.48847
G1 X56.088 Y42.881 E21.58079
G1 X56.576 Y43.476 E21.67313
G1 X56.999 Y44.118 E21.76539
G1 X57.061 Y44.238 E21.7816
G1 X58.622 Y44.239 E21.96892
G1 X59.39 Y44.279 E22.06121
G1 X60.149 Y44.399 E22.15342
G1 X60.893 Y44.597 E22.24581
G1 X61.611 Y44.871 E22.33803
G1 X61.664 Y44.898 E22.34516
G1 X62.16 Y44.64 E22.41225
G1 X62.875 Y44.359 E22.50444
G1 X63.617 Y44.153 E22.59685
G1 X64.375 Y44.025 E22.6891
G1 X65.207 Y43.976 E22.78911
G1 X66.786 Y43.972 E22.97859
G1 X66.99 Y43.614 E23.02804
G1 X67.437 Y42.989 E23.12024
G1 X67.947 Y42.413 E23.21257
G1 X68.514 Y41.893 E23.30489
G1 X69.132 Y41.435 E23.39719
G1 X69.794 Y41.044 E23.48945
G1 X70.494 Y40.723 E23.58186
G1 X71.222 Y40.477 E23.67408
G1 X71.973 Y40.308 E23.76645
G1 X72.736 Y40.217 E23.85866
G1 X73.224 Y40.201 E23.91725
G1 X77.224 Y40.201 E24.39725
G1 X77.992 Y40.241 E24.48954
G1 X78.752 Y40.36 E24.58185
G1 X79.858 Y40.686 E24.72021
G1 X80.937 Y41.097 E24.85877
G1 X81.641 Y41.407 E24.95108
G1 X82.595 Y41.984 E25.08487
G1 X83.161 Y42.387 E25.16824
G1 X83.764 Y42.865 E25.26058
G1 X84.313 Y43.403 E25.35282
G1 X84.727 Y43.894 E25.42989
G1 X85.153 Y44.446 E25.51356
G1 X85.591 Y45.078 E25.60583
G1 X85.961 Y45.753 E25.6982
G1 X86.258 Y46.462 E25.79045
G1 X86.423 Y46.979 E25.85557
G1 X86.575 Y47.524 E25.92347
G1 X86.743 Y48.275 E26.01581
G1 X86.832 Y49.039 E26.10811
G1 X86.847 Y49.536 E26.16778
G1 X86.813 Y59.943 E27.41663
G1 X86.77 Y60.711 E27.50893
G1 X86.649 Y61.471 E27.60128
G1 X86.448 Y62.213 E27.69353
G1 X86.172 Y62.931 E27.78584
G1 X85.88 Y63.515 E27.86419
G1 X85.478 Y64.238 E27.96346
G1 X85.07 Y64.89 E28.05575
G1 X84.597 Y65.496 E28.148
G1 X84.063 Y66.05 E28.24034
G1 X83.284 Y66.683 E28.36079
G1 X82.358 Y67.338 E28.4969
G1 X81.708 Y67.749 E28.58918
G1 X81.019 Y68.091 E28.68149
G1 X80.549 Y68.275 E28.74206
G1 X79.688 Y68.579 E28.85163
G1 X78.95 Y68.797 E28.94397
G1 X78.194 Y68.937 E29.03623
G1 X77.224 Y69.001 E29.15289
G1 X73.616 Y69.001 E29.58585
G1 X73.63 Y69.059 E29.59301
G1 X73.738 Y69.821 E29.68536
G1 X73.766 Y70.59 E29.7777
G1 X73.714 Y71.357 E29.86995
G1 X73.583 Y72.115 E29.96226
G1 X73.374 Y72.855 E30.05453
G1 X73.09 Y73.57 E30.14685
G1 X72.732 Y74.251 E30.23918
G1 X72.306 Y74.891 E30.33144
G1 X72.012 Y75.262 E30.38824
G1 X68.944 Y78.881 E30.95757
G1 X68.416 Y79.441 E31.04993
G1 X67.834 Y79.944 E31.14224
G1 X67.487 Y80.197 E31.19378
G1 X66.945 Y80.569 E31.27266
G1 X66.289 Y80.971 E31.36499
G1 X65.345 Y81.401 E31.48947
G1 X64.579 Y81.687 E31.58758
G1 X63.846 Y81.918 E31.67981
G1 X62.992 Y82.086 E31.78425
G1 X62.501 Y82.153 E31.84372
G1 X61.498 Y82.221 E31.96435
G1 X54.274 Y82.219 E32.83123
G1 X53.506 Y82.179 E32.92352
G1 X52.746 Y82.059 E33.01585
G1 X51.907 Y81.83 E33.12021
G1 X51.244 Y81.606 E33.20419
G1 X50.529 Y81.322 E33.29651
G1 X49.848 Y80.966 E33.38872
G1 X49.207 Y80.54 E33.48108
G1 X48.614 Y80.051 E33.57331
G1 X48.323 Y79.769 E33.62194
G1 X47.831 Y79.266 E33.70638
G1 X47.322 Y78.689 E33.79871
G1 X46.876 Y78.063 E33.89094
G1 X46.498 Y77.393 E33.98325
G1 X46.069 Y76.334 E34.12037
G1 X45.862 Y75.683 E34.20234
G1 X45.667 Y74.939 E34.29464
G1 X45.551 Y74.179 E34.38689
G1 X45.515 Y73.33 E34.48886
G1 X45.552 Y70.866 E34.78458
G1 X45.603 Y70.098 E34.87694
G1 X45.734 Y69.341 E34.96913
G1 X45.77 Y69.212 E34.9852
G1 X45.091 Y69.106 E35.06767
G1 X44.172 Y68.849 E35.18218
G1 X43.313 Y68.548 E35.2914
G1 X42.601 Y68.256 E35.38375
G1 X41.748 Y67.782 E35.50085
G1 X40.973 Y67.282 E35.61153
G1 X40.349 Y66.832 E35.70385
G1 X39.776 Y66.32 E35.79606
G1 X39.21 Y65.691 E35.8976
G1 X38.803 Y65.183 E35.97571
G1 X38.354 Y64.558 E36.06806
G1 X37.972 Y63.891 E36.16029
G1 X37.716 Y63.326 E36.23473
G1 X37.565 Y62.952 E36.28313
G1 X37.315 Y62.225 E36.37538
G1 X37.141 Y61.476 E36.46766
G1 X37.046 Y60.713 E36.55992
G1 X37.027 Y60.206 E36.62081
G1 X36.993 Y49.803 E37.86917
G1 X37.031 Y49.035 E37.96145
G1 X37.148 Y48.275 E38.05372
G1 X37.274 Y47.76 E38.11734
G1 X37.43 Y47.21 E38.18595
G1 X37.678 Y46.482 E38.27824
G1 X38 Y45.783 E38.37059
G1 X38.393 Y45.122 E38.46287
G1 X38.686 Y44.714 E38.52315
G1 X39.108 Y44.166 E38.60615
G1 X39.608 Y43.582 E38.6984
G1 X40.167 Y43.053 E38.79076
G0 F3600 X40.458 Y43.33
G1 F1800 X40.907 Y42.981 E38.859
G1 X41.475 Y42.576 E38.94271
G1 X42.107 Y42.175 E39.03253
G1 X43.047 Y41.734 E39.15713
G1 X44.126 Y41.323 E39.29568
G1 X44.839 Y41.095 E39.38551
G1 X45.571 Y40.944 E39.4752
G1 X46.618 Y40.865 E39.6012
G1 X50.618 Y40.865 E40.0812
G1 X51.365 Y40.905 E40.17096
G1 X52.103 Y41.024 E40.26067
G1 X52.825 Y41.222 E40.35051
G1 X53.521 Y41.495 E40.44022
G1 X54.184 Y41.842 E40.53002
G1 X54.807 Y42.257 E40.61985
G1 X55.381 Y42.736 E40.70956
G1 X55.902 Y43.273 E40.79935
G1 X56.361 Y43.863 E40.88905
G1 X56.756 Y44.499 E40.97889
G1 X56.823 Y44.638 E40.99741
G1 X58.621 Y44.639 E41.21317
G1 X59.368 Y44.679 E41.30293
G1 X60.107 Y44.799 E41.39278
G1 X60.828 Y44.997 E41.4825
G1 X61.524 Y45.271 E41.57226
G1 X61.677 Y45.351 E41.59298
G1 X61.858 Y45.238 E41.61858
G1 X62.532 Y44.914 E41.70832
G1 X63.237 Y44.664 E41.79808
G1 X63.965 Y44.49 E41.8879
G1 X64.707 Y44.395 E41.97767
G1 X65.208 Y44.376 E42.03783
G1 X67.014 Y44.372 E42.25455
G1 X67.383 Y43.744 E42.34196
G1 X67.828 Y43.142 E42.43179
G1 X68.334 Y42.592 E42.52148
G1 X68.897 Y42.099 E42.61128
G1 X69.509 Y41.668 E42.7011
G1 X70.163 Y41.306 E42.7908
G1 X70.852 Y41.015 E42.88055
G1 X71.569 Y40.8 E42.97038
G1 X72.304 Y40.662 E43.06012
G1 X73.224 Y40.601 E43.17076
G1 X77.224 Y40.601 E43.65076
G1 X77.971 Y40.641 E43.74053
G1 X78.709 Y40.76 E43.83024
G1 X79.716 Y41.059 E43.95629
G1 X80.795 Y41.47 E44.09484
G1 X81.479 Y41.774 E44.18467
G1 X82.363 Y42.31 E44.30872
G1 X82.929 Y42.713 E44.3921
G1 X83.514 Y43.179 E44.48185
G1 X84.047 Y43.704 E44.57163
G1 X84.411 Y44.138 E44.6396
G1 X84.837 Y44.69 E44.72327
G1 X85.261 Y45.306 E44.81301
G1 X85.618 Y45.964 E44.90284
G1 X85.902 Y46.656 E44.9926
G1 X86.038 Y47.086 E45.04672
G1 X86.19 Y47.631 E45.11462
G1 X86.352 Y48.362 E45.20447
G1 X86.435 Y49.105 E45.29418
G1 X86.447 Y49.535 E45.3458
G1 X86.413 Y59.942 E46.59465
G1 X86.371 Y60.689 E46.68443
G1 X86.249 Y61.427 E46.77419
G1 X86.049 Y62.148 E46.86398
G1 X85.773 Y62.843 E46.95372
G1 X85.531 Y63.321 E47.01801
G1 X85.129 Y64.044 E47.11728
G1 X84.731 Y64.677 E47.207
G1 X84.268 Y65.264 E47.29672
G1 X83.744 Y65.799 E47.38658
G1 X83.053 Y66.357 E47.49316
G1 X82.127 Y67.012 E47.62927
G1 X81.494 Y67.411 E47.71906
G1 X80.823 Y67.74 E47.80874
G1 X80.416 Y67.898 E47.86113
G1 X79.555 Y68.202 E47.9707
G1 X78.837 Y68.413 E48.06051
G1 X78.101 Y68.546 E48.15026
G1 X77.224 Y68.601 E48.2557
G1 X73.224 Y68.601 E48.7357
G1 X73.102 Y68.594 E48.75037
G1 X73.241 Y69.156 E48.81984
G1 X73.343 Y69.897 E48.9096
G1 X73.365 Y70.645 E48.9994
G1 X73.307 Y71.391 E49.08919
G1 X73.17 Y72.126 E49.17891
G1 X72.955 Y72.843 E49.26873
G1 X72.665 Y73.532 E49.35844
G1 X72.303 Y74.187 E49.44824
G1 X71.707 Y75.004 E49.5696
G1 X68.639 Y78.623 E50.13893
G1 X68.125 Y79.167 E50.22874
G1 X67.26 Y79.867 E50.36227
G1 X66.718 Y80.239 E50.44116
G1 X66.08 Y80.629 E50.53089
G1 X65.205 Y81.026 E50.64619
G1 X64.439 Y81.312 E50.74431
G1 X63.726 Y81.536 E50.83399
G1 X62.937 Y81.69 E50.93046
G1 X62.446 Y81.757 E50.98992
G1 X61.498 Y81.821 E51.10394
G1 X54.274 Y81.819 E51.97082
G1 X53.527 Y81.779 E52.06059
G1 X52.789 Y81.659 E52.15031
G1 X52.035 Y81.451 E52.24417
G1 X51.372 Y81.227 E52.32815
G1 X50.678 Y80.95 E52.41782
G1 X50.016 Y80.6 E52.50768
G1 X49.396 Y80.182 E52.59741
G1 X48.609 Y79.49 E52.72316
G1 X48.117 Y78.987 E52.8076
G1 X47.623 Y78.425 E52.89739
G1 X47.192 Y77.813 E52.98721
G1 X46.829 Y77.159 E53.07697
G1 X46.45 Y76.213 E53.19926
G1 X46.243 Y75.562 E53.28124
G1 X46.055 Y74.838 E53.371
G1 X45.945 Y74.098 E53.46077
G1 X45.915 Y73.336 E53.55228
G1 X45.952 Y70.872 E53.848
G1 X46.003 Y70.126 E53.93773
G1 X46.134 Y69.389 E54.02755
G1 X46.291 Y68.847 E54.09527
G1 X45.872 Y68.825 E54.14562
G1 X45.134 Y68.706 E54.23532
G1 X44.304 Y68.471 E54.33884
G1 X43.445 Y68.17 E54.44806
G1 X42.753 Y67.885 E54.53787
G1 X41.965 Y67.446 E54.64611
G1 X41.19 Y66.946 E54.75679
G1 X40.584 Y66.508 E54.84651
G1 X40.028 Y66.007 E54.93632
G1 X39.522 Y65.441 E55.02743
G1 X39.115 Y64.933 E55.10554
G1 X38.679 Y64.325 E55.19532
G1 X38.311 Y63.674 E55.28506
G1 X38.087 Y63.177 E55.35048
G1 X37.936 Y62.803 E55.39888
G1 X37.693 Y62.095 E55.4887
G1 X37.528 Y61.366 E55.57839
G1 X37.441 Y60.623 E55.66816
G1 X37.427 Y60.205 E55.71835
G1 X37.393 Y49.802 E56.96672
G1 X37.431 Y49.055 E57.05647
G1 X37.548 Y48.316 E57.14626
G1 X37.659 Y47.869 E57.20153
G1 X37.815 Y47.319 E57.27013
G1 X38.057 Y46.611 E57.35992
G1 X38.373 Y45.933 E57.44968
G1 X38.76 Y45.293 E57.53943
G1 X39.003 Y44.958 E57.58909
G1 X39.425 Y44.41 E57.67209
G1 X39.912 Y43.843 E57.76178
G1 X40.458 Y43.33 E57.85168
G0 F3600 X40.748 Y43.609
G1 F1800 X41.139 Y43.307 E57.91097
G1 X41.707 Y42.902 E57.99468
G1 X42.321 Y42.514 E58.08184
G1 X43.19 Y42.108 E58.19694
G1 X44.269 Y41.697 E58.3355
G1 X44.961 Y41.476 E58.42267
G1 X45.673 Y41.333 E58.50981
G1 X46.618 Y41.265 E58.62351
G1 X50.618 Y41.265 E59.10351
G1 X51.343 Y41.305 E59.19064
G1 X52.06 Y41.424 E59.27786
G1 X52.759 Y41.622 E59.36504
G1 X53.432 Y41.895 E59.45219
G1 X54.071 Y42.24 E59.53933
G1 X54.668 Y42.654 E59.62651
G1 X55.216 Y43.13 E59.71361
G1 X55.709 Y43.664 E59.80083
G1 X56.139 Y44.249 E59.88795
G1 X56.503 Y44.878 E59.97516
G1 X56.573 Y45.038 E59.99612
G1 X58.621 Y45.039 E60.24188
G1 X59.346 Y45.079 E60.32901
G1 X60.063 Y45.199 E60.41625
G1 X60.762 Y45.397 E60.50343
G1 X61.435 Y45.67 E60.59058
G1 X61.69 Y45.808 E60.62537
G1 X62.237 Y45.491 E60.70124
G1 X62.902 Y45.198 E60.78844
G1 X63.595 Y44.98 E60.87562
G1 X64.307 Y44.84 E60.96269
G1 X65.209 Y44.776 E61.07121
G1 X67.272 Y44.771 E61.31877
G1 X67.399 Y44.498 E61.3549
G1 X67.775 Y43.877 E61.44201
G1 X68.217 Y43.3 E61.52923
G1 X68.72 Y42.776 E61.6164
G1 X69.278 Y42.311 E61.70356
G1 X69.883 Y41.909 E61.79072
G1 X70.529 Y41.576 E61.87794
G1 X71.207 Y41.317 E61.96503
G1 X71.91 Y41.133 E62.05223
G1 X72.629 Y41.028 E62.13943
G1 X73.224 Y41.001 E62.2109
G1 X77.224 Y41.001 E62.6909
G1 X77.949 Y41.041 E62.77803
G1 X78.666 Y41.16 E62.86525
G1 X79.573 Y41.433 E62.97891
G1 X80.652 Y41.844 E63.11747
G1 X81.316 Y42.14 E63.20471
G1 X82.131 Y42.636 E63.3192
G1 X82.697 Y43.039 E63.40257
G1 X83.265 Y43.492 E63.48976
G1 X83.779 Y44.005 E63.5769
G1 X84.094 Y44.383 E63.63594
G1 X84.52 Y44.935 E63.71962
G1 X84.931 Y45.533 E63.80669
G1 X85.275 Y46.173 E63.89388
G1 X85.652 Y47.194 E64.02449
G1 X85.804 Y47.739 E64.09238
G1 X85.961 Y48.448 E64.17952
G1 X86.047 Y49.534 E64.31025
G1 X86.013 Y59.941 E65.5591
G1 X85.971 Y60.666 E65.64625
G1 X85.849 Y61.382 E65.7334
G1 X85.649 Y62.08 E65.82053
G1 X85.374 Y62.752 E65.90767
G1 X85.181 Y63.126 E65.95817
G1 X84.779 Y63.849 E66.05744
G1 X84.392 Y64.464 E66.14463
G1 X83.939 Y65.032 E66.23182
G1 X83.427 Y65.547 E66.31896
G1 X82.822 Y66.03 E66.41186
G1 X81.896 Y66.685 E66.54797
G1 X81.281 Y67.071 E66.6351
