;FLAVOR:UltiGCode
;TIME:1825
;MATERIAL:2889
;MATERIAL2:0
;NOZZLE_DIAMETER:0.4
;Generated with Cura_SteamEngine 3.4.1
M82 ;absolute extrusion mode

G92 E0
G10
;LAYER_COUNT:63
;LAYER:0
M107
G0 F3600 X43.262 Y29.187 Z0.3
;TYPE:SKIRT
G11
G1 F1800 X43.53 Y28.882 E0.04872
G1 X43.846 Y28.562 E0.10269
G1 X44.251 Y28.21 E0.16708
G1 X44.676 Y27.936 E0.22776
G1 X45.403 Y27.537 E0.32728
G1 X45.891 Y27.315 E0.39161
G1 X46.42 Y27.165 E0.45759
G1 X46.889 Y27.07 E0.51502
G1 X47.554 Y26.998 E0.59528
G1 X54.701 Y26.899 E1.453
G1 X59.797 Y26.54 E2.06604
G1 X60.385 Y26.547 E2.13661
G1 X65.819 Y27.054 E2.79152
G1 X75.172 Y27.503 E3.91517
G1 X80.696 Y27.681 E4.57839
G1 X85.19 Y27.603 E5.11776
G1 X85.601 Y27.619 E5.16711
G1 X86.136 Y27.671 E5.23162
G1 X86.665 Y27.762 E5.29603
G1 X87.241 Y27.96 E5.36912
G1 X88.057 Y28.32 E5.47614
G1 X88.53 Y28.573 E5.54051
G1 X88.959 Y28.891 E5.60459
G1 X89.284 Y29.172 E5.65615
G1 X89.662 Y29.552 E5.72047
G1 X89.96 Y29.953 E5.78042
G1 X90.42 Y30.671 E5.88275
G1 X90.675 Y31.143 E5.94712
G1 X90.868 Y31.688 E6.0165
G1 X91.003 Y32.196 E6.07958
G1 X91.102 Y32.724 E6.14404
G1 X91.124 Y33.118 E6.1914
G1 X91.141 Y50.686 E8.29956
G1 X91.299 Y55.125 E8.83258
G1 X91.301 Y55.257 E8.84842
G1 X91.285 Y69.953 E10.61194
G1 X91.244 Y70.488 E10.67633
G1 X91.044 Y71.244 E10.77017
G1 X90.71 Y72.11 E10.88155
G1 X90.48 Y72.595 E10.94596
G1 X90.115 Y73.122 E11.02289
G1 X89.762 Y73.545 E11.089
G1 X89.389 Y73.93 E11.15333
G1 X89.042 Y74.201 E11.20616
G1 X88.526 Y74.557 E11.28139
G1 X88.063 Y74.828 E11.34577
G1 X87.627 Y75.007 E11.40232
G1 X87.031 Y75.207 E11.47776
G1 X86.512 Y75.339 E11.54203
G1 X86.181 Y75.382 E11.58208
G1 X83.409 Y75.61 E11.91584
G1 X77.958 Y76.251 E12.57447
G1 X74.839 Y76.761 E12.95372
G1 X74.175 Y76.807 E13.03359
G1 X73.312 Y76.787 E13.13718
G1 X72.637 Y76.707 E13.21875
G1 X70.651 Y76.279 E13.46254
G1 X65.253 Y75.328 E14.12027
G1 X59.831 Y74.686 E14.77546
G1 X54.39 Y74.351 E15.42962
G1 X47.308 Y74.29 E16.27949
G1 X46.773 Y74.245 E16.34391
G1 X46.252 Y74.122 E16.40815
G1 X45.75 Y73.92 E16.47309
G1 X44.896 Y73.5 E16.58729
G1 X44.434 Y73.229 E16.65156
G1 X43.964 Y72.84 E16.72478
G1 X43.653 Y72.535 E16.77705
G1 X43.299 Y72.132 E16.84142
G1 X43.049 Y71.752 E16.896
G1 X39.498 Y65.541 E17.75453
G1 X39.342 Y65.235 E17.79575
G1 X38.709 Y63.832 E17.98045
G1 X38.525 Y63.328 E18.04484
G1 X38.409 Y62.723 E18.11876
G1 X38.31 Y61.769 E18.23385
G1 X38.304 Y61.087 E18.3157
G1 X38.61 Y57.555 E18.74112
G1 X38.832 Y52.104 E19.39579
G1 X38.745 Y46.611 E20.05503
G1 X38.586 Y43.896 E20.38139
G1 X38.262 Y40.026 E20.84741
G1 X38.257 Y39.49 E20.91174
G1 X38.285 Y39.215 E20.94491
G1 X38.394 Y38.453 E21.03728
G1 X38.51 Y37.929 E21.10168
G1 X38.625 Y37.601 E21.14339
G1 X39.036 Y36.595 E21.27379
G1 X39.24 Y36.177 E21.32961
G1 X42.963 Y29.632 E22.23318
G1 X43.262 Y29.187 E22.29752
G0 F3600 X43.594 Y29.411
G1 F1800 X43.815 Y29.164 E22.33729
G1 X44.131 Y28.844 E22.39126
G1 X44.514 Y28.513 E22.452
G1 X44.868 Y28.287 E22.5024
G1 X45.595 Y27.888 E22.60192
G1 X46.056 Y27.68 E22.66261
G1 X46.5 Y27.557 E22.71789
G1 X46.969 Y27.462 E22.77532
G1 X47.56 Y27.398 E22.84665
G1 X54.717 Y27.299 E23.70557
G1 X59.825 Y26.939 E24.32005
G1 X60.347 Y26.945 E24.3827
G1 X65.805 Y27.455 E25.04051
G1 X75.14 Y27.903 E26.162
G1 X80.67 Y28.081 E26.82595
G1 X85.197 Y28.002 E27.36927
G1 X85.563 Y28.017 E27.41322
G1 X86.098 Y28.069 E27.47773
G1 X86.595 Y28.158 E27.53832
G1 X87.08 Y28.326 E27.59991
G1 X87.896 Y28.686 E27.70693
G1 X88.341 Y28.926 E27.76761
G1 X88.697 Y29.193 E27.82101
G1 X89.022 Y29.474 E27.87256
G1 X89.377 Y29.834 E27.93323
G1 X89.623 Y30.169 E27.98311
G1 X90.083 Y30.887 E28.08543
G1 X90.322 Y31.333 E28.14615
G1 X90.482 Y31.791 E28.20437
G1 X90.617 Y32.299 E28.26745
G1 X90.708 Y32.796 E28.32808
G1 X90.724 Y33.118 E28.36677
G1 X90.741 Y50.701 E30.47673
G1 X90.899 Y55.139 E31.00962
G1 X90.901 Y55.256 E31.02367
G1 X90.885 Y69.952 E32.78719
G1 X90.845 Y70.456 E32.84786
G1 X90.671 Y71.101 E32.92802
G1 X90.337 Y71.967 E33.03941
G1 X90.118 Y72.422 E33.1
G1 X89.808 Y72.865 E33.16488
G1 X89.455 Y73.288 E33.231
G1 X89.101 Y73.65 E33.29176
G1 X88.815 Y73.872 E33.3352
G1 X88.299 Y74.228 E33.41043
G1 X87.862 Y74.481 E33.47102
G1 X87.5 Y74.628 E33.51791
G1 X86.904 Y74.828 E33.59335
G1 X86.414 Y74.95 E33.65394
G1 X86.148 Y74.983 E33.68611
G1 X83.386 Y75.21 E34.01867
G1 X77.89 Y75.857 E34.68274
G1 X74.774 Y76.366 E35.06162
G1 X74.184 Y76.407 E35.13259
G1 X73.321 Y76.387 E35.23617
G1 X72.721 Y76.316 E35.30868
G1 X70.722 Y75.885 E35.55407
G1 X65.318 Y74.933 E36.21253
G1 X59.867 Y74.287 E36.87123
G1 X54.4 Y73.951 E37.52851
G1 X47.311 Y73.89 E38.37922
G1 X46.808 Y73.846 E38.43981
G1 X46.317 Y73.723 E38.50055
G1 X45.927 Y73.562 E38.55118
G1 X45.073 Y73.142 E38.66539
G1 X44.638 Y72.883 E38.72614
G1 X44.244 Y72.555 E38.78766
G1 X43.933 Y72.25 E38.83993
G1 X43.602 Y71.868 E38.90058
G1 X43.396 Y71.553 E38.94575
G1 X39.845 Y65.342 E39.80428
G1 X39.706 Y65.07 E39.84094
G1 X39.073 Y63.667 E40.02564
G1 X38.902 Y63.191 E40.08633
G1 X38.807 Y62.681 E40.14859
G1 X38.708 Y61.727 E40.26368
G1 X38.703 Y61.121 E40.3364
G1 X39.009 Y57.583 E40.76255
G1 X39.232 Y52.113 E41.41949
G1 X39.145 Y46.605 E42.08054
G1 X38.986 Y43.876 E42.40857
G1 X38.66 Y39.992 E42.87629
G1 X38.681 Y39.272 E42.96273
G1 X38.79 Y38.51 E43.0551
G1 X38.901 Y38.017 E43.11574
G1 X38.996 Y37.753 E43.14941
G1 X39.407 Y36.747 E43.27981
G1 X39.588 Y36.375 E43.32946
G1 X43.311 Y29.83 E44.23303
G1 X43.594 Y29.411 E44.29371
G10
G0 F3600 X45.543 Y31.021
G0 X46.581 Y31.776
G0 X46.645 Y31.741
G0 X47.436 Y31.325
G0 X47.405 Y31.23
;TYPE:WALL-INNER
G11
G1 F1800 X47.415 Y31.226 E44.295
G1 X47.637 Y31.185 E44.32209
G1 X47.693 Y31.18 E44.32884
G1 X47.722 Y31.176 E44.33235
G1 X47.938 Y31.175 E44.35827
G1 X48.007 Y31.183 E44.36661
G1 X48.135 Y31.2 E44.3821
G1 X48.295 Y31.24 E44.40189
G1 X48.34 Y31.252 E44.40748
G1 X48.452 Y31.296 E44.42192
G1 X48.545 Y31.333 E44.43393
G1 X48.612 Y31.367 E44.44295
G1 X48.803 Y31.488 E44.47008
G1 X48.853 Y31.526 E44.47762
G1 X48.874 Y31.542 E44.48078
G1 X49.039 Y31.696 E44.50787
G1 X49.075 Y31.737 E44.51441
G1 X49.096 Y31.76 E44.51815
G1 X49.22 Y31.93 E44.5434
G1 X49.254 Y31.992 E44.55189
G1 X49.324 Y32.118 E44.56918
G1 X49.385 Y32.267 E44.5885
G1 X49.39 Y32.279 E44.59006
G1 X49.452 Y32.516 E44.61946
G1 X49.459 Y32.568 E44.62576
G1 X49.478 Y32.705 E44.64236
G1 X49.479 Y32.864 E44.66144
G1 X49.481 Y33.042 E44.6828
G1 X49.483 Y33.245 E44.70716
G1 X49.483 Y33.32 E44.71616
G1 X49.483 Y33.58 E44.74736
G1 X49.483 Y33.733 E44.76572
G1 X49.483 Y33.822 E44.7764
G1 X49.483 Y45.806 E46.21448
G1 X49.483 Y46.013 E46.23932
G1 X49.483 Y46.286 E46.27208
G1 X49.483 Y46.402 E46.286
G1 X49.482 Y46.576 E46.30688
G1 X49.478 Y46.864 E46.34144
G1 X49.477 Y46.944 E46.35104
G1 X49.47 Y47.021 E46.36032
G1 X49.465 Y47.049 E46.36373
G1 X49.432 Y47.224 E46.3851
G1 X49.398 Y47.332 E46.39869
G1 X49.373 Y47.41 E46.40852
G1 X49.283 Y47.605 E46.43429
G1 X49.188 Y47.758 E46.4559
G1 X49.172 Y47.783 E46.45947
G1 X49.115 Y47.859 E46.47087
G1 X48.999 Y47.984 E46.49133
G1 X48.968 Y48.017 E46.49676
G1 X48.906 Y48.073 E46.50679
G1 X48.773 Y48.171 E46.52661
G1 X48.727 Y48.205 E46.53348
G1 X48.643 Y48.256 E46.54527
G1 X48.615 Y48.27 E46.54903
G1 X48.455 Y48.347 E46.57033
G1 X48.362 Y48.381 E46.58222
G1 X48.344 Y48.385 E46.58443
G1 X48.155 Y48.437 E46.60795
G1 X48.043 Y48.451 E46.6215
G1 X47.96 Y48.463 E46.63156
G1 X47.753 Y48.467 E46.6564
G1 X47.734 Y48.468 E46.65869
G1 X47.585 Y48.445 E46.67678
G1 X47.442 Y48.423 E46.69414
G1 X47.432 Y48.42 E46.69539
G1 X47.274 Y48.371 E46.71524
G1 X47.245 Y48.361 E46.71893
G1 X47.058 Y48.277 E46.74353
G1 X47.003 Y48.243 E46.75129
G1 X46.878 Y48.165 E46.76897
G1 X46.804 Y48.11 E46.78003
G1 X46.751 Y48.062 E46.78861
G1 X46.648 Y47.967 E46.80543
G1 X46.541 Y47.842 E46.82517
G1 X46.515 Y47.811 E46.83003
G1 X46.393 Y47.624 E46.85682
G1 X46.371 Y47.585 E46.86219
G1 X46.226 Y47.326 E46.89781
G1 X46.087 Y47.078 E46.93193
G1 X45.964 Y46.859 E46.96207
G1 X45.9 Y46.744 E46.97786
G1 X42.743 Y41.124 E47.75138
G1 X42.687 Y41.007 E47.76695
G1 X42.578 Y40.723 E47.80345
G1 X42.544 Y40.614 E47.81715
G1 X42.478 Y40.322 E47.85308
G1 X42.445 Y40.053 E47.8856
G1 X42.434 Y39.757 E47.92114
G1 X42.439 Y39.629 E47.93652
G1 X42.473 Y39.337 E47.97179
G1 X42.533 Y39.065 E48.00522
G1 X42.619 Y38.798 E48.03888
G1 X42.733 Y38.537 E48.07306
G1 X42.796 Y38.415 E48.08953
G1 X45.904 Y32.89 E48.85023
G1 X45.941 Y32.823 E48.85942
G1 X46.062 Y32.608 E48.88902
G1 X46.138 Y32.473 E48.90761
G1 X46.208 Y32.349 E48.9247
G1 X46.287 Y32.209 E48.94399
G1 X46.428 Y31.958 E48.97854
G1 X46.441 Y31.935 E48.98171
G1 X46.566 Y31.764 E49.00713
G1 X46.614 Y31.714 E49.01544
G1 X46.707 Y31.617 E49.03157
G1 X46.786 Y31.546 E49.04432
G1 X46.833 Y31.512 E49.05128
G1 X46.951 Y31.427 E49.06873
G1 X46.984 Y31.407 E49.07336
G1 X47.033 Y31.378 E49.08019
G1 X47.232 Y31.286 E49.1065
G1 X47.405 Y31.23 E49.12832
G0 F3600 X47.698 Y31.224
G1 F1800 X47.646 Y31.233 E49.12883
G1 X47.42 Y31.275 E49.13234
G1 X47.253 Y31.329 E49.13481
G1 X47.056 Y31.425 E49.13812
G1 X47.009 Y31.448 E49.13864
G1 X46.98 Y31.468
G1 X46.86 Y31.548 E49.14064
G1 X46.821 Y31.583
G1 X46.743 Y31.655 E49.14237
G1 X46.646 Y31.743 E49.14397
G1 X46.608 Y31.794
G1 X46.481 Y31.964 E49.14721
G1 X46.468 Y31.981
G1 X46.34 Y32.238 E49.15177
G1 X46.29 Y32.395 E49.15582
G1 X46.257 Y32.541 E49.16144
G1 X46.236 Y32.705 E49.17033
G1 X46.24 Y32.991 E49.19467
G1 X46.255 Y33.066 E49.20322
G1 X46.3 Y33.284 E49.22993
G1 X46.412 Y33.561 E49.26578
G1 X46.574 Y33.813 E49.30173
G1 X46.781 Y34.028 E49.33755
G1 X47.025 Y34.206 E49.37379
G1 X47.288 Y34.327 E49.40853
G1 X47.446 Y34.373 E49.42828
G1 X47.591 Y34.402 E49.44602
G1 X47.752 Y34.419 E49.46545
G1 X48.037 Y34.41 E49.49967
G1 X48.332 Y34.344 E49.53594
G1 X48.594 Y34.229 E49.57028
G1 X48.746 Y34.136 E49.59166
G1 X48.965 Y33.953 E49.62591
G1 X49.092 Y33.801 E49.64968
G1 X49.148 Y33.733 E49.65913
G1 X49.242 Y33.58 E49.67529
G1 X49.355 Y33.32 E49.69208
G1 X49.377 Y33.222 E49.69404
G1 X49.418 Y33.043 E49.69795
G1 X49.434 Y32.865 E49.70121
G1 X49.425 Y32.708 E49.70342
G1 X49.417 Y32.575 E49.70505
G1 X49.406 Y32.529
G1 X49.343 Y32.286 E49.70887
G1 X49.277 Y32.141 E49.71111
G1 X49.218 Y32.013 E49.71286
G1 X49.179 Y31.96
G1 X49.056 Y31.791 E49.71605
G1 X49.04 Y31.769 E49.71623
G1 X49.004 Y31.734 E49.71676
G1 X48.84 Y31.577 E49.72023
G1 X48.825 Y31.563
G1 X48.776 Y31.531 E49.72081
G1 X48.584 Y31.406 E49.72434
G1 X48.525 Y31.38 E49.72455
G1 X48.436 Y31.339 E49.72575
G1 X48.324 Y31.3 E49.72733
G1 X48.284 Y31.285 E49.72768
G1 X48.125 Y31.252 E49.72991
G1 X48.002 Y31.226 E49.73149
G1 X47.938 Y31.226
G1 X47.722 Y31.225 E49.73473
G1 X47.698 Y31.224
G0 F3600 X47.69 Y31.125
G0 X47.667 Y31.177
G0 X47.642 Y31.224
G0 X47.424 Y31.264
G0 X47.246 Y31.323
G0 X46.972 Y31.46
G0 X46.734 Y31.645
G0 X46.596 Y31.789
G0 X46.474 Y31.956
G0 X42.484 Y40.05
G0 X46.427 Y47.604
G0 X46.547 Y47.788
G0 X46.829 Y48.08
G0 X46.9 Y48.132
G0 X46.942 Y48.207
G0 X46.975 Y48.292
G0 X47.025 Y48.206
G1 F1800 X47.078 Y48.23
G1 X47.266 Y48.316 E49.73788
G1 X47.288 Y48.327
G1 X47.446 Y48.373 E49.74017
G1 X47.591 Y48.402 E49.74266
G1 X47.74 Y48.417 E49.74467
G1 X47.752 Y48.419
G1 X47.958 Y48.413 E49.74764
G1 X48.037 Y48.41 E49.74851
G1 X48.143 Y48.387 E49.74974
G1 X48.332 Y48.344 E49.75229
G1 X48.343 Y48.34
G1 X48.433 Y48.3 E49.75362
G1 X48.594 Y48.229 E49.75602
G1 X48.617 Y48.215
G1 X48.701 Y48.164 E49.75754
G1 X48.746 Y48.136 E49.75806
G1 X48.871 Y48.032 E49.76027
G1 X48.935 Y47.978 E49.76152
G1 X48.965 Y47.953
G1 X49.072 Y47.824 E49.76385
G1 X49.133 Y47.751 E49.76535
G1 X49.148 Y47.733
G1 X49.242 Y47.58 E49.76786
G1 X49.325 Y47.389 E49.77066
G1 X49.355 Y47.32
G1 X49.379 Y47.213 E49.77206
G1 X49.418 Y47.041 E49.77463
G1 X49.419 Y47.017
G1 X49.426 Y46.939 E49.77588
G1 X49.433 Y46.864 E49.7767
G1 X49.417 Y46.576 E49.78146
G1 X49.38 Y46.429 E49.78435
G1 X49.343 Y46.286 E49.79118
G1 X49.218 Y46.013 E49.81061
G1 X49.096 Y45.846 E49.83143
G1 X49.04 Y45.769 E49.84286
G1 X48.825 Y45.563 E49.87859
G1 X48.584 Y45.406 E49.9131
G1 X48.436 Y45.339 E49.9326
G1 X48.284 Y45.285 E49.95196
G1 X48.002 Y45.226 E49.98653
G1 X47.698 Y45.224 E50.02301
G1 X47.42 Y45.275 E50.05693
G1 X47.253 Y45.329 E50.07799
G1 X47.009 Y45.448 E50.11057
G1 X46.86 Y45.548 E50.1321
G1 X46.646 Y45.743 E50.16684
G1 X46.468 Y45.981 E50.2025
G1 X46.34 Y46.238 E50.23696
G1 X46.29 Y46.395 E50.25673
G1 X46.257 Y46.541 E50.27469
G1 X46.252 Y46.574 E50.2787
G1 X46.236 Y46.705 E50.29287
G1 X46.24 Y46.991 E50.31819
G1 X46.3 Y47.284 E50.33273
G1 X46.412 Y47.561 E50.33924
G1 X46.434 Y47.596
G1 X46.556 Y47.785 E50.34252
G1 X46.574 Y47.813 E50.3426
G1 X46.686 Y47.929 E50.34476
G1 X46.781 Y48.028 E50.34662
G1 X46.834 Y48.066
G1 X46.909 Y48.121 E50.34809
G1 X47.025 Y48.206 E50.34995
G0 F3600 X46.975 Y48.292
G0 X47.014 Y48.253
G0 X47.045 Y48.222
G0 X47.437 Y48.411
G0 X48.042 Y48.449
G0 X48.612 Y48.264
G0 X48.993 Y47.981
G0 X49.277 Y47.598
G0 X49.457 Y47.047
G0 X49.457 Y46.777
G0 X49.326 Y46.009
G0 X48.871 Y46.216
;TYPE:WALL-OUTER
G1 F1800 X48.738 Y46.033 E50.3771
G1 X48.576 Y45.878 E50.404
G1 X48.391 Y45.758 E50.43047
G1 X48.286 Y45.71 E50.44432
G1 X48.176 Y45.671 E50.45833
G1 X47.959 Y45.626 E50.48492
G1 X47.733 Y45.624 E50.51204
G1 X47.518 Y45.664 E50.53828
G1 X47.402 Y45.701 E50.55289
G1 X47.209 Y45.795 E50.57866
G1 X47.108 Y45.863 E50.59327
G1 X46.944 Y46.013 E50.61994
G1 X46.81 Y46.192 E50.64677
G1 X46.712 Y46.389 E50.67317
G1 X46.676 Y46.501 E50.68729
G1 X46.651 Y46.611 E50.70083
G1 X46.636 Y46.728 E50.71498
G1 X46.639 Y46.948 E50.74138
G1 X46.684 Y47.167 E50.76821
G1 X46.769 Y47.376 E50.79529
G1 X46.89 Y47.564 E50.82212
G1 X47.045 Y47.726 E50.84902
G1 X47.228 Y47.859 E50.87617
G1 X47.428 Y47.951 E50.90259
G1 X47.541 Y47.984 E50.91671
G1 X47.651 Y48.006 E50.93017
G1 X47.766 Y48.018 E50.94405
G1 X47.987 Y48.011 E50.97058
G1 X48.207 Y47.962 E50.99763
G1 X48.408 Y47.874 E51.02396
G1 X48.512 Y47.81 E51.03861
G1 X48.681 Y47.669 E51.06502
G1 X48.822 Y47.5 E51.09144
G1 X48.886 Y47.395 E51.10619
G1 X48.973 Y47.195 E51.13236
G1 X49.022 Y46.98 E51.15883
G1 X49.032 Y46.858 E51.17351
G1 X49.02 Y46.637 E51.20007
G1 X48.964 Y46.42 E51.22697
G1 X48.871 Y46.216 E51.25387
G0 F3600 X48.754 Y46.055
G0 X49.158 Y45.762
G0 X49.456 Y32.569
G0 X49.323 Y32.159
G0 X49.323 Y32.115
G0 X49.326 Y32.009
G0 X48.871 Y32.216
G1 F1800 X48.738 Y32.033 E51.28102
G1 X48.576 Y31.878 E51.30792
G1 X48.391 Y31.758 E51.33438
G1 X48.286 Y31.71 E51.34824
G1 X48.176 Y31.671 E51.36224
G1 X47.959 Y31.626 E51.38884
G1 X47.733 Y31.624 E51.41596
G1 X47.518 Y31.664 E51.4422
G1 X47.402 Y31.701 E51.45681
G1 X47.209 Y31.795 E51.48257
G1 X47.108 Y31.863 E51.49718
G1 X46.944 Y32.013 E51.52385
G1 X46.81 Y32.192 E51.55069
G1 X46.712 Y32.389 E51.57709
G1 X46.676 Y32.501 E51.59121
G1 X46.651 Y32.611 E51.60474
G1 X46.636 Y32.728 E51.6189
G1 X46.639 Y32.948 E51.6453
G1 X46.684 Y33.167 E51.67213
G1 X46.769 Y33.376 E51.6992
G1 X46.89 Y33.564 E51.72603
G1 X47.045 Y33.726 E51.75294
G1 X47.228 Y33.859 E51.78009
G1 X47.428 Y33.951 E51.8065
G1 X47.541 Y33.984 E51.82063
G1 X47.651 Y34.006 E51.83409
G1 X47.766 Y34.018 E51.84797
G1 X47.987 Y34.011 E51.8745
G1 X48.207 Y33.962 E51.90155
G1 X48.408 Y33.874 E51.92788
G1 X48.512 Y33.81 E51.94253
G1 X48.681 Y33.669 E51.96894
G1 X48.822 Y33.5 E51.99535
G1 X48.886 Y33.395 E52.01011
G1 X48.973 Y33.195 E52.03628
G1 X49.022 Y32.98 E52.06274
G1 X49.033 Y32.859 E52.07732
G1 X49.02 Y32.637 E52.10401
G1 X48.964 Y32.42 E52.1309
G1 X48.871 Y32.216 E52.1578
G0 F3600 X48.754 Y32.055
G0 X49.158 Y31.762
G0 X49.061 Y31.718
G0 X49.021 Y31.7
G0 X48.959 Y31.672
G0 X48.919 Y31.655
G0 X48.117 Y31.298
G0 X48.21 Y30.806
G1 F1800 X48.462 Y30.87 E52.189
G1 X48.707 Y30.967 E52.22063
G1 X48.812 Y31.02 E52.23474
G1 X49.032 Y31.159 E52.26597
G1 X49.131 Y31.235 E52.28094
G1 X49.33 Y31.421 E52.31363
G1 X49.406 Y31.507 E52.3274
G1 X49.558 Y31.715 E52.35832
G1 X49.68 Y31.935 E52.38851
G1 X49.737 Y32.063 E52.40532
G1 X49.774 Y32.166 E52.41845
G1 X49.845 Y32.438 E52.45219
G1 X49.867 Y32.57 E52.46825
G1 X49.878 Y32.695 E52.4833
G1 X49.883 Y33.245 E52.54931
G1 X49.883 Y46.406 E54.12863
G1 X49.877 Y46.963 E54.19547
