;FLAVOR:UltiGCode
;TIME:841
;MATERIAL:1346
;MATERIAL2:0
;NOZZLE_DIAMETER:0.4
;Generated with Cura_SteamEngine 3.4.1
M82 ;absolute extrusion mode

G92 E0
G10
;LAYER_COUNT:103
;LAYER:0
M107
G0 F3600 X51.781 Y52.193 Z0.3
;TYPE:SKIRT
G11
G1 F1800 X52.22 Y51.758 E0.07416
G1 X52.978 Y51.104 E0.1943
G1 X53.564 Y50.677 E0.28131
G1 X54.612 Y50.039 E0.42854
G1 X55.334 Y49.685 E0.52503
G1 X56.678 Y49.173 E0.69762
G1 X57.424 Y48.962 E0.79065
G1 X58.341 Y48.788 E0.90265
G1 X58.957 Y48.716 E0.97708
G1 X59.989 Y48.668 E1.10105
G1 X60.729 Y48.696 E1.18991
G1 X62.024 Y48.855 E1.34648
G1 X62.678 Y48.986 E1.42652
G1 X63.44 Y49.2 E1.5215
G1 X64.044 Y49.418 E1.59855
G1 X65.128 Y49.902 E1.74101
G1 X65.715 Y50.22 E1.82112
G1 X66.607 Y50.794 E1.94841
G1 X67.083 Y51.148 E2.0196
G1 X67.302 Y51.348 E2.05519
G1 X68.438 Y52.459 E2.24586
G1 X68.947 Y53.054 E2.33982
G1 X69.549 Y53.9 E2.46442
G1 X69.903 Y54.49 E2.54699
G1 X70.369 Y55.426 E2.67246
G1 X70.621 Y56.048 E2.75299
G1 X70.939 Y57.043 E2.87834
G1 X71.093 Y57.687 E2.9578
G1 X71.261 Y58.737 E3.0854
G1 X71.316 Y59.398 E3.165
G1 X71.324 Y60.442 E3.29028
G1 X71.29 Y61.019 E3.35964
G1 X71.201 Y61.734 E3.4461
G1 X71.071 Y62.38 E3.52518
G1 X70.696 Y63.716 E3.69169
G1 X70.46 Y64.36 E3.774
G1 X70.148 Y65.041 E3.86389
G1 X69.845 Y65.594 E3.93956
G1 X69.155 Y66.663 E4.09224
G1 X68.638 Y67.318 E4.19237
G1 X67.701 Y68.298 E4.35507
G1 X67.151 Y68.784 E4.44315
G1 X66.325 Y69.4 E4.5668
G1 X65.596 Y69.841 E4.66904
G1 X64.149 Y70.534 E4.86157
G1 X63.362 Y70.823 E4.96217
G1 X62.357 Y71.086 E5.08683
G1 X61.733 Y71.202 E5.163
G1 X60.841 Y71.302 E5.27071
G1 X60.234 Y71.327 E5.34361
G1 X59.147 Y71.298 E5.4741
G1 X58.596 Y71.249 E5.54048
G1 X57.945 Y71.149 E5.61951
G1 X57.391 Y71.027 E5.68759
G1 X56.405 Y70.742 E5.81075
G1 X55.757 Y70.498 E5.89384
G1 X54.637 Y69.972 E6.04232
G1 X54.081 Y69.66 E6.11883
G1 X53.347 Y69.175 E6.2244
G1 X52.701 Y68.654 E6.32399
G1 X51.573 Y67.554 E6.51306
G1 X51.059 Y66.954 E6.60787
G1 X50.446 Y66.092 E6.73479
G1 X50.091 Y65.499 E6.81773
G1 X49.633 Y64.577 E6.94127
G1 X49.384 Y63.963 E7.02078
G1 X49.058 Y62.946 E7.14893
G1 X48.902 Y62.293 E7.2295
G1 X48.738 Y61.26 E7.35501
G1 X48.684 Y60.608 E7.43352
G1 X48.675 Y59.573 E7.55772
G1 X48.748 Y58.738 E7.65831
G1 X49.027 Y57.223 E7.84316
G1 X49.173 Y56.649 E7.91424
G1 X49.276 Y56.368 E7.95015
G1 X49.774 Y55.139 E8.10928
G1 X50.158 Y54.401 E8.20911
G1 X50.858 Y53.319 E8.36375
G1 X51.239 Y52.813 E8.43976
G1 X51.781 Y52.193 E8.53858
G0 F3600 X52.082 Y52.456
G1 F1800 X52.481 Y52.06 E8.60604
G1 X53.239 Y51.406 E8.72618
G1 X53.772 Y51.018 E8.80529
G1 X54.82 Y50.38 E8.95252
G1 X55.476 Y50.059 E9.04016
G1 X56.82 Y49.547 E9.21275
G1 X57.498 Y49.355 E9.2973
G1 X58.415 Y49.181 E9.40931
G1 X58.975 Y49.115 E9.47697
G1 X60.007 Y49.067 E9.60095
G1 X60.68 Y49.093 E9.68177
G1 X61.975 Y49.252 E9.83833
G1 X62.57 Y49.371 E9.91115
G1 X63.332 Y49.585 E10.00613
G1 X63.881 Y49.784 E10.0762
G1 X64.965 Y50.268 E10.21866
G1 X65.499 Y50.556 E10.29146
G1 X66.391 Y51.13 E10.41875
G1 X67.023 Y51.634 E10.51575
G1 X68.159 Y52.745 E10.70643
G1 X68.621 Y53.286 E10.7918
G1 X69.223 Y54.132 E10.9164
G1 X69.545 Y54.668 E10.99143
G1 X70.011 Y55.604 E11.1169
G1 X70.24 Y56.169 E11.19006
G1 X70.558 Y57.164 E11.31541
G1 X70.698 Y57.75 E11.38771
G1 X70.866 Y58.8 E11.51531
G1 X70.916 Y59.401 E11.58768
G1 X70.924 Y60.445 E11.71297
G1 X70.893 Y60.97 E11.77607
G1 X70.804 Y61.685 E11.86254
G1 X70.686 Y62.272 E11.93439
G1 X70.311 Y63.608 E12.1009
G1 X70.097 Y64.193 E12.17565
G1 X69.785 Y64.874 E12.26554
G1 X69.509 Y65.377 E12.33439
G1 X68.819 Y66.446 E12.48707
G1 X68.349 Y67.041 E12.57806
G1 X67.412 Y68.021 E12.74076
G1 X66.912 Y68.464 E12.82093
G1 X66.086 Y69.08 E12.94457
G1 X65.423 Y69.481 E13.03755
G1 X63.976 Y70.174 E13.23008
G1 X63.261 Y70.436 E13.32146
G1 X62.256 Y70.699 E13.44612
G1 X61.689 Y70.804 E13.51532
G1 X60.797 Y70.904 E13.62303
G1 X60.244 Y70.928 E13.68945
G1 X59.157 Y70.899 E13.81994
G1 X58.657 Y70.854 E13.88018
G1 X58.006 Y70.754 E13.95922
G1 X57.502 Y70.643 E14.02115
G1 X56.516 Y70.358 E14.14431
G1 X55.927 Y70.136 E14.21984
G1 X54.807 Y69.61 E14.36833
G1 X54.302 Y69.326 E14.43785
G1 X53.568 Y68.841 E14.54342
G1 X52.98 Y68.368 E14.63398
G1 X51.852 Y67.268 E14.82305
G1 X51.385 Y66.722 E14.90926
G1 X50.772 Y65.86 E15.03619
G1 X50.45 Y65.322 E15.11143
G1 X49.992 Y64.4 E15.23497
G1 X49.765 Y63.841 E15.30737
G1 X49.439 Y62.824 E15.43553
G1 X49.297 Y62.23 E15.50882
G1 X49.133 Y61.197 E15.63433
G1 X49.084 Y60.605 E15.70561
G1 X49.075 Y59.57 E15.82982
G1 X49.141 Y58.811 E15.92124
G1 X49.42 Y57.296 E16.1061
G1 X49.647 Y56.518 E16.20335
G1 X50.145 Y55.289 E16.36248
G1 X50.494 Y54.618 E16.45324
G1 X51.194 Y53.536 E16.60788
G1 X51.54 Y53.076 E16.67695
G1 X52.082 Y52.456 E16.77577
G0 F3600 X52.384 Y52.72
G1 F1800 X52.742 Y52.363 E16.83644
G1 X53.5 Y51.709 E16.95658
G1 X53.98 Y51.36 E17.0278
G1 X55.028 Y50.722 E17.17503
G1 X55.618 Y50.433 E17.25386
G1 X56.962 Y49.921 E17.42645
G1 X57.573 Y49.748 E17.50265
G1 X58.49 Y49.574 E17.61466
G1 X58.994 Y49.515 E17.67555
G1 X60.026 Y49.467 E17.79952
G1 X60.632 Y49.49 E17.8723
G1 X61.927 Y49.649 E18.02886
G1 X62.461 Y49.756 E18.09422
G1 X63.223 Y49.97 E18.18919
G1 X63.718 Y50.149 E18.25236
G1 X64.802 Y50.633 E18.39482
G1 X65.282 Y50.893 E18.46032
G1 X66.174 Y51.467 E18.58761
G1 X66.743 Y51.92 E18.67489
G1 X67.879 Y53.031 E18.86556
G1 X68.295 Y53.518 E18.94242
G1 X68.897 Y54.364 E19.06702
G1 X69.187 Y54.847 E19.13463
G1 X69.653 Y55.783 E19.2601
G1 X69.859 Y56.291 E19.32588
G1 X70.177 Y57.286 E19.45123
G1 X70.303 Y57.813 E19.51625
G1 X70.471 Y58.863 E19.64385
G1 X70.516 Y59.404 E19.709
G1 X70.524 Y60.448 E19.83428
G1 X70.496 Y60.921 E19.89114
G1 X70.407 Y61.636 E19.9776
G1 X70.301 Y62.164 E20.04223
G1 X69.926 Y63.5 E20.20874
G1 X69.733 Y64.026 E20.27598
G1 X69.421 Y64.707 E20.36586
G1 X69.173 Y65.16 E20.42784
G1 X68.483 Y66.229 E20.58052
G1 X68.06 Y66.765 E20.66246
G1 X67.123 Y67.745 E20.82516
G1 X66.673 Y68.143 E20.89725
G1 X65.847 Y68.759 E21.0209
G1 X65.25 Y69.12 E21.10462
G1 X63.803 Y69.813 E21.29714
G1 X63.159 Y70.049 E21.37945
G1 X62.154 Y70.312 E21.50411
G1 X61.644 Y70.407 E21.56636
G1 X60.752 Y70.507 E21.67407
G1 X60.255 Y70.528 E21.73377
G1 X59.168 Y70.499 E21.86425
G1 X58.717 Y70.458 E21.9186
G1 X58.066 Y70.358 E21.99763
G1 X57.613 Y70.258 E22.0533
G1 X56.627 Y69.973 E22.17647
G1 X56.097 Y69.774 E22.2444
G1 X54.977 Y69.248 E22.39288
G1 X54.522 Y68.993 E22.45547
G1 X53.788 Y68.508 E22.56105
G1 X53.26 Y68.081 E22.64253
G1 X52.132 Y66.981 E22.8316
G1 X51.711 Y66.49 E22.90921
G1 X51.098 Y65.628 E23.03614
G1 X50.808 Y65.144 E23.10385
G1 X50.35 Y64.222 E23.22739
G1 X50.146 Y63.719 E23.29252
G1 X49.82 Y62.702 E23.42068
G1 X49.693 Y62.167 E23.48666
G1 X49.529 Y61.134 E23.61218
G1 X49.484 Y60.601 E23.67636
G1 X49.475 Y59.566 E23.80057
G1 X49.535 Y58.883 E23.88284
G1 X49.814 Y57.368 E24.0677
G1 X50.018 Y56.668 E24.1552
G1 X50.516 Y55.439 E24.31432
G1 X50.829 Y54.836 E24.39585
G1 X51.529 Y53.754 E24.55049
G1 X51.842 Y53.34 E24.61277
G1 X52.384 Y52.72 E24.7116
G0 F3600 X52.685 Y52.983
G1 F1800 X53.004 Y52.666 E24.76556
G1 X53.762 Y52.012 E24.8857
G1 X54.188 Y51.702 E24.94892
G1 X55.236 Y51.064 E25.09615
G1 X55.761 Y50.807 E25.1663
G1 X57.105 Y50.295 E25.33888
G1 X57.647 Y50.141 E25.4065
G1 X58.564 Y49.967 E25.5185
G1 X59.012 Y49.914 E25.57263
G1 X60.044 Y49.866 E25.69661
G1 X60.583 Y49.887 E25.76134
G1 X61.878 Y50.046 E25.9179
G1 X62.353 Y50.141 E25.97603
G1 X63.115 Y50.355 E26.07101
G1 X63.555 Y50.514 E26.12715
G1 X64.639 Y50.998 E26.26961
G1 X65.066 Y51.229 E26.32787
G1 X65.958 Y51.803 E26.45515
G1 X66.463 Y52.206 E26.53269
G1 X67.599 Y53.317 E26.72336
G1 X67.969 Y53.75 E26.79171
G1 X68.571 Y54.596 E26.91631
G1 X68.829 Y55.025 E26.97638
G1 X69.295 Y55.961 E27.10185
G1 X69.478 Y56.413 E27.16037
G1 X69.796 Y57.408 E27.28572
G1 X69.908 Y57.876 E27.34346
G1 X70.076 Y58.926 E27.47107
G1 X70.116 Y59.407 E27.52898
G1 X70.124 Y60.451 E27.65427
G1 X70.099 Y60.871 E27.70476
G1 X70.01 Y61.586 E27.79122
G1 X69.916 Y62.056 E27.84874
G1 X69.541 Y63.392 E28.01525
G1 X69.369 Y63.86 E28.07508
G1 X69.057 Y64.541 E28.16497
G1 X68.837 Y64.943 E28.21996
G1 X68.147 Y66.012 E28.37265
G1 X67.771 Y66.488 E28.44544
G1 X66.834 Y67.468 E28.60814
G1 X66.434 Y67.822 E28.67224
G1 X65.608 Y68.438 E28.79589
G1 X65.077 Y68.759 E28.87035
G1 X63.63 Y69.452 E29.06287
G1 X63.058 Y69.662 E29.13599
G1 X62.053 Y69.925 E29.26065
G1 X61.6 Y70.009 E29.31594
G1 X60.708 Y70.109 E29.42365
G1 X60.266 Y70.128 E29.47674
G1 X59.179 Y70.099 E29.60723
G1 X58.778 Y70.063 E29.65554
G1 X58.127 Y69.963 E29.73457
G1 X57.724 Y69.874 E29.7841
G1 X56.738 Y69.589 E29.90726
G1 X56.267 Y69.411 E29.96769
G1 X55.147 Y68.885 E30.11617
G1 X54.743 Y68.659 E30.17172
G1 X54.009 Y68.174 E30.27729
G1 X53.539 Y67.795 E30.34974
G1 X52.411 Y66.695 E30.53881
G1 X52.037 Y66.259 E30.60774
G1 X51.424 Y65.397 E30.73467
G1 X51.166 Y64.966 E30.79495
G1 X50.708 Y64.044 E30.91849
G1 X50.527 Y63.597 E30.97636
G1 X50.201 Y62.58 E31.10452
G1 X50.088 Y62.105 E31.16311
G1 X49.924 Y61.072 E31.28862
G1 X49.884 Y60.598 E31.3457
G1 X49.875 Y59.563 E31.46991
G1 X49.928 Y58.955 E31.54314
G1 X50.207 Y57.44 E31.728
G1 X50.388 Y56.818 E31.80574
G1 X50.886 Y55.589 E31.96486
G1 X51.165 Y55.053 E32.03737
G1 X51.865 Y53.971 E32.19202
G1 X52.143 Y53.603 E32.24736
G1 X52.685 Y52.983 E32.34618
G10
G0 F3600 X54.892 Y54.356
G0 X55.782 Y55.28
G0 X59.748 Y56.783
G0 X59.755 Y56.882
;TYPE:WALL-INNER
G11
G1 F1800 X59.368 Y56.939 E32.39312
G1 X58.991 Y57.041 E32.43999
G1 X58.629 Y57.19 E32.48697
G1 X58.29 Y57.383 E32.53378
G1 X57.976 Y57.617 E32.58077
G1 X57.715 Y57.87 E32.62439
G1 X57.469 Y58.168 E32.67076
G1 X57.258 Y58.5 E32.71796
G1 X57.096 Y58.846 E32.76381
G1 X57.028 Y59.039 E32.78837
G1 X56.973 Y59.226 E32.81176
G1 X56.931 Y59.418 E32.83534
G1 X56.901 Y59.609 E32.85854
G1 X56.882 Y59.804 E32.88205
G1 X56.876 Y59.997 E32.90522
G1 X56.88 Y60.193 E32.92875
G1 X56.901 Y60.4 E32.95372
G1 X56.972 Y60.775 E32.99952
G1 X57.092 Y61.145 E33.04619
G1 X57.254 Y61.49 E33.09193
G1 X57.358 Y61.668 E33.11667
G1 X57.474 Y61.838 E33.14136
G1 X57.716 Y62.133 E33.18715
G1 X57.98 Y62.381 E33.23062
G1 X58.29 Y62.615 E33.27723
G1 X58.63 Y62.808 E33.32414
G1 X58.984 Y62.954 E33.37009
G1 X59.179 Y63.013 E33.39454
G1 X59.37 Y63.059 E33.41812
G1 X59.561 Y63.092 E33.44137
G1 X59.763 Y63.116 E33.46579
G1 X60.145 Y63.122 E33.51163
G1 X60.526 Y63.081 E33.55761
G1 X60.736 Y63.037 E33.58336
G1 X61.101 Y62.925 E33.62918
G1 X61.448 Y62.769 E33.67483
G1 X61.636 Y62.662 E33.70079
G1 X61.942 Y62.448 E33.7456
G1 X62.104 Y62.309 E33.77121
G1 X62.344 Y62.063 E33.81246
G1 X62.479 Y61.9 E33.83785
G1 X62.688 Y61.591 E33.88262
G1 X62.786 Y61.411 E33.90721
G1 X62.872 Y61.229 E33.93137
G1 X62.999 Y60.873 E33.97672
G1 X63.048 Y60.679 E34.00074
G1 X63.086 Y60.486 E34.02434
G1 X63.11 Y60.292 E34.0478
G1 X63.123 Y60.098 E34.07113
G1 X63.124 Y59.903 E34.09453
G1 X63.111 Y59.705 E34.11834
G1 X63.085 Y59.502 E34.1429
G1 X63.002 Y59.131 E34.18852
G1 X62.874 Y58.772 E34.23426
G1 X62.787 Y58.587 E34.25879
G1 X62.693 Y58.414 E34.28242
G1 X62.588 Y58.248 E34.30599
G1 X62.468 Y58.083 E34.33047
G1 X62.216 Y57.797 E34.37621
G1 X61.945 Y57.555 E34.41981
G1 X61.635 Y57.337 E34.46529
G1 X61.456 Y57.236 E34.48995
G1 X61.279 Y57.15 E34.51357
G1 X61.098 Y57.076 E34.53703
G1 X60.917 Y57.014 E34.55999
G1 X60.727 Y56.961 E34.58366
G1 X60.533 Y56.922 E34.60741
G1 X60.341 Y56.894 E34.63069
G1 X60.138 Y56.878 E34.65513
G1 X59.755 Y56.882 E34.70109
G0 F3600 X59.748 Y56.783
G0 X60.928 Y56.976
G0 X61.656 Y57.304
G0 X62.244 Y57.769
G0 X62.822 Y58.569
G0 X63.124 Y59.496
G0 X63.124 Y60.302
G0 X62.149 Y65.869
G0 X62.182 Y65.963
G1 F1800 X61.734 Y66.108 E34.75759
G1 X61.504 Y66.168 E34.78612
G1 X61.273 Y66.219 E34.8145
G1 X61.015 Y66.266 E34.84597
G1 X60.799 Y66.297 E34.87216
G1 X60.544 Y66.324 E34.90293
G1 X60.311 Y66.34 E34.93096
G1 X60.062 Y66.348 E34.96085
G1 X59.837 Y66.346 E34.98785
G1 X59.344 Y66.314 E35.04714
G1 X58.875 Y66.248 E35.10397
G1 X58.406 Y66.144 E35.16162
G1 X57.937 Y66.004 E35.22035
G1 X57.734 Y65.93 E35.24628
G1 X57.256 Y65.725 E35.30869
G1 X56.847 Y65.511 E35.36409
G1 X56.646 Y65.391 E35.39218
G1 X56.235 Y65.113 E35.45172
G1 X55.873 Y64.824 E35.50731
G1 X55.682 Y64.654 E35.53799
G1 X55.34 Y64.313 E35.59594
G1 X55.195 Y64.151 E35.62203
G1 X54.896 Y63.776 E35.67959
G1 X54.617 Y63.366 E35.7391
G1 X54.375 Y62.944 E35.79747
G1 X54.168 Y62.51 E35.85517
G1 X54.083 Y62.301 E35.88225
G1 X53.995 Y62.061 E35.91292
G1 X53.856 Y61.602 E35.97047
G1 X53.802 Y61.376 E35.99836
G1 X53.756 Y61.147 E36.02639
G1 X53.715 Y60.896 E36.05691
G1 X53.687 Y60.672 E36.084
G1 X53.666 Y60.425 E36.11374
G1 X53.654 Y60.176 E36.14366
G1 X53.658 Y59.705 E36.20018
G1 X53.699 Y59.218 E36.25883
G1 X53.773 Y58.757 E36.31485
G1 X53.887 Y58.287 E36.37289
G1 X54.039 Y57.812 E36.43274
G1 X54.111 Y57.626 E36.45667
G1 X54.32 Y57.164 E36.51752
G1 X54.545 Y56.749 E36.57417
G1 X54.668 Y56.552 E36.60204
G1 X54.958 Y56.141 E36.6624
G1 X55.092 Y55.973 E36.68819
G1 X55.425 Y55.597 E36.74846
G1 X55.769 Y55.266 E36.80574
G1 X56.146 Y54.954 E36.86447
G1 X56.326 Y54.821 E36.89132
G1 X56.733 Y54.556 E36.9496
G1 X57.153 Y54.324 E37.00718
G1 X57.357 Y54.226 E37.03434
G1 X57.599 Y54.122 E37.06595
G1 X57.809 Y54.039 E37.09304
G1 X58.266 Y53.891 E37.15069
G1 X58.728 Y53.778 E37.20776
G1 X58.986 Y53.732 E37.23921
G1 X59.454 Y53.674 E37.2958
G1 X59.938 Y53.651 E37.35395
G1 X60.165 Y53.653 E37.38119
G1 X60.655 Y53.684 E37.4401
G1 X61.131 Y53.751 E37.49779
G1 X61.348 Y53.795 E37.52436
G1 X61.826 Y53.92 E37.58365
G1 X62.274 Y54.072 E37.64042
G1 X62.732 Y54.269 E37.70025
G1 X63.159 Y54.492 E37.75805
G1 X63.354 Y54.609 E37.78534
G1 X63.765 Y54.886 E37.84482
G1 X63.93 Y55.012 E37.86973
G1 X64.31 Y55.338 E37.92981
G1 X64.652 Y55.678 E37.98768
G1 X64.969 Y56.048 E38.04615
G1 X65.102 Y56.22 E38.07224
G1 X65.388 Y56.641 E38.13331
G1 X65.612 Y57.029 E38.18708
G1 X65.832 Y57.489 E38.24826
G1 X66.001 Y57.922 E38.30404
G1 X66.077 Y58.158 E38.33379
G1 X66.198 Y58.624 E38.39157
G1 X66.244 Y58.851 E38.41936
G1 X66.282 Y59.082 E38.44745
G1 X66.312 Y59.319 E38.47612
G1 X66.333 Y59.56 E38.50515
G1 X66.346 Y59.822 E38.53663
G1 X66.342 Y60.292 E38.59303
G1 X66.302 Y60.772 E38.65083
G1 X66.227 Y61.241 E38.70783
G1 X66.113 Y61.711 E38.76586
G1 X65.965 Y62.175 E38.82431
G1 X65.889 Y62.373 E38.84976
G1 X65.683 Y62.829 E38.9098
G1 X65.454 Y63.25 E38.96731
G1 X65.327 Y63.454 E38.99615
G1 X65.046 Y63.853 E39.05471
G1 X64.899 Y64.038 E39.08306
G1 X64.579 Y64.397 E39.14077
G1 X64.238 Y64.728 E39.1978
G1 X64.061 Y64.879 E39.22572
G1 X63.66 Y65.187 E39.2864
G1 X63.265 Y65.445 E39.34301
G1 X63.06 Y65.562 E39.37134
G1 X62.63 Y65.778 E39.42908
G1 X62.401 Y65.878 E39.45907
G1 X62.182 Y65.963 E39.48726
G0 F3600 X62.149 Y65.869
G0 X65.244 Y63.399
G0 X65.659 Y63.678
;TYPE:WALL-OUTER
G1 F1800 X65.369 Y64.089 E39.54762
G1 X65.205 Y64.296 E39.57931
G1 X64.874 Y64.668 E39.63906
G1 X64.498 Y65.032 E39.70186
G1 X64.313 Y65.19 E39.73106
G1 X63.896 Y65.51 E39.79413
G1 X63.688 Y65.652 E39.82435
G1 X63.478 Y65.784 E39.85412
G1 X63.26 Y65.909 E39.88427
G1 X62.79 Y66.145 E39.94738
G1 X62.558 Y66.246 E39.97775
G1 X62.327 Y66.336 E40.0075
G1 X62.079 Y66.421 E40.03896
G1 X61.842 Y66.493 E40.06868
G1 X61.595 Y66.558 E40.09933
G1 X61.345 Y66.613 E40.13005
G1 X61.087 Y66.66 E40.16152
G1 X60.841 Y66.695 E40.19133
G1 X60.587 Y66.722 E40.22199
G1 X60.324 Y66.74 E40.25362
G1 X60.072 Y66.748 E40.28387
G1 X59.825 Y66.746 E40.31352
G1 X59.302 Y66.712 E40.37641
G1 X58.799 Y66.641 E40.43737
G1 X58.311 Y66.533 E40.49734
G1 X57.806 Y66.382 E40.56059
G1 X57.581 Y66.3 E40.58933
G1 X57.098 Y66.093 E40.65239
G1 X56.649 Y65.858 E40.7132
G1 X56.43 Y65.727 E40.74383
G1 X56.003 Y65.438 E40.8057
G1 X55.81 Y65.291 E40.83481
G1 X55.607 Y65.123 E40.86643
G1 X55.416 Y64.953 E40.89712
G1 X55.051 Y64.589 E40.95897
G1 X54.884 Y64.402 E40.98906
G1 X54.572 Y64.011 E41.04909
G1 X54.279 Y63.581 E41.11153
G1 X54.028 Y63.143 E41.17211
G1 X53.91 Y62.908 E41.20366
G1 X53.804 Y62.676 E41.23427
G1 X53.707 Y62.439 E41.265
G1 X53.619 Y62.199 E41.29567
G1 X53.543 Y61.964 E41.32531
G1 X53.471 Y61.711 E41.35688
G1 X53.413 Y61.469 E41.38674
