;FLAVOR:UltiGCode
;TIME:2257
;MATERIAL:3592
;MATERIAL2:0
;NOZZLE_DIAMETER:0.4
;Generated with Cura_SteamEngine 3.4.1
M82 ;absolute extrusion mode

G92 E0
G10
;LAYER_COUNT:111
;LAYER:0
M107
G0 F3600 X33.702 Y48.996 Z0.3
;TYPE:SKIRT
G11
G1 F1800 X34.184 Y48.762 E0.0643
G1 X34.696 Y48.602 E0.12867
G1 X35.226 Y48.52 E0.19302
G1 X35.507 Y48.509 E0.22677
G1 X44.79 Y48.5 E1.34073
G1 X44.873 Y48.501 E1.35069
G1 X48.295 Y48.577 E1.76143
G1 X53.764 Y48.5 E2.41778
G1 X53.838 Y48.5 E2.42666
G1 X66.265 Y48.578 E3.91793
G1 X71.764 Y48.5 E4.57787
G1 X71.819 Y48.5 E4.58447
G1 X81.592 Y48.511 E5.75723
G1 X82.173 Y48.559 E5.82719
G1 X82.938 Y48.685 E5.92023
G1 X83.459 Y48.811 E5.98455
G1 X83.818 Y48.949 E6.0307
G1 X84.545 Y49.273 E6.12621
G1 X85.018 Y49.527 E6.19064
G1 X85.424 Y49.828 E6.25129
G1 X86.105 Y50.412 E6.35894
G1 X86.484 Y50.791 E6.42326
G1 X86.781 Y51.185 E6.48247
G1 X87.227 Y51.872 E6.58076
G1 X87.484 Y52.342 E6.64504
G1 X87.653 Y52.792 E6.70272
G1 X87.896 Y53.597 E6.80363
G1 X88.013 Y54.12 E6.86794
G1 X88.05 Y54.62 E6.9281
G1 X88.095 Y64.345 E8.09512
G1 X88.084 Y64.644 E8.13102
G1 X87.986 Y65.892 E8.28124
G1 X87.904 Y66.422 E8.3456
G1 X87.763 Y66.886 E8.40379
G1 X87.492 Y67.601 E8.49555
G1 X87.265 Y68.087 E8.55992
G1 X86.927 Y68.586 E8.63224
G1 X86.244 Y69.432 E8.76271
G1 X85.828 Y69.868 E8.83503
G1 X83.352 Y72.058 E9.2317
G1 X79.431 Y75.851 E9.88634
G1 X75.728 Y79.864 E10.54159
G1 X72.264 Y84.07 E11.19545
G1 X68.695 Y88.944 E11.92037
G1 X68.354 Y89.345 E11.98354
G1 X68 Y89.704 E12.04404
G1 X67.453 Y90.159 E12.12942
G1 X66.913 Y90.524 E12.20763
G1 X66.234 Y90.884 E12.29986
G1 X65.659 Y91.114 E12.37417
G1 X65.148 Y91.275 E12.43846
G1 X64.855 Y91.331 E12.47426
G1 X64.067 Y91.449 E12.56988
G1 X63.528 Y91.489 E12.63473
G1 X56.218 Y91.477 E13.51193
G1 X55.683 Y91.436 E13.57632
G1 X55.4 Y91.381 E13.61092
G1 X54.622 Y91.198 E13.70683
G1 X54.11 Y91.037 E13.77123
G1 X53.572 Y90.768 E13.84341
G1 X52.619 Y90.187 E13.97735
G1 X52.183 Y89.874 E14.04176
G1 X51.811 Y89.514 E14.10388
G1 X51.4 Y89.055 E14.17781
G1 X51.141 Y88.73 E14.22768
G1 X49.735 Y86.739 E14.52017
G1 X46.407 Y82.399 E15.17646
G1 X42.843 Y78.259 E15.83199
G1 X39.039 Y74.316 E16.48945
G1 X37.092 Y72.462 E16.81207
G1 X33.805 Y69.5 E17.34304
G1 X33.435 Y69.113 E17.40729
G1 X33.225 Y68.83 E17.44957
G1 X32.855 Y68.278 E17.52932
G1 X32.59 Y67.812 E17.59365
G1 X32.468 Y67.522 E17.6314
G1 X32.217 Y66.843 E17.71827
G1 X32.069 Y66.328 E17.78257
G1 X32.002 Y65.829 E17.84299
G1 X31.908 Y64.385 E18.01664
G1 X31.9 Y64.148 E18.04509
G1 X31.91 Y52.106 E19.49013
G1 X31.95 Y51.571 E19.55451
G1 X32.07 Y51.048 E19.6189
G1 X32.265 Y50.549 E19.68319
G1 X32.533 Y50.084 E19.7476
G1 X32.867 Y49.665 E19.8119
G1 X33.259 Y49.299 E19.87625
G1 X33.702 Y48.996 E19.94066
G0 F3600 X34.081 Y49.246
G1 F1800 X34.55 Y49.056 E20.00138
G1 X35.043 Y48.943 E20.06208
G1 X35.507 Y48.909 E20.1179
G1 X44.79 Y48.9 E21.23187
G1 X44.864 Y48.901 E21.24075
G1 X48.292 Y48.977 E21.65221
G1 X53.77 Y48.9 E22.30963
G1 X53.835 Y48.9 E22.31743
G1 X66.268 Y48.978 E23.80942
G1 X71.77 Y48.9 E24.46973
G1 X71.819 Y48.9 E24.47561
G1 X81.592 Y48.911 E25.64837
G1 X82.108 Y48.954 E25.7105
G1 X82.873 Y49.08 E25.80354
G1 X83.364 Y49.201 E25.86422
G1 X83.656 Y49.314 E25.90179
G1 X84.383 Y49.638 E25.99731
G1 X84.827 Y49.88 E26.05799
G1 X85.163 Y50.132 E26.10839
G1 X85.844 Y50.716 E26.21604
G1 X86.201 Y51.074 E26.27671
G1 X86.445 Y51.403 E26.32586
G1 X86.891 Y52.09 E26.42415
G1 X87.132 Y52.534 E26.48478
G1 X87.27 Y52.907 E26.5325
G1 X87.513 Y53.712 E26.63341
G1 X87.621 Y54.206 E26.69409
G1 X87.65 Y54.622 E26.74413
G1 X87.695 Y64.347 E27.91114
G1 X87.685 Y64.613 E27.94308
G1 X87.587 Y65.861 E28.0933
G1 X87.508 Y66.36 E28.15393
G1 X87.389 Y66.744 E28.20217
G1 X87.118 Y67.459 E28.29393
G1 X86.902 Y67.916 E28.35458
G1 X86.616 Y68.335 E28.41546
G1 X85.933 Y69.181 E28.54594
G1 X85.563 Y69.568 E28.61019
G1 X83.092 Y71.753 E29.006
G1 X79.133 Y75.584 E29.6671
G1 X75.432 Y79.594 E30.32192
G1 X71.957 Y83.814 E30.97792
G1 X68.373 Y88.708 E31.70584
G1 X68.07 Y89.064 E31.76194
G1 X67.716 Y89.423 E31.82244
G1 X67.229 Y89.827 E31.89837
G1 X66.689 Y90.192 E31.97658
G1 X66.085 Y90.512 E32.05861
G1 X65.51 Y90.742 E32.13292
G1 X64.796 Y90.936 E32.22171
G1 X64.008 Y91.054 E32.31732
G1 X63.529 Y91.089 E32.37496
G1 X56.219 Y91.077 E33.25216
G1 X55.491 Y90.992 E33.34011
G1 X54.713 Y90.809 E33.43602
G1 X54.232 Y90.655 E33.49662
G1 X53.78 Y90.426 E33.55743
G1 X52.827 Y89.845 E33.69137
G1 X52.418 Y89.549 E33.75195
G1 X52.109 Y89.248 E33.80371
G1 X51.698 Y88.789 E33.87765
G1 X51.468 Y88.5 E33.92197
G1 X50.062 Y86.509 E34.21446
G1 X46.711 Y82.14 E34.87519
G1 X43.142 Y77.994 E35.53166
G1 X39.331 Y74.043 E36.1904
G1 X37.325 Y72.133 E36.52278
G1 X34.073 Y69.203 E37.04805
G1 X33.725 Y68.836 E37.10874
G1 X33.557 Y68.608 E37.14273
G1 X33.187 Y68.056 E37.22247
G1 X32.844 Y67.384 E37.31301
G1 X32.593 Y66.705 E37.39988
G1 X32.455 Y66.218 E37.46062
G1 X32.401 Y65.803 E37.51084
G1 X32.307 Y64.359 E37.68448
G1 X32.3 Y64.148 E37.70982
G1 X32.31 Y52.106 E39.15486
G1 X32.35 Y51.602 E39.21553
G1 X32.47 Y51.111 E39.27618
G1 X32.665 Y50.645 E39.3368
G1 X32.931 Y50.215 E39.39748
G1 X33.261 Y49.832 E39.45814
G1 X33.648 Y49.507 E39.51879
G1 X34.081 Y49.246 E39.57946
G10
G0 F3600 X36.114 Y51.435
G0 X36.114 Y52.714
G0 X38.288 Y62.208
G0 X38.297 Y62.307
;TYPE:WALL-INNER
G11
G1 F1800 X37.965 Y62.369 E39.61999
G1 X37.784 Y62.425 E39.64272
G1 X37.62 Y62.493 E39.66403
G1 X37.464 Y62.574 E39.68512
G1 X37.319 Y62.664 E39.7056
G1 X37.176 Y62.769 E39.72689
G1 X37.042 Y62.889 E39.74847
G1 X36.923 Y63.014 E39.76918
G1 X36.811 Y63.151 E39.79042
G1 X36.712 Y63.298 E39.81169
G1 X36.628 Y63.45 E39.83253
G1 X36.554 Y63.609 E39.85357
G1 X36.499 Y63.763 E39.87319
G1 X36.495 Y63.776 E39.87483
G1 X36.449 Y63.947 E39.89608
G1 X36.419 Y64.122 E39.91738
G1 X36.403 Y64.294 E39.93811
G1 X36.401 Y64.469 E39.95911
G1 X36.416 Y64.66 E39.9821
G1 X36.45 Y64.827 E40.00255
G1 X36.481 Y64.976 E40.02082
G1 X36.54 Y65.156 E40.04355
G1 X36.612 Y65.32 E40.06504
G1 X36.695 Y65.472 E40.08582
G1 X36.79 Y65.62 E40.10693
G1 X36.9 Y65.76 E40.12829
G1 X37.019 Y65.888 E40.14926
G1 X37.148 Y66.006 E40.17024
G1 X37.287 Y66.114 E40.19137
G1 X37.434 Y66.208 E40.21231
G1 X37.589 Y66.293 E40.23352
G1 X37.753 Y66.362 E40.25487
G1 X37.919 Y66.418 E40.27589
G1 X38.089 Y66.458 E40.29685
G1 X38.261 Y66.487 E40.31778
G1 X38.439 Y66.499 E40.33919
G1 X38.615 Y66.497 E40.36031
G1 X38.803 Y66.479 E40.38297
G1 X39.133 Y66.404 E40.42358
G1 X39.447 Y66.276 E40.46427
G1 X39.611 Y66.182 E40.48696
G1 X39.757 Y66.082 E40.50819
G1 X39.893 Y65.971 E40.52926
G1 X40.019 Y65.85 E40.55022
G1 X40.135 Y65.718 E40.57131
G1 X40.239 Y65.577 E40.59233
G1 X40.333 Y65.426 E40.61368
G1 X40.411 Y65.27 E40.63461
G1 X40.477 Y65.109 E40.65549
G1 X40.53 Y64.938 E40.67697
G1 X40.567 Y64.766 E40.69808
G1 X40.59 Y64.595 E40.71879
G1 X40.6 Y64.417 E40.74018
G1 X40.593 Y64.227 E40.763
G1 X40.542 Y63.908 E40.80176
G1 X40.486 Y63.714 E40.82599
G1 X40.35 Y63.404 E40.86662
G1 X40.165 Y63.118 E40.90749
G1 X40.042 Y62.974 E40.93022
G1 X39.919 Y62.853 E40.95092
G1 X39.786 Y62.739 E40.97194
G1 X39.638 Y62.635 E40.99365
G1 X39.488 Y62.547 E41.01452
G1 X39.33 Y62.472 E41.0355
G1 X39.167 Y62.409 E41.05647
G1 X38.996 Y62.359 E41.07785
G1 X38.823 Y62.325 E41.09901
G1 X38.639 Y62.304 E41.12123
G1 X38.297 Y62.307 E41.16228
G0 F3600 X38.288 Y62.208
G0 X37.445 Y62.54
G0 X36.894 Y62.988
G0 X36.517 Y63.594
G0 X36.206 Y64.993
G0 X36.106 Y64.998
G1 F1800 X36.1 Y64.9 E41.17279
G1 X36.1 Y64.66 E41.1977
G1 X36.1 Y64.469 E41.21538
G1 X36.1 Y64.294 E41.23123
G1 X36.1 Y64.122 E41.24728
G1 X36.1 Y63.947 E41.2648
G1 X36.1 Y63.776 E41.28388
G1 X36.1 Y63.762 E41.28555
G1 X36.1 Y52.7 E42.61299
G1 X45.488 Y52.7 E43.73955
G1 X45.763 Y52.715 E43.77259
G1 X46.033 Y52.761 E43.80546
G1 X46.307 Y52.84 E43.83968
G1 X46.561 Y52.948 E43.8728
G1 X46.801 Y53.083 E43.90584
G1 X47.045 Y53.264 E43.9423
G1 X47.123 Y53.332 E43.95472
G1 X47.329 Y53.548 E43.99054
G1 X47.498 Y53.772 E44.02421
G1 X47.64 Y54.015 E44.05798
G1 X47.696 Y54.132 E44.07355
G1 X47.799 Y54.415 E44.10969
G1 X47.858 Y54.659 E44.13981
G1 X47.894 Y54.939 E44.17369
G1 X47.9 Y55.325 E44.22001
G1 X47.9 Y63.76 E45.23221
G1 X47.9 Y63.908 E45.24997
G1 X47.9 Y64.227 E45.28825
G1 X47.899 Y64.417 E45.31105
G1 X47.898 Y64.595 E45.33241
G1 X47.897 Y64.766 E45.35293
G1 X47.896 Y64.938 E45.37357
G1 X47.895 Y65.051 E45.38714
G1 X47.889 Y65.133 E45.397
G1 X47.886 Y65.16 E45.40026
G1 X47.831 Y65.47 E45.43804
G1 X47.805 Y65.57 E45.45044
G1 X47.699 Y65.86 E45.48749
G1 X47.574 Y66.108 E45.52082
G1 X47.515 Y66.204 E45.53434
G1 X47.332 Y66.449 E45.57104
G1 X47.153 Y66.64 E45.60245
G1 X47.046 Y66.734 E45.61954
G1 X46.814 Y66.908 E45.65434
G1 X46.581 Y67.042 E45.68659
G1 X46.316 Y67.157 E45.72126
G1 X46.059 Y67.234 E45.75345
G1 X45.773 Y67.284 E45.7883
G1 X45.638 Y67.296 E45.80456
G1 X38.343 Y67.295 E46.67996
G1 X38.241 Y67.286 E46.69225
G1 X37.931 Y67.231 E46.73003
G1 X37.825 Y67.203 E46.74318
G1 X37.542 Y67.1 E46.77932
G1 X37.294 Y66.975 E46.81265
G1 X37.068 Y66.825 E46.8452
G1 X36.856 Y66.648 E46.87834
G1 X36.76 Y66.553 E46.89455
G1 X36.662 Y66.442 E46.91232
G1 X36.495 Y66.216 E46.94604
G1 X36.348 Y65.961 E46.98136
G1 X36.251 Y65.737 E47.01065
G1 X36.166 Y65.459 E47.04553
G1 X36.116 Y65.177 E47.0799
G1 X36.106 Y64.998 E47.10095
G0 F3600 X36.206 Y64.993
G0 X36.517 Y63.594
G0 X36.894 Y62.988
G0 X37.445 Y62.54
G0 X37.956 Y62.331
G0 X38.343 Y62.294
G0 X45.288 Y62.208
G0 X45.297 Y62.307
G1 F1800 X44.965 Y62.369 E47.14148
G1 X44.784 Y62.425 E47.16421
G1 X44.62 Y62.493 E47.18552
G1 X44.464 Y62.574 E47.20661
G1 X44.319 Y62.664 E47.22709
G1 X44.176 Y62.769 E47.24838
G1 X44.042 Y62.889 E47.26996
G1 X43.923 Y63.014 E47.29067
G1 X43.811 Y63.151 E47.31191
G1 X43.712 Y63.298 E47.33318
G1 X43.628 Y63.45 E47.35402
G1 X43.554 Y63.609 E47.37506
G1 X43.495 Y63.776 E47.39631
G1 X43.449 Y63.947 E47.41756
G1 X43.419 Y64.122 E47.43887
G1 X43.403 Y64.294 E47.4596
G1 X43.401 Y64.469 E47.4806
G1 X43.416 Y64.66 E47.50359
G1 X43.481 Y64.976 E47.54231
G1 X43.54 Y65.156 E47.56504
G1 X43.612 Y65.32 E47.58653
G1 X43.695 Y65.472 E47.60731
G1 X43.79 Y65.62 E47.62842
G1 X43.9 Y65.76 E47.64978
G1 X44.019 Y65.888 E47.67075
G1 X44.148 Y66.006 E47.69173
G1 X44.287 Y66.114 E47.71286
G1 X44.434 Y66.208 E47.73379
G1 X44.589 Y66.293 E47.75501
G1 X44.753 Y66.362 E47.77636
G1 X44.919 Y66.418 E47.79738
G1 X45.089 Y66.458 E47.81834
G1 X45.261 Y66.487 E47.83927
G1 X45.439 Y66.499 E47.86068
G1 X45.615 Y66.497 E47.8818
G1 X45.803 Y66.479 E47.90446
G1 X46.133 Y66.404 E47.94507
G1 X46.447 Y66.276 E47.98576
G1 X46.611 Y66.182 E48.00845
G1 X46.757 Y66.082 E48.02968
G1 X46.893 Y65.971 E48.05075
G1 X47.019 Y65.85 E48.07171
G1 X47.135 Y65.718 E48.0928
G1 X47.239 Y65.577 E48.11382
G1 X47.333 Y65.426 E48.13517
G1 X47.411 Y65.27 E48.1561
G1 X47.477 Y65.109 E48.17698
G1 X47.506 Y65.016 E48.18867
G1 X47.53 Y64.938 E48.19802
G1 X47.567 Y64.766 E48.21702
G1 X47.59 Y64.595 E48.2341
G1 X47.6 Y64.417 E48.25061
G1 X47.593 Y64.227 E48.26789
G1 X47.542 Y63.908 E48.30018
G1 X47.501 Y63.766 E48.31699
G1 X47.486 Y63.714 E48.32348
G1 X47.35 Y63.404 E48.36411
G1 X47.165 Y63.118 E48.40498
G1 X47.042 Y62.974 E48.42771
G1 X46.919 Y62.853 E48.44841
G1 X46.786 Y62.739 E48.46943
G1 X46.638 Y62.635 E48.49114
G1 X46.488 Y62.547 E48.51201
G1 X46.33 Y62.472 E48.533
G1 X46.167 Y62.409 E48.55397
G1 X45.996 Y62.359 E48.57534
G1 X45.823 Y62.325 E48.5965
G1 X45.639 Y62.304 E48.61873
G1 X45.297 Y62.307 E48.65977
G0 F3600 X45.336 Y62.707
;TYPE:WALL-OUTER
G1 F1800 X45.061 Y62.758 E48.69333
G1 X44.92 Y62.802 E48.71105
G1 X44.789 Y62.856 E48.72806
G1 X44.662 Y62.922 E48.74523
G1 X44.543 Y62.996 E48.76205
G1 X44.428 Y63.08 E48.77914
G1 X44.321 Y63.176 E48.79639
G1 X44.223 Y63.279 E48.81345
G1 X44.133 Y63.389 E48.8305
G1 X44.054 Y63.507 E48.84754
G1 X43.985 Y63.631 E48.86457
G1 X43.925 Y63.761 E48.88175
G1 X43.877 Y63.895 E48.89884
G1 X43.84 Y64.033 E48.91598
G1 X43.816 Y64.174 E48.93314
G1 X43.803 Y64.315 E48.95014
G1 X43.801 Y64.456 E48.96706
G1 X43.813 Y64.604 E48.98488
G1 X43.868 Y64.873 E49.01782
G1 X43.914 Y65.012 E49.03539
G1 X43.972 Y65.144 E49.05269
G1 X44.039 Y65.268 E49.06961
G1 X44.116 Y65.387 E49.08662
G1 X44.205 Y65.5 E49.10388
G1 X44.301 Y65.604 E49.12086
G1 X44.406 Y65.7 E49.13793
G1 X44.518 Y65.787 E49.15495
G1 X44.638 Y65.864 E49.17206
G1 X44.763 Y65.932 E49.18914
G1 X44.895 Y65.988 E49.20634
G1 X45.029 Y66.033 E49.22331
G1 X45.168 Y66.066 E49.24045
G1 X45.308 Y66.089 E49.25748
G1 X45.45 Y66.099 E49.27456
G1 X45.593 Y66.097 E49.29172
G1 X45.739 Y66.083 E49.30932
G1 X46.012 Y66.021 E49.34291
G1 X46.272 Y65.915 E49.37661
G1 X46.399 Y65.843 E49.39413
G1 X46.517 Y65.762 E49.4113
G1 X46.627 Y65.672 E49.42836
G1 X46.73 Y65.573 E49.4455
G1 X46.823 Y65.467 E49.46242
G1 X46.908 Y65.352 E49.47958
G1 X46.983 Y65.231 E49.49666
G1 X47.046 Y65.105 E49.51357
G1 X47.1 Y64.973 E49.53068
G1 X47.143 Y64.836 E49.54791
G1 X47.173 Y64.697 E49.56498
G1 X47.192 Y64.557 E49.58193
G1 X47.2 Y64.414 E49.59912
G1 X47.194 Y64.267 E49.61677
G1 X47.151 Y63.995 E49.64982
G1 X47.109 Y63.85 E49.66793
G1 X46.997 Y63.594 E49.70147
G1 X46.844 Y63.358 E49.73522
G1 X46.749 Y63.247 E49.75275
G1 X46.648 Y63.148 E49.76972
G1 X46.54 Y63.055 E49.78682
G1 X46.422 Y62.972 E49.80414
G1 X46.3 Y62.901 E49.82107
G1 X46.171 Y62.839 E49.83825
G1 X46.039 Y62.788 E49.85523
G1 X45.902 Y62.748 E49.87236
G1 X45.762 Y62.721 E49.88947
G1 X45.618 Y62.704 E49.90687
G1 X45.336 Y62.707 E49.94071
G0 F3600 X45.139 Y62.743
G0 X45.048 Y62.252
G0 X38.245 Y62.215
G0 X38.336 Y62.707
G1 F1800 X38.061 Y62.758 E49.97427
G1 X37.92 Y62.802 E49.992
G1 X37.789 Y62.856 E50.009
G1 X37.662 Y62.922 E50.02617
G1 X37.543 Y62.996 E50.04299
G1 X37.428 Y63.08 E50.06008
G1 X37.321 Y63.176 E50.07733
G1 X37.223 Y63.279 E50.09439
G1 X37.133 Y63.389 E50.11145
G1 X37.054 Y63.507 E50.12849
G1 X36.985 Y63.631 E50.14551
G1 X36.925 Y63.761 E50.1627
G1 X36.877 Y63.895 E50.17978
G1 X36.84 Y64.033 E50.19692
G1 X36.816 Y64.174 E50.21408
G1 X36.803 Y64.315 E50.23108
G1 X36.801 Y64.456 E50.248
G1 X36.813 Y64.604 E50.26582
G1 X36.868 Y64.873 E50.29876
G1 X36.914 Y65.012 E50.31633
G1 X36.972 Y65.144 E50.33364
G1 X37.039 Y65.268 E50.35055
G1 X37.116 Y65.387 E50.36756
G1 X37.205 Y65.5 E50.38482
G1 X37.301 Y65.604 E50.4018
G1 X37.406 Y65.7 E50.41887
G1 X37.518 Y65.787 E50.43589
G1 X37.638 Y65.864 E50.453
G1 X37.763 Y65.932 E50.47008
G1 X37.895 Y65.988 E50.48729
G1 X38.029 Y66.033 E50.50425
G1 X38.168 Y66.066 E50.52139
G1 X38.308 Y66.089 E50.53842
G1 X38.45 Y66.099 E50.5555
G1 X38.593 Y66.097 E50.57266
G1 X38.739 Y66.083 E50.59026
G1 X39.012 Y66.021 E50.62386
G1 X39.272 Y65.915 E50.65755
G1 X39.399 Y65.843 E50.67507
G1 X39.517 Y65.762 E50.69224
G1 X39.627 Y65.672 E50.7093
G1 X39.73 Y65.573 E50.72644
G1 X39.823 Y65.467 E50.74336
G1 X39.908 Y65.352 E50.76052
G1 X39.983 Y65.231 E50.77761
G1 X40.046 Y65.105 E50.79451
G1 X40.1 Y64.973 E50.81163
G1 X40.143 Y64.836 E50.82886
G1 X40.173 Y64.697 E50.84592
G1 X40.192 Y64.557 E50.86287
G1 X40.2 Y64.414 E50.88006
G1 X40.194 Y64.267 E50.89772
G1 X40.151 Y63.995 E50.93076
G1 X40.109 Y63.85 E50.94888
G1 X39.997 Y63.594 E50.98241
G1 X39.844 Y63.358 E51.01616
G1 X39.749 Y63.247 E51.03369
G1 X39.648 Y63.148 E51.05066
G1 X39.54 Y63.055 E51.06776
G1 X39.422 Y62.972 E51.08508
G1 X39.3 Y62.901 E51.10202
G1 X39.171 Y62.839 E51.11919
G1 X39.039 Y62.788 E51.13617
G1 X38.902 Y62.748 E51.1533
G1 X38.762 Y62.721 E51.17041
G1 X38.618 Y62.704 E51.18781
G1 X38.336 Y62.707 E51.22165
G0 F3600 X38.139 Y62.743
G0 X38.048 Y62.252
G0 X39.005 Y62.321
G0 X39.659 Y62.602
G0 X40.197 Y63.095
G0 X40.523 Y63.701
G0 X40.64 Y64.417
G0 X40.514 Y65.122
G0 X40.166 Y65.743
G0 X39.864 Y66.009
G0 X38.347 Y67.196
G0 X38.331 Y67.695
G1 F1800 X38.182 Y67.682 E51.2396
G1 X37.849 Y67.623 E51.28018
G1 X37.7 Y67.583 E51.29869
G1 X37.386 Y67.469 E51.33878
G1 X37.095 Y67.322 E51.3779
G1 X36.966 Y67.242 E51.39612
G1 X36.824 Y67.142 E51.41696
G1 X36.705 Y67.048 E51.43516
G1 X36.574 Y66.932 E51.45615
G1 X36.467 Y66.826 E51.47423
G1 X36.352 Y66.695 E51.49515
G1 X36.158 Y66.434 E51.53417
G1 X35.995 Y66.151 E51.57336
G1 X35.926 Y66.003 E51.59296
