;FLAVOR:UltiGCode
;TIME:1086
;MATERIAL:1665
;MATERIAL2:0
;NOZZLE_DIAMETER:0.4
;Generated with Cura_SteamEngine 3.4.1
M82 ;absolute extrusion mode

G92 E0
G10
;LAYER_COUNT:43
;LAYER:0
M107
G0 F3600 X42.028 Y49.45 Z0.3
;TYPE:SKIRT
G11
G1 F1800 X42.469 Y49.146 E0.06428
G1 X42.951 Y48.91 E0.12868
G1 X43.462 Y48.748 E0.193
G1 X43.992 Y48.664 E0.2574
G1 X44.694 Y48.675 E0.34165
G1 X47.63 Y49.008 E0.69623
G1 X53.075 Y49.387 E1.35121
G1 X59.167 Y49.45 E2.08229
G1 X70.731 Y49.516 E3.46999
G1 X75.278 Y49.36 E4.01595
G1 X75.413 Y49.358 E4.03215
G1 X78.994 Y49.37 E4.46187
G1 X79.529 Y49.412 E4.52627
G1 X80.051 Y49.532 E4.59055
G1 X80.58 Y49.744 E4.65893
G1 X84.652 Y51.76 E5.20418
G1 X88.441 Y53.451 E5.70209
G1 X88.913 Y53.706 E5.76646
G1 X89.342 Y54.028 E5.83083
G1 X89.719 Y54.409 E5.89515
G1 X90.034 Y54.843 E5.9595
G1 X90.282 Y55.319 E6.02391
G1 X90.456 Y55.826 E6.08823
G1 X90.553 Y56.353 E6.15254
G1 X90.574 Y56.739 E6.19893
G1 X90.574 Y56.948 E6.22401
G1 X90.534 Y57.483 E6.28838
G1 X90.415 Y58.006 E6.35275
G1 X90.22 Y58.505 E6.41704
G1 X89.952 Y58.97 E6.48144
G1 X89.786 Y59.196 E6.51509
G1 X81.79 Y69.197 E8.05164
G1 X81.425 Y69.59 E8.116
G1 X81.005 Y69.924 E8.18039
G1 X80.541 Y70.192 E8.24469
G1 X80.042 Y70.388 E8.30903
G1 X79.519 Y70.508 E8.37342
G1 X78.987 Y70.549 E8.43745
G1 X73.432 Y70.563 E9.10405
G1 X67.954 Y70.793 E9.76199
G1 X62.519 Y71.329 E10.41735
G1 X57.109 Y72.175 E11.07444
G1 X53.188 Y72.971 E11.55456
G1 X52.46 Y73.043 E11.64235
G1 X44.904 Y73.017 E12.54907
G1 X44.369 Y72.975 E12.61347
G1 X43.78 Y72.833 E12.68617
G1 X42.83 Y72.517 E12.80631
G1 X42.335 Y72.31 E12.8707
G1 X41.935 Y72.073 E12.92649
G1 X41.411 Y71.715 E13.00265
G1 X40.992 Y71.381 E13.06695
G1 X40.709 Y71.086 E13.116
G1 X38.046 Y67.98 E13.60696
G1 X37.981 Y67.903 E13.61905
G1 X37.572 Y67.398 E13.69703
G1 X37.267 Y66.957 E13.76138
G1 X37.03 Y66.476 E13.82572
G1 X36.868 Y65.965 E13.89005
G1 X36.783 Y65.435 E13.95446
G1 X36.778 Y64.899 E14.01879
G1 X36.852 Y64.368 E14.08312
G1 X36.926 Y64.084 E14.11834
G1 X40.845 Y51.204 E15.7339
G1 X41.039 Y50.704 E15.79826
G1 X41.305 Y50.238 E15.86265
G1 X41.637 Y49.817 E15.92699
G1 X42.028 Y49.45 E15.99134
G0 F3600 X42.371 Y49.691
G1 F1800 X42.798 Y49.421 E16.05196
G1 X43.263 Y49.221 E16.11271
G1 X43.753 Y49.097 E16.17336
G1 X44.256 Y49.052 E16.23396
G1 X44.649 Y49.072 E16.28118
G1 X47.603 Y49.407 E16.63793
G1 X53.06 Y49.787 E17.29436
G1 X59.163 Y49.85 E18.02676
G1 X70.743 Y49.916 E19.41638
G1 X75.292 Y49.76 E19.96258
G1 X75.412 Y49.758 E19.97698
G1 X78.993 Y49.77 E20.40671
G1 X79.497 Y49.812 E20.4674
G1 X79.988 Y49.932 E20.52805
G1 X80.402 Y50.102 E20.58175
G1 X84.5 Y52.131 E21.13049
G1 X88.278 Y53.817 E21.62695
G1 X88.722 Y54.059 E21.68763
G1 X89.122 Y54.367 E21.74821
G1 X89.469 Y54.735 E21.8089
G1 X89.753 Y55.153 E21.86955
G1 X89.969 Y55.611 E21.93031
G1 X90.109 Y56.096 E21.99089
G1 X90.174 Y56.739 E22.06844
G1 X90.174 Y56.948 E22.09352
G1 X90.134 Y57.452 E22.15419
G1 X90.015 Y57.943 E22.21482
G1 X89.821 Y58.41 E22.2755
G1 X89.473 Y58.946 E22.35219
G1 X81.477 Y68.947 E23.88873
G1 X81.131 Y69.316 E23.94943
G1 X80.732 Y69.626 E24.01006
G1 X80.288 Y69.868 E24.07074
G1 X79.812 Y70.038 E24.1314
G1 X79.315 Y70.131 E24.19207
G1 X78.986 Y70.149 E24.23161
G1 X73.414 Y70.163 E24.90025
G1 X67.934 Y70.393 E25.55843
G1 X62.47 Y70.932 E26.2173
G1 X57.033 Y71.783 E26.87768
G1 X53.108 Y72.579 E27.35827
G1 X52.461 Y72.643 E27.43629
G1 X44.905 Y72.617 E28.34301
G1 X44.401 Y72.575 E28.4037
G1 X43.906 Y72.453 E28.46488
G1 X42.956 Y72.137 E28.58502
G1 X42.49 Y71.94 E28.64573
G1 X42.161 Y71.743 E28.69175
G1 X41.637 Y71.385 E28.7679
G1 X41.243 Y71.068 E28.82859
G1 X41.013 Y70.826 E28.86865
G1 X38.35 Y67.72 E29.35961
G1 X38.292 Y67.651 E29.37042
G1 X37.883 Y67.146 E29.44841
G1 X37.597 Y66.729 E29.50908
G1 X37.38 Y66.273 E29.56968
G1 X37.238 Y65.787 E29.63044
G1 X37.174 Y65.286 E29.69105
G1 X37.189 Y64.781 E29.75168
G1 X37.309 Y64.201 E29.82275
G1 X41.228 Y51.321 E31.43831
G1 X41.412 Y50.85 E31.49899
G1 X41.669 Y50.414 E31.55973
G1 X41.991 Y50.025 E31.62032
G1 X42.371 Y49.691 E31.68103
G10
G0 F3600 X43.466 Y52.633
G0 X44.689 Y53.007
G0 X43.167 Y66.586
G0 X43.346 Y67.221
G0 X43.554 Y67.487
G0 X44.101 Y68.018
G0 X44.142 Y67.927
;TYPE:WALL-INNER
G11
G1 F1800 X44.435 Y68.024 E31.71807
G1 X44.738 Y68.068 E31.75481
G1 X45.05 Y68.05 E31.79232
G1 X45.336 Y67.976 E31.82777
G1 X45.494 Y67.909 E31.84836
G1 X45.641 Y67.829 E31.86844
G1 X45.876 Y67.654 E31.9036
G1 X46.074 Y67.438 E31.93877
G1 X46.172 Y67.295 E31.95957
G1 X46.251 Y67.145 E31.97991
G1 X46.352 Y66.872 E32.01484
G1 X46.4 Y66.579 E32.05047
G1 X46.401 Y66.411 E32.07063
G1 X46.388 Y66.248 E32.09025
G1 X46.32 Y65.953 E32.12658
G1 X46.203 Y65.688 E32.16134
G1 X46.103 Y65.53 E32.18378
G1 X45.921 Y65.321 E32.21704
G1 X45.784 Y65.2 E32.23897
G1 X45.543 Y65.045 E32.27336
G1 X45.374 Y64.972 E32.29545
G1 X45.097 Y64.891 E32.33008
G1 X44.801 Y64.864 E32.36575
G1 X44.63 Y64.875 E32.38631
G1 X44.478 Y64.899 E32.40478
G1 X44.33 Y64.938 E32.42314
G1 X44.174 Y64.994 E32.44303
G1 X43.925 Y65.126 E32.47685
G1 X43.775 Y65.237 E32.49924
G1 X43.568 Y65.445 E32.53446
G1 X43.402 Y65.689 E32.56987
G1 X43.329 Y65.842 E32.59021
G1 X43.271 Y65.999 E32.6103
G1 X43.21 Y66.289 E32.64586
G1 X43.206 Y66.584 E32.68126
G1 X43.228 Y66.752 E32.70159
G1 X43.262 Y66.9 E32.71982
G1 X43.311 Y67.046 E32.7383
G1 X43.371 Y67.181 E32.75603
G1 X43.381 Y67.203 E32.75893
G1 X43.54 Y67.452 E32.79438
G1 X43.741 Y67.664 E32.82943
G1 X43.839 Y67.741 E32.84439
G1 X43.884 Y67.777 E32.85131
G1 X44.142 Y67.927 E32.88712
G0 F3600 X44.101 Y68.018
G0 X44.615 Y68.09
G0 X49.101 Y68.018
G0 X49.142 Y67.927
G1 F1800 X49.435 Y68.024 E32.92415
G1 X49.738 Y68.068 E32.9609
G1 X50.05 Y68.05 E32.9984
G1 X50.336 Y67.976 E33.03385
G1 X50.494 Y67.909 E33.05444
G1 X50.641 Y67.829 E33.07453
G1 X50.876 Y67.654 E33.10969
G1 X51.074 Y67.438 E33.14485
G1 X51.172 Y67.295 E33.16565
G1 X51.251 Y67.145 E33.186
G1 X51.352 Y66.872 E33.22093
G1 X51.4 Y66.579 E33.25655
G1 X51.401 Y66.411 E33.27671
G1 X51.388 Y66.248 E33.29634
G1 X51.32 Y65.953 E33.33266
G1 X51.203 Y65.688 E33.36743
G1 X51.103 Y65.53 E33.38986
G1 X51.026 Y65.441 E33.40399
G1 X50.921 Y65.321 E33.42312
G1 X50.784 Y65.2 E33.44506
G1 X50.578 Y65.067 E33.47448
G1 X50.784 Y65.067 E33.47759
G1 X50.921 Y65.067 E33.48477
G1 X51.081 Y65.067 E33.50079
G1 X52.375 Y65.07 E33.65607
G1 X52.566 Y65.105 E33.67937
G1 X52.715 Y65.166 E33.69869
G1 X52.889 Y65.284 E33.72392
G1 X52.984 Y65.38 E33.74013
G1 X53.067 Y65.493 E33.75696
G1 X53.134 Y65.627 E33.77493
G1 X53.174 Y65.75 E33.79045
G1 X53.198 Y65.899 E33.80856
G1 X53.2 Y68.022 E34.06332
G1 X53.175 Y68.173 E34.08169
G1 X53.138 Y68.295 E34.09699
G1 X53.073 Y68.427 E34.11465
G1 X52.993 Y68.539 E34.13116
G1 X52.89 Y68.644 E34.14881
G1 X52.782 Y68.724 E34.16494
G1 X52.606 Y68.812 E34.18855
G1 X52.446 Y68.852 E34.20834
G1 X52.302 Y68.865 E34.22569
G1 X45.379 Y68.866 E35.05645
G1 X45.115 Y68.851 E35.08819
G1 X44.846 Y68.806 E35.12091
G1 X44.732 Y68.777 E35.13503
G1 X44.472 Y68.689 E35.16797
G1 X44.357 Y68.639 E35.18302
G1 X44.13 Y68.517 E35.21394
G1 X43.91 Y68.365 E35.24603
G1 X43.701 Y68.186 E35.27905
G1 X43.62 Y68.104 E35.29288
G1 X43.534 Y68.001 E35.30898
G1 X43.454 Y67.905 E35.32349
G1 X43.267 Y67.681 E35.35544
G1 X43.079 Y67.456 E35.38857
G1 X43.063 Y67.437 E35.39152
G1 X41.014 Y64.981 E35.77534
G1 X44.622 Y53.181 E37.25605
G1 X44.68 Y52.99 E37.28001
G1 X44.871 Y53.048 E37.29548
G1 X47.273 Y53.783 E37.59691
G1 X45.838 Y62.323 E38.63608
G1 X45.835 Y62.496 E38.65684
G1 X45.851 Y62.704 E38.68187
G1 X45.905 Y62.954 E38.71256
G1 X45.976 Y63.151 E38.73769
G1 X46.079 Y63.364 E38.76608
G1 X46.263 Y63.659 E38.80781
G1 X46.444 Y63.884 E38.84246
G1 X46.709 Y64.158 E38.8882
G1 X46.844 Y64.276 E38.90972
G1 X47.053 Y64.438 E38.94145
G1 X47.266 Y64.581 E38.97223
G1 X47.475 Y64.7 E39.00109
G1 X47.713 Y64.813 E39.03271
G1 X47.989 Y64.918 E39.06815
G1 X48.355 Y65.013 E39.11352
G1 X48.484 Y65.031 E39.12915
G1 X48.679 Y65.056 E39.15274
G1 X48.783 Y65.06 E39.16523
G1 X48.868 Y65.065 E39.17545
G1 X48.925 Y65.065 E39.18229
G1 X49.04 Y65.065 E39.19609
G1 X48.925 Y65.126 E39.19856
G1 X48.8 Y65.219 E39.2077
G1 X48.775 Y65.237
G1 X48.636 Y65.376 E39.2261
G1 X48.568 Y65.445 E39.23773
G1 X48.402 Y65.689 E39.27314
G1 X48.329 Y65.842 E39.29349
G1 X48.271 Y65.999 E39.31357
G1 X48.21 Y66.289 E39.34913
G1 X48.206 Y66.584 E39.38453
G1 X48.228 Y66.752 E39.40487
G1 X48.262 Y66.9 E39.42309
G1 X48.311 Y67.046 E39.44157
G1 X48.381 Y67.203 E39.4622
G1 X48.54 Y67.452 E39.49765
G1 X48.741 Y67.664 E39.53271
G1 X48.884 Y67.777 E39.55458
G1 X49.142 Y67.927 E39.59039
G0 F3600 X49.307 Y67.56
;TYPE:WALL-OUTER
G1 F1800 X49.527 Y67.633 E39.6182
G1 X49.756 Y67.666 E39.64597
G1 X49.988 Y67.653 E39.67385
G1 X50.207 Y67.596 E39.70101
G1 X50.32 Y67.548 E39.71574
G1 X50.425 Y67.491 E39.73008
G1 X50.607 Y67.356 E39.75727
G1 X50.76 Y67.189 E39.78445
G1 X50.829 Y67.088 E39.79913
G1 X50.885 Y66.982 E39.81351
G1 X50.963 Y66.77 E39.84062
G1 X51 Y66.545 E39.86798
G1 X51.001 Y66.425 E39.88238
G1 X50.992 Y66.309 E39.89635
G1 X50.939 Y66.08 E39.92455
G1 X50.849 Y65.877 E39.9512
G1 X50.781 Y65.77 E39.96641
G1 X50.636 Y65.603 E39.99295
G1 X50.542 Y65.52 E40.008
G1 X50.354 Y65.399 E40.03483
G1 X50.238 Y65.349 E40.04999
G1 X50.022 Y65.286 E40.07699
G1 X49.796 Y65.265 E40.10422
G1 X49.674 Y65.273 E40.11889
G1 X49.56 Y65.291 E40.13274
G1 X49.449 Y65.32 E40.14651
G1 X49.336 Y65.361 E40.16094
G1 X49.139 Y65.465 E40.18767
G1 X49.038 Y65.54 E40.20276
G1 X48.878 Y65.701 E40.23
G1 X48.75 Y65.889 E40.2573
G1 X48.698 Y65.998 E40.27179
G1 X48.656 Y66.111 E40.28625
G1 X48.609 Y66.333 E40.31348
G1 X48.606 Y66.56 E40.34073
G1 X48.622 Y66.68 E40.35525
G1 X48.648 Y66.792 E40.36905
G1 X48.684 Y66.901 E40.38283
G1 X48.734 Y67.013 E40.39754
G1 X48.856 Y67.204 E40.42474
G1 X49.012 Y67.368 E40.4519
G1 X49.11 Y67.446 E40.46693
G1 X49.307 Y67.56 E40.49425
G0 F3600 X49.497 Y67.623
G0 X49.34 Y68.097
G0 X45.198 Y68.106
G0 X44.15 Y68.034
G0 X44.307 Y67.56
G1 F1800 X44.527 Y67.633 E40.52206
G1 X44.756 Y67.666 E40.54983
G1 X44.988 Y67.653 E40.57771
G1 X45.207 Y67.596 E40.60486
G1 X45.32 Y67.548 E40.6196
G1 X45.425 Y67.491 E40.63393
G1 X45.607 Y67.356 E40.66113
G1 X45.76 Y67.189 E40.68831
G1 X45.829 Y67.088 E40.70298
G1 X45.885 Y66.982 E40.71737
G1 X45.963 Y66.77 E40.74448
G1 X46 Y66.545 E40.77184
G1 X46.001 Y66.425 E40.78624
G1 X45.992 Y66.309 E40.8002
G1 X45.939 Y66.08 E40.82841
G1 X45.849 Y65.877 E40.85505
G1 X45.781 Y65.77 E40.87027
G1 X45.636 Y65.603 E40.89681
G1 X45.542 Y65.52 E40.91186
G1 X45.354 Y65.399 E40.93868
G1 X45.238 Y65.349 E40.95384
G1 X45.022 Y65.286 E40.98084
G1 X44.796 Y65.265 E41.00808
G1 X44.674 Y65.273 E41.02275
G1 X44.56 Y65.291 E41.0366
G1 X44.449 Y65.32 E41.05037
G1 X44.336 Y65.361 E41.06479
G1 X44.139 Y65.465 E41.09152
G1 X44.038 Y65.54 E41.10662
G1 X43.878 Y65.701 E41.13386
G1 X43.75 Y65.889 E41.16115
G1 X43.698 Y65.998 E41.17564
G1 X43.656 Y66.111 E41.19011
G1 X43.609 Y66.333 E41.21734
G1 X43.606 Y66.56 E41.24458
G1 X43.622 Y66.68 E41.25911
G1 X43.648 Y66.792 E41.27291
G1 X43.684 Y66.901 E41.28668
G1 X43.734 Y67.013 E41.3014
G1 X43.856 Y67.204 E41.3286
G1 X44.012 Y67.368 E41.35576
G1 X44.11 Y67.446 E41.37079
G1 X44.307 Y67.56 E41.3981
G0 F3600 X44.497 Y67.623
G0 X44.34 Y68.097
G0 X43.715 Y67.693
G0 X43.346 Y67.221
G0 X43.167 Y66.586
G0 X43.233 Y65.988
G0 X43.405 Y65.667
G0 X45.738 Y62.352
G0 X46.237 Y62.36
G1 F1800 X46.235 Y62.483 E41.41286
G1 X46.248 Y62.646 E41.43249
G1 X46.29 Y62.844 E41.45677
G1 X46.345 Y62.995 E41.47606
G1 X46.43 Y63.17 E41.49941
G1 X46.59 Y63.427 E41.53573
G1 X46.744 Y63.619 E41.56527
G1 X46.984 Y63.867 E41.60668
G1 X47.099 Y63.967 E41.62497
G1 X47.287 Y64.114 E41.65361
G1 X47.476 Y64.24 E41.68087
G1 X47.66 Y64.345 E41.70629
G1 X47.87 Y64.445 E41.7342
G1 X48.111 Y64.536 E41.76511
G1 X48.432 Y64.62 E41.80493
G1 X48.715 Y64.657 E41.83918
G1 X48.878 Y64.665 E41.85876
G1 X52.404 Y64.67 E42.28188
G1 X52.611 Y64.702 E42.30702
G1 X52.696 Y64.726 E42.31762
G1 X52.895 Y64.808 E42.34344
G1 X52.98 Y64.857 E42.35522
G1 X53.152 Y64.981 E42.38066
G1 X53.287 Y65.117 E42.40366
G1 X53.409 Y65.283 E42.42838
G1 X53.504 Y65.472 E42.45376
G1 X53.565 Y65.66 E42.47748
G1 X53.598 Y65.867 E42.50263
G1 X53.603 Y67.957 E42.75344
G1 X53.599 Y68.061 E42.76592
G1 X53.566 Y68.265 E42.79072
G1 X53.51 Y68.445 E42.81334
G1 X53.42 Y68.628 E42.83782
G1 X53.298 Y68.8 E42.86312
G1 X53.157 Y68.944 E42.88731
G1 X52.994 Y69.065 E42.91167
G1 X52.811 Y69.161 E42.93646
G1 X52.723 Y69.195 E42.94778
G1 X52.519 Y69.247 E42.97305
G1 X52.314 Y69.265 E42.99774
G1 X45.373 Y69.266 E43.83066
G1 X45.063 Y69.248 E43.86792
G1 X44.768 Y69.199 E43.90381
G1 X44.617 Y69.161 E43.92249
G1 X44.332 Y69.064 E43.95862
G1 X44.182 Y68.999 E43.97824
G1 X43.917 Y68.856 E44.01437
G1 X43.664 Y68.682 E44.05122
G1 X43.431 Y68.482 E44.08807
G1 X43.328 Y68.377 E44.10572
G1 X40.568 Y65.071 E44.62252
G1 X44.356 Y52.682 E46.17714
G1 X44.414 Y52.491 E46.20109
G1 X44.605 Y52.549 E46.21656
G1 X47.725 Y53.504 E46.6081
G1 X46.237 Y62.36 E47.68572
G0 F3600 X46.235 Y62.483
G0 X46.241 Y62.56
G0 X45.445 Y62.508
;TYPE:SKIN
G1 F1800 X45.465 Y62.76 E47.71605
G1 X45.529 Y63.061 E47.75298
G1 X45.616 Y63.303 E47.78384
G1 X45.738 Y63.553 E47.81722
G1 X45.945 Y63.885 E47.86417
G1 X46.151 Y64.142 E47.9037
G1 X46.44 Y64.441 E47.9536
G1 X46.596 Y64.577 E47.97843
G1 X46.825 Y64.754 E48.01316
G1 X47.061 Y64.913 E48.04731
G1 X47.295 Y65.046 E48.07961
G1 X47.559 Y65.172 E48.11471
G1 X47.87 Y65.29 E48.15463
G1 X48.152 Y65.363 E48.18959
G1 X48.063 Y65.494 E48.20859
G1 X47.97 Y65.69 E48.23462
G1 X47.895 Y65.89 E48.26026
G1 X47.82 Y66.246 E48.30391
G1 X47.816 Y66.607 E48.34724
G1 X47.844 Y66.82 E48.37302
G1 X47.886 Y67.005 E48.39578
G1 X47.947 Y67.188 E48.41893
G1 X48.036 Y67.388 E48.4452
G1 X48.232 Y67.694 E48.4888
G1 X48.477 Y67.952 E48.5315
G1 X48.664 Y68.1 E48.56012
G1 X48.981 Y68.284 E48.6041
G1 X49.345 Y68.405 E48.65013
G1 X49.72 Y68.46 E48.69561
G1 X50.111 Y68.438 E48.74261
G1 X50.461 Y68.346 E48.78603
G1 X50.664 Y68.26 E48.81249
G1 X50.851 Y68.159 E48.83799
G1 X51.139 Y67.945 E48.88105
G1 X51.38 Y67.681 E48.92395
G1 X51.507 Y67.496 E48.95087
G1 X51.608 Y67.304 E48.97691
G1 X51.731 Y66.972 E49.01939
G1 X51.79 Y66.612 E49.06317
G1 X51.791 Y66.397 E49.08897
G1 X51.774 Y66.188 E49.11413
G1 X51.692 Y65.83 E49.1582
G1 X51.548 Y65.504 E49.20097
G1 X51.519 Y65.459 E49.2074
G1 X52.338 Y65.46 E49.30568
G1 X52.459 Y65.482 E49.32043
G1 X52.529 Y65.511 E49.32953
G1 X52.639 Y65.585 E49.34543
G1 X52.686 Y65.633 E49.3535
G1 X52.73 Y65.693 E49.36242
G1 X52.774 Y65.778 E49.37391
G1 X52.794 Y65.841 E49.38184
G1 X52.808 Y65.93 E49.39265
G1 X52.81 Y67.994 E49.64033
G1 X52.795 Y68.084 E49.65128
G1 X52.775 Y68.15 E49.65956
G1 X52.74 Y68.222 E49.66916
G1 X52.696 Y68.284 E49.67829
G1 X52.634 Y68.348 E49.68898
G1 X52.575 Y68.392 E49.69781
G1 X52.47 Y68.444 E49.71187
G1 X52.378 Y68.467 E49.72325
G1 X52.291 Y68.475 E49.73374
G1 X45.401 Y68.476 E50.56054
G1 X45.146 Y68.461 E50.59119
G1 X45.033 Y68.442 E50.60494
G1 X45.111 Y68.438 E50.61431
G1 X45.461 Y68.346 E50.65774
G1 X45.664 Y68.26 E50.6842
G1 X45.851 Y68.159 E50.7097
G1 X46.139 Y67.945 E50.75276
G1 X46.38 Y67.681 E50.79565
G1 X46.507 Y67.496 E50.82258
G1 X46.608 Y67.304 E50.84861
G1 X46.731 Y66.972 E50.8911
G1 X46.79 Y66.612 E50.93487
G1 X46.791 Y66.397 E50.96067
G1 X46.774 Y66.188 E50.98584
G1 X46.692 Y65.83 E51.02991
G1 X46.548 Y65.504 E51.07268
G1 X46.417 Y65.296 E51.10217
G1 X46.198 Y65.046 E51.14206
G1 X46.02 Y64.888 E51.17062
G1 X45.726 Y64.7 E51.21249
G1 X45.507 Y64.605 E51.24114
G1 X45.171 Y64.507 E51.28314
G1 X44.807 Y64.472 E51.32702
G1 X44.587 Y64.487 E51.35348
G1 X44.398 Y64.517 E51.37645
G1 X44.214 Y64.565 E51.39927
G1 X44.016 Y64.637 E51.42455
G1 X43.717 Y64.795 E51.46513
G1 X43.519 Y64.941 E51.49465
G1 X43.266 Y65.195 E51.53767
G1 X43.063 Y65.494 E51.58104
G1 X42.97 Y65.69 E51.60707
G1 X42.895 Y65.89 E51.6327
G1 X42.82 Y66.246 E51.67636
G1 X42.817 Y66.532 E51.71068
G1 X41.449 Y64.892 E51.96696
G1 X44.939 Y53.477 E53.39935
G1 X46.832 Y54.056 E53.6369
G1 X45.448 Y62.288 E54.63861
G1 X45.445 Y62.508 E54.66501
G0 F3600 X42.708 Y65.901
