;FLAVOR:UltiGCode
;TIME:1598
;MATERIAL:2447
;MATERIAL2:0
;NOZZLE_DIAMETER:0.4
;Generated with Cura_SteamEngine 3.4.1
M82 ;absolute extrusion mode

G92 E0
G10
;LAYER_COUNT:111
;LAYER:0
M107
G0 F3600 X35.021 Y49.507 Z0.3
;TYPE:SKIRT
G11
G1 F1800 X35.731 Y49.153 E0.0952
G1 X36.75 Y48.778 E0.2255
G1 X37.265 Y48.63 E0.2898
G1 X37.967 Y48.556 E0.37451
G1 X44.941 Y48.505 E1.21141
G1 X45.033 Y48.506 E1.22245
G1 X52.406 Y48.64 E2.10736
G1 X56.169 Y48.518 E2.55915
G1 X56.318 Y48.516 E2.57704
G1 X70.401 Y48.64 E4.26706
G1 X74.169 Y48.518 E4.71946
G1 X74.301 Y48.516 E4.7353
G1 X81.965 Y48.547 E5.65499
G1 X82.499 Y48.589 E5.71927
G1 X82.918 Y48.679 E5.77069
G1 X83.624 Y48.876 E5.85865
G1 X84.336 Y49.16 E5.95064
G1 X84.804 Y49.407 E6.01414
G1 X85.407 Y49.808 E6.10104
G1 X85.919 Y50.228 E6.1805
G1 X86.438 Y50.75 E6.26884
G1 X86.793 Y51.19 E6.33668
G1 X87.098 Y51.632 E6.40112
G1 X87.288 Y52.006 E6.45146
G1 X87.703 Y52.953 E6.57553
G1 X87.881 Y53.459 E6.6399
G1 X87.967 Y53.868 E6.69005
G1 X88.046 Y54.399 E6.75447
G1 X88.085 Y54.943 E6.81992
G1 X88.044 Y65.426 E8.07789
G1 X88.002 Y65.961 E8.14229
G1 X87.904 Y66.407 E8.19709
G1 X87.728 Y67.019 E8.2735
G1 X87.542 Y67.522 E8.33786
G1 X87.349 Y67.886 E8.3873
G1 X86.885 Y68.654 E8.49497
G1 X86.575 Y69.091 E8.55927
G1 X86.387 Y69.3 E8.593
G1 X85.988 Y69.711 E8.66174
G1 X85.587 Y70.066 E8.72601
G1 X85.367 Y70.221 E8.7583
G1 X84.787 Y70.598 E8.84131
G1 X84.317 Y70.856 E8.90565
G1 X84.061 Y70.961 E8.93885
G1 X83.47 Y71.177 E9.01436
G1 X82.954 Y71.323 E9.07871
G1 X82.654 Y71.371 E9.11517
G1 X81.819 Y71.469 E9.21606
G1 X81.401 Y71.494 E9.26631
G1 X72.209 Y71.5 E10.36935
G1 X72.119 Y71.499 E10.38015
G1 X68.916 Y71.421 E10.76462
G1 X62.955 Y71.5 E11.48001
G1 X62.888 Y71.5 E11.48805
G1 X48.15 Y71.42 E13.25663
G1 X45.478 Y71.493 E13.57739
G1 X45.375 Y71.494 E13.58975
G1 X35.504 Y71.479 E14.77427
G1 X34.969 Y71.438 E14.83866
G1 X34.446 Y71.318 E14.90305
G1 X33.947 Y71.122 E14.96739
G1 X33.482 Y70.854 E15.03179
G1 X33.063 Y70.52 E15.09609
G1 X32.698 Y70.128 E15.16036
G1 X32.395 Y69.685 E15.22477
G1 X32.161 Y69.202 E15.28917
G1 X32.002 Y68.69 E15.35351
G1 X31.92 Y68.16 E15.41786
G1 X31.909 Y67.878 E15.45173
G1 X31.914 Y54.967 E17.00105
G1 X31.962 Y54.379 E17.07184
G1 X32.078 Y53.679 E17.15699
G1 X32.205 Y53.158 E17.22134
G1 X32.302 Y52.894 E17.25509
G1 X32.548 Y52.298 E17.33246
G1 X32.868 Y51.694 E17.41449
G1 X33.139 Y51.282 E17.47367
G1 X33.467 Y50.857 E17.53809
G1 X33.766 Y50.559 E17.58874
G1 X34.593 Y49.83 E17.72104
G1 X35.021 Y49.507 E17.78538
G0 F3600 X35.262 Y49.827
G1 F1800 X35.869 Y49.528 E17.86658
G1 X36.888 Y49.153 E17.99688
G1 X37.375 Y49.016 E18.05758
G1 X37.97 Y48.956 E18.12935
G1 X44.944 Y48.905 E18.96625
G1 X45.025 Y48.906 E18.97597
G1 X52.412 Y49.04 E19.86256
G1 X56.182 Y48.918 E20.31519
G1 X56.314 Y48.916 E20.33103
G1 X70.411 Y49.041 E22.02274
G1 X74.182 Y48.918 E22.4755
G1 X74.299 Y48.916 E22.48954
G1 X81.963 Y48.947 E23.40923
G1 X82.467 Y48.989 E23.46992
G1 X82.81 Y49.065 E23.51208
G1 X83.516 Y49.262 E23.60004
G1 X84.15 Y49.514 E23.6819
G1 X84.618 Y49.761 E23.74541
G1 X85.154 Y50.117 E23.82262
G1 X85.666 Y50.537 E23.90209
G1 X86.126 Y51.002 E23.98058
G1 X86.481 Y51.442 E24.04842
G1 X86.767 Y51.859 E24.1091
G1 X86.922 Y52.167 E24.15048
G1 X87.337 Y53.114 E24.27455
G1 X87.503 Y53.591 E24.33516
G1 X87.571 Y53.927 E24.37629
G1 X87.65 Y54.458 E24.44071
G1 X87.685 Y54.942 E24.49895
G1 X87.644 Y65.425 E25.75692
G1 X87.602 Y65.928 E25.81749
G1 X87.519 Y66.296 E25.86275
G1 X87.343 Y66.908 E25.93917
G1 X87.166 Y67.382 E25.99989
G1 X87.007 Y67.679 E26.04031
G1 X86.543 Y68.447 E26.14799
G1 X86.1 Y69.021 E26.235
G1 X85.701 Y69.432 E26.30373
G1 X85.149 Y69.886 E26.3895
G1 X84.569 Y70.263 E26.47251
G1 X83.923 Y70.586 E26.55918
G1 X83.332 Y70.802 E26.63469
G1 X82.607 Y70.974 E26.7241
G1 X81.772 Y71.072 E26.82499
G1 X81.401 Y71.094 E26.86959
G1 X72.209 Y71.1 E27.97263
G1 X72.129 Y71.099 E27.98223
G1 X68.921 Y71.021 E28.36731
G1 X62.949 Y71.1 E29.08401
G1 X62.89 Y71.1 E29.09109
G1 X48.141 Y71.02 E30.86099
G1 X45.467 Y71.093 E31.18199
G1 X45.375 Y71.094 E31.19303
G1 X35.504 Y71.079 E32.37756
G1 X35 Y71.038 E32.43824
G1 X34.509 Y70.919 E32.49886
G1 X34.043 Y70.723 E32.55953
G1 X33.613 Y70.457 E32.6202
G1 X33.231 Y70.126 E32.68086
G1 X32.905 Y69.739 E32.74158
G1 X32.645 Y69.306 E32.80218
G1 X32.456 Y68.837 E32.86286
G1 X32.343 Y68.344 E32.92356
G1 X32.309 Y67.878 E32.97962
G1 X32.314 Y54.967 E34.52894
G1 X32.357 Y54.445 E34.5918
G1 X32.473 Y53.745 E34.67694
G1 X32.672 Y53.047 E34.76404
G1 X32.918 Y52.451 E34.84141
G1 X33.203 Y51.913 E34.91447
G1 X33.474 Y51.501 E34.97365
G1 X33.784 Y51.102 E35.03428
G1 X34.031 Y50.86 E35.07578
G1 X34.858 Y50.131 E35.20807
G1 X35.262 Y49.827 E35.26874
G10
G0 F3600 X35.747 Y52.686
G0 X36.683 Y53.563
G0 X36.204 Y55.34
G0 X36.103 Y55.34
;TYPE:WALL-INNER
G11
G1 F1800 X36.104 Y55.024 E35.30666
G1 X36.105 Y54.954 E35.31506
G1 X36.115 Y54.865 E35.32581
G1 X36.137 Y54.686 E35.34745
G1 X36.2 Y54.416 E35.38072
G1 X36.296 Y54.15 E35.41466
G1 X36.419 Y53.905 E35.44755
G1 X36.491 Y53.788 E35.46404
G1 X36.668 Y53.551 E35.49954
G1 X36.847 Y53.36 E35.53095
G1 X36.958 Y53.262 E35.54872
G1 X37.192 Y53.089 E35.58364
G1 X37.419 Y52.958 E35.61509
G1 X37.545 Y52.899 E35.63178
G1 X37.825 Y52.797 E35.66754
G1 X37.931 Y52.769 E35.6807
G1 X38.241 Y52.714 E35.71848
G1 X38.343 Y52.705 E35.73077
G1 X45.49 Y52.7 E36.58841
G1 X45.769 Y52.715 E36.62194
G1 X46.055 Y52.766 E36.6568
G1 X46.333 Y52.85 E36.69165
G1 X46.581 Y52.958 E36.72411
G1 X46.812 Y53.091 E36.75609
G1 X47.049 Y53.268 E36.79159
G1 X47.24 Y53.447 E36.823
G1 X47.338 Y53.558 E36.84077
G1 X47.511 Y53.792 E36.87569
G1 X47.648 Y54.03 E36.90864
G1 X47.696 Y54.132 E36.92217
G1 X47.802 Y54.423 E36.95934
G1 X47.831 Y54.528 E36.97241
G1 X47.885 Y54.836 E37.00993
G1 X47.888 Y54.865 E37.01343
G1 X47.895 Y54.949 E37.02355
G1 X47.895 Y55.062 E37.03711
G1 X47.895 Y55.234 E37.05775
G1 X47.895 Y55.405 E37.07827
G1 X47.895 Y55.583 E37.09963
G1 X47.895 Y55.773 E37.12243
G1 X47.895 Y56.091 E37.16059
G1 X47.895 Y56.256 E37.18039
G1 X47.9 Y64.666 E38.18959
G1 X47.894 Y65.049 E38.23555
G1 X47.862 Y65.318 E38.26806
G1 X47.797 Y65.591 E38.30173
G1 X47.697 Y65.863 E38.33651
G1 X47.569 Y66.115 E38.37043
G1 X47.501 Y66.224 E38.38584
G1 X47.324 Y66.458 E38.42105
G1 X47.134 Y66.657 E38.45407
G1 X47.039 Y66.741 E38.46929
G1 X46.801 Y66.917 E38.50481
G1 X46.563 Y67.051 E38.53758
G1 X46.307 Y67.16 E38.57097
G1 X46.033 Y67.239 E38.60519
G1 X45.763 Y67.285 E38.63806
G1 X45.488 Y67.3 E38.67111
G1 X36.1 Y67.3 E39.79767
G1 X36.1 Y56.238 E41.12511
G1 X36.1 Y56.224 E41.12679
G1 X36.1 Y56.053 E41.14731
G1 X36.1 Y55.878 E41.16831
G1 X36.101 Y55.706 E41.18895
G1 X36.102 Y55.531 E41.20995
G1 X36.103 Y55.34 E41.23287
G0 F3600 X36.204 Y55.34
G0 X36.593 Y56.568
G0 X37.015 Y57.139
G0 X37.492 Y57.465
G0 X38.288 Y57.792
G0 X38.297 Y57.693
G1 F1800 X38.639 Y57.696 E41.27391
G1 X38.823 Y57.675 E41.29613
G1 X38.996 Y57.641 E41.31729
G1 X39.167 Y57.591 E41.33867
G1 X39.33 Y57.528 E41.35964
G1 X39.488 Y57.453 E41.38063
G1 X39.638 Y57.365 E41.4015
G1 X39.786 Y57.261 E41.4232
G1 X39.919 Y57.147 E41.44422
G1 X40.042 Y57.026 E41.46493
G1 X40.165 Y56.882 E41.48765
G1 X40.35 Y56.596 E41.52853
G1 X40.486 Y56.286 E41.56915
G1 X40.542 Y56.092 E41.59338
G1 X40.593 Y55.773 E41.63215
G1 X40.6 Y55.583 E41.65496
G1 X40.59 Y55.405 E41.67636
G1 X40.567 Y55.234 E41.69706
G1 X40.53 Y55.062 E41.71817
G1 X40.477 Y54.891 E41.73966
G1 X40.411 Y54.73 E41.76054
G1 X40.333 Y54.574 E41.78147
G1 X40.239 Y54.423 E41.80281
G1 X40.135 Y54.282 E41.82383
G1 X40.019 Y54.15 E41.84492
G1 X39.893 Y54.029 E41.86588
G1 X39.757 Y53.918 E41.88695
G1 X39.611 Y53.818 E41.90819
G1 X39.447 Y53.724 E41.93087
G1 X39.133 Y53.596 E41.97156
G1 X38.803 Y53.521 E42.01217
G1 X38.615 Y53.503 E42.03483
G1 X38.439 Y53.501 E42.05595
G1 X38.261 Y53.513 E42.07736
G1 X38.089 Y53.542 E42.09829
G1 X37.919 Y53.582 E42.11925
G1 X37.753 Y53.638 E42.14027
G1 X37.589 Y53.707 E42.16163
G1 X37.434 Y53.792 E42.18284
G1 X37.287 Y53.886 E42.20378
G1 X37.148 Y53.994 E42.2249
G1 X37.019 Y54.112 E42.24588
G1 X36.9 Y54.24 E42.26685
G1 X36.79 Y54.38 E42.28822
G1 X36.695 Y54.528 E42.30932
G1 X36.612 Y54.68 E42.3301
G1 X36.54 Y54.844 E42.3516
G1 X36.509 Y54.939 E42.36359
G1 X36.481 Y55.024 E42.37409
G1 X36.416 Y55.34 E42.40815
G1 X36.401 Y55.531 E42.42611
G1 X36.403 Y55.706 E42.44189
G1 X36.419 Y55.878 E42.45798
G1 X36.449 Y56.053 E42.4758
G1 X36.495 Y56.224 E42.4956
G1 X36.499 Y56.237 E42.49722
G1 X36.554 Y56.391 E42.51684
G1 X36.628 Y56.55 E42.53789
G1 X36.712 Y56.702 E42.55873
G1 X36.811 Y56.849 E42.58
G1 X36.923 Y56.986 E42.60123
G1 X37.042 Y57.111 E42.62194
G1 X37.176 Y57.231 E42.64353
G1 X37.319 Y57.336 E42.66482
G1 X37.464 Y57.426 E42.68529
G1 X37.62 Y57.507 E42.70639
G1 X37.784 Y57.575 E42.72769
G1 X37.965 Y57.631 E42.75043
G1 X38.297 Y57.693 E42.79096
G0 F3600 X38.288 Y57.792
G0 X45.288 Y57.792
G0 X45.297 Y57.693
G1 F1800 X45.639 Y57.696 E42.832
G1 X45.823 Y57.675 E42.85422
G1 X45.996 Y57.641 E42.87538
G1 X46.167 Y57.591 E42.89676
G1 X46.33 Y57.528 E42.91773
G1 X46.488 Y57.453 E42.93872
G1 X46.638 Y57.365 E42.95958
G1 X46.786 Y57.261 E42.98129
G1 X46.919 Y57.147 E43.00231
G1 X47.042 Y57.026 E43.02302
G1 X47.165 Y56.882 E43.04574
G1 X47.35 Y56.596 E43.08662
G1 X47.486 Y56.286 E43.12724
G1 X47.497 Y56.251 E43.13164
G1 X47.542 Y56.092 E43.15032
G1 X47.593 Y55.773 E43.18273
G1 X47.6 Y55.583 E43.19976
G1 X47.59 Y55.405 E43.2158
G1 X47.567 Y55.234 E43.23221
G1 X47.53 Y55.062 E43.25054
G1 X47.506 Y54.982 E43.26034
G1 X47.477 Y54.891 E43.2718
G1 X47.411 Y54.73 E43.29268
G1 X47.333 Y54.574 E43.31361
G1 X47.239 Y54.423 E43.33495
G1 X47.135 Y54.282 E43.35598
G1 X47.019 Y54.15 E43.37706
G1 X46.893 Y54.029 E43.39803
G1 X46.757 Y53.918 E43.41909
G1 X46.611 Y53.818 E43.44033
G1 X46.447 Y53.724 E43.46301
G1 X46.133 Y53.596 E43.5037
G1 X45.803 Y53.521 E43.54431
G1 X45.615 Y53.503 E43.56697
G1 X45.439 Y53.501 E43.5881
G1 X45.261 Y53.513 E43.6095
G1 X45.089 Y53.542 E43.63044
G1 X44.919 Y53.582 E43.65139
G1 X44.753 Y53.638 E43.67242
G1 X44.589 Y53.707 E43.69377
G1 X44.434 Y53.792 E43.71498
G1 X44.287 Y53.886 E43.73592
G1 X44.148 Y53.994 E43.75704
G1 X44.019 Y54.112 E43.77802
G1 X43.9 Y54.24 E43.79899
G1 X43.79 Y54.38 E43.82036
G1 X43.695 Y54.528 E43.84146
G1 X43.612 Y54.68 E43.86224
G1 X43.54 Y54.844 E43.88374
G1 X43.481 Y55.024 E43.90647
G1 X43.416 Y55.34 E43.94518
G1 X43.401 Y55.531 E43.96817
G1 X43.403 Y55.706 E43.98917
G1 X43.419 Y55.878 E44.0099
G1 X43.449 Y56.053 E44.03121
G1 X43.495 Y56.224 E44.05246
G1 X43.554 Y56.391 E44.07371
G1 X43.628 Y56.55 E44.09476
G1 X43.712 Y56.702 E44.1156
G1 X43.811 Y56.849 E44.13687
G1 X43.923 Y56.986 E44.1581
G1 X44.042 Y57.111 E44.17881
G1 X44.176 Y57.231 E44.2004
G1 X44.319 Y57.336 E44.22168
G1 X44.464 Y57.426 E44.24216
G1 X44.62 Y57.507 E44.26326
G1 X44.784 Y57.575 E44.28456
G1 X44.965 Y57.631 E44.3073
G1 X45.297 Y57.693 E44.34783
G0 F3600 X45.336 Y57.293
;TYPE:WALL-OUTER
G1 F1800 X45.618 Y57.296 E44.38167
G1 X45.762 Y57.279 E44.39907
G1 X45.902 Y57.252 E44.41618
G1 X46.039 Y57.212 E44.4333
G1 X46.171 Y57.161 E44.45029
G1 X46.3 Y57.099 E44.46746
G1 X46.422 Y57.028 E44.4844
G1 X46.54 Y56.945 E44.50171
G1 X46.648 Y56.852 E44.51881
G1 X46.749 Y56.753 E44.53579
G1 X46.844 Y56.642 E44.55332
G1 X46.997 Y56.406 E44.58707
G1 X47.109 Y56.15 E44.6206
G1 X47.151 Y56.005 E44.63872
G1 X47.194 Y55.733 E44.67176
G1 X47.2 Y55.586 E44.68942
G1 X47.192 Y55.443 E44.7066
G1 X47.173 Y55.303 E44.72356
G1 X47.143 Y55.164 E44.74062
G1 X47.1 Y55.027 E44.75785
G1 X47.046 Y54.895 E44.77497
G1 X46.983 Y54.769 E44.79187
G1 X46.908 Y54.648 E44.80895
G1 X46.823 Y54.533 E44.82611
G1 X46.73 Y54.427 E44.84303
G1 X46.627 Y54.328 E44.86018
G1 X46.517 Y54.238 E44.87723
G1 X46.399 Y54.157 E44.89441
G1 X46.272 Y54.085 E44.91193
G1 X46.012 Y53.979 E44.94562
G1 X45.739 Y53.917 E44.97922
G1 X45.593 Y53.903 E44.99682
G1 X45.45 Y53.901 E45.01398
G1 X45.308 Y53.911 E45.03106
G1 X45.168 Y53.934 E45.04808
G1 X45.029 Y53.967 E45.06523
G1 X44.895 Y54.012 E45.08219
G1 X44.763 Y54.068 E45.0994
G1 X44.638 Y54.136 E45.11647
G1 X44.518 Y54.213 E45.13358
G1 X44.406 Y54.3 E45.1506
G1 X44.301 Y54.396 E45.16767
G1 X44.205 Y54.5 E45.18466
G1 X44.116 Y54.613 E45.20192
G1 X44.039 Y54.732 E45.21893
G1 X43.972 Y54.856 E45.23584
G1 X43.914 Y54.988 E45.25314
G1 X43.868 Y55.127 E45.27071
G1 X43.813 Y55.396 E45.30366
G1 X43.801 Y55.544 E45.32148
G1 X43.803 Y55.685 E45.3384
G1 X43.816 Y55.826 E45.35539
G1 X43.84 Y55.967 E45.37255
G1 X43.877 Y56.105 E45.3897
G1 X43.925 Y56.239 E45.40678
G1 X43.985 Y56.369 E45.42396
G1 X44.054 Y56.493 E45.44099
G1 X44.133 Y56.611 E45.45803
G1 X44.223 Y56.721 E45.47509
G1 X44.321 Y56.824 E45.49215
G1 X44.428 Y56.92 E45.5094
G1 X44.543 Y57.004 E45.52649
G1 X44.662 Y57.078 E45.5433
G1 X44.789 Y57.144 E45.56048
G1 X44.92 Y57.198 E45.57748
G1 X45.061 Y57.242 E45.5952
G1 X45.336 Y57.293 E45.62877
G0 F3600 X45.536 Y57.295
G0 X45.532 Y57.795
G0 X46.506 Y57.488
G0 X47.071 Y57.053
G0 X47.385 Y56.614
G0 X47.581 Y56.1
G0 X47.629 Y55.402
G0 X47.447 Y54.714
G0 X47.123 Y54.237
G0 X45.758 Y52.814
G0 X45.818 Y52.318
G1 F1800 X46.149 Y52.376 E45.66909
G1 X46.463 Y52.471 E45.70846
G1 X46.607 Y52.528 E45.72704
G1 X46.755 Y52.597 E45.74664
G1 X46.905 Y52.678 E45.7671
G1 X47.035 Y52.758 E45.78541
G1 X47.295 Y52.952 E45.82434
G1 X47.426 Y53.068 E45.84534
G1 X47.533 Y53.174 E45.86341
G1 X47.648 Y53.305 E45.88433
G1 X47.842 Y53.566 E45.92335
G1 X47.922 Y53.695 E45.94157
G1 X48 Y53.839 E45.96122
G1 X48.07 Y53.989 E45.98109
G1 X48.183 Y54.3 E46.02079
G1 X48.223 Y54.448 E46.03919
G1 X48.283 Y54.787 E46.0805
G1 X48.295 Y54.926 E46.09724
G1 X48.3 Y64.672 E47.26676
G1 X48.294 Y65.075 E47.31513
G1 X48.256 Y65.389 E47.35308
G1 X48.18 Y65.708 E47.39244
G1 X48.066 Y66.02 E47.4323
G1 X47.917 Y66.312 E47.47164
G1 X47.831 Y66.45 E47.49115
G1 X47.631 Y66.715 E47.53099
G1 X47.53 Y66.828 E47.54918
G1 X47.407 Y66.95 E47.56996
G1 X47.297 Y67.047 E47.58756
G1 X47.023 Y67.25 E47.62848
G1 X46.891 Y67.33 E47.64701
G1 X46.738 Y67.411 E47.66778
G1 X46.442 Y67.537 E47.70638
G1 X46.126 Y67.629 E47.74588
G1 X45.808 Y67.683 E47.78459
G1 X45.49 Y67.7 E47.8228
G1 X35.9 Y67.7 E48.9736
G1 X35.7 Y67.7 E48.9976
G1 X35.7 Y67.5 E49.01314
G1 X35.705 Y54.932 E50.5213
G1 X35.742 Y54.619 E50.55912
G1 X35.816 Y54.303 E50.59807
G1 X35.926 Y53.997 E50.63709
G1 X35.995 Y53.849 E50.65668
G1 X36.078 Y53.695 E50.67768
G1 X36.158 Y53.565 E50.69599
G1 X36.352 Y53.305 E50.73492
G1 X36.468 Y53.174 E50.75592
G1 X36.574 Y53.067 E50.77399
G1 X36.705 Y52.952 E50.79491
G1 X36.966 Y52.758 E50.83393
G1 X37.095 Y52.678 E50.85215
G1 X37.245 Y52.597 E50.87261
G1 X37.389 Y52.53 E50.89167
G1 X37.7 Y52.417 E50.93137
G1 X37.849 Y52.377 E50.94989
G1 X38.182 Y52.318 E50.99047
G1 X38.331 Y52.305 E51.00842
G1 X45.494 Y52.3 E51.86798
G1 X45.818 Y52.318 E51.90692
G0 F3600 X46.015 Y52.352
G0 X45.927 Y52.844
G0 X44.264 Y53.854
G0 X39.506 Y57.488
G0 X38.958 Y57.67
G0 X38.245 Y57.784
G0 X38.336 Y57.293
G1 F1800 X38.618 Y57.296 E51.94076
G1 X38.762 Y57.279 E51.95816
G1 X38.902 Y57.252 E51.97527
G1 X39.039 Y57.212 E51.99239
G1 X39.171 Y57.161 E52.00938
G1 X39.3 Y57.099 E52.02655
G1 X39.422 Y57.028 E52.04349
G1 X39.54 Y56.945 E52.0608
G1 X39.648 Y56.852 E52.0779
G1 X39.749 Y56.753 E52.09488
G1 X39.844 Y56.642 E52.11241
G1 X39.997 Y56.406 E52.14616
G1 X40.109 Y56.15 E52.17969
G1 X40.151 Y56.005 E52.1978
G1 X40.194 Y55.733 E52.23085
G1 X40.2 Y55.586 E52.2485
G1 X40.192 Y55.443 E52.26569
G1 X40.173 Y55.303 E52.28265
G1 X40.143 Y55.164 E52.29971
G1 X40.1 Y55.027 E52.31694
G1 X40.046 Y54.895 E52.33405
G1 X39.983 Y54.769 E52.35096
G1 X39.908 Y54.648 E52.36804
G1 X39.823 Y54.533 E52.3852
G1 X39.73 Y54.427 E52.40212
G1 X39.627 Y54.328 E52.41927
G1 X39.517 Y54.238 E52.43632
G1 X39.399 Y54.157 E52.4535
G1 X39.272 Y54.085 E52.47102
G1 X39.012 Y53.979 E52.50471
G1 X38.739 Y53.917 E52.5383
G1 X38.593 Y53.903 E52.55591
G1 X38.45 Y53.901 E52.57307
G1 X38.308 Y53.911 E52.59015
G1 X38.168 Y53.934 E52.60717
G1 X38.029 Y53.967 E52.62432
G1 X37.895 Y54.012 E52.64128
G1 X37.763 Y54.068 E52.65849
G1 X37.638 Y54.136 E52.67556
G1 X37.518 Y54.213 E52.69267
