;FLAVOR:UltiGCode
;TIME:5592
;MATERIAL:14910
;MATERIAL2:0
;NOZZLE_DIAMETER:0.4
;Generated with Cura_SteamEngine 3.4.1
M82 ;absolute extrusion mode

G92 E0
G10
;LAYER_COUNT:98
;LAYER:0
M107
G0 F3600 X5.811 Y33.845 Z0.3
;TYPE:SKIRT
G11
G1 F1800 X6.285 Y33.81 E0.05703
G1 X29.266 Y33.81 E2.81475
G1 X29.77 Y33.85 E2.87543
G1 X30.171 Y33.941 E2.92477
G1 X34.037 Y35.081 E3.40844
G1 X39.413 Y36.402 E4.07275
G1 X42.093 Y36.941 E4.40079
G1 X44.735 Y37.393 E4.72243
G1 X50.195 Y38.093 E5.383
G1 X55.653 Y38.481 E6.03961
G1 X61.14 Y38.56 E6.69812
G1 X66.607 Y38.33 E7.35474
G1 X72.051 Y37.791 E8.01121
G1 X77.461 Y36.944 E8.66832
G1 X80.123 Y36.41 E8.99412
G1 X82.783 Y35.799 E9.32164
G1 X89.409 Y33.93 E10.14778
G1 X89.905 Y33.832 E10.20845
G1 X90.278 Y33.81 E10.25329
G1 X113.266 Y33.81 E13.01185
G1 X113.77 Y33.85 E13.07252
G1 X114.261 Y33.969 E13.13315
G1 X114.728 Y34.163 E13.19383
G1 X115.158 Y34.429 E13.25451
G1 X115.541 Y34.759 E13.31517
G1 X115.867 Y35.146 E13.37589
G1 X116.128 Y35.579 E13.43656
G1 X116.318 Y36.047 E13.49718
G1 X116.431 Y36.54 E13.55787
G1 X116.465 Y37.075 E13.6222
G1 X116.438 Y38.41 E13.78243
G1 X116.409 Y38.78 E13.82697
G1 X116.213 Y40.21 E14.00017
G1 X116.104 Y40.708 E14.06135
G1 X115.608 Y42.336 E14.26557
G1 X115.355 Y42.937 E14.34382
G1 X114.674 Y44.184 E14.51432
G1 X114.377 Y44.633 E14.57892
G1 X113.964 Y45.156 E14.65889
G1 X113.584 Y45.561 E14.72554
G1 X99.857 Y57.812 E16.9334
G1 X95.945 Y61.689 E17.59432
G1 X94.114 Y63.667 E17.91777
G1 X90.558 Y67.849 E18.5765
G1 X87.248 Y72.219 E19.23435
G1 X84.209 Y76.744 E19.88845
G1 X81.401 Y81.48 E20.54915
G1 X79.798 Y84.486 E20.95795
G1 X79.525 Y84.912 E21.01867
G1 X79.189 Y85.289 E21.07927
G1 X78.798 Y85.609 E21.1399
G1 X78.361 Y85.864 E21.20062
G1 X77.889 Y86.046 E21.26132
G1 X77.395 Y86.152 E21.32195
G1 X76.975 Y86.18 E21.37246
G1 X42.582 Y86.19 E25.49962
G1 X42.078 Y86.15 E25.56029
G1 X41.586 Y86.032 E25.62101
G1 X41.12 Y85.837 E25.68163
G1 X40.69 Y85.571 E25.7423
G1 X40.307 Y85.241 E25.80297
G1 X39.981 Y84.855 E25.8636
G1 X39.761 Y84.503 E25.91341
G1 X37.977 Y81.178 E26.36621
G1 X35.158 Y76.458 E27.02594
G1 X33.679 Y74.204 E27.34945
G1 X30.466 Y69.735 E28.00994
G1 X27.026 Y65.482 E28.66635
G1 X23.344 Y61.42 E29.32424
G1 X19.441 Y57.577 E29.98153
G1 X5.987 Y45.584 E32.14434
G1 X5.495 Y45.03 E32.23325
G1 X4.701 Y43.896 E32.39937
G1 X4.408 Y43.383 E32.47026
G1 X3.945 Y42.362 E32.60479
G1 X3.762 Y41.847 E32.67038
G1 X3.344 Y40.243 E32.86929
G1 X3.256 Y39.747 E32.92974
G1 X3.101 Y38.162 E33.12084
G1 X3.086 Y37.855 E33.15773
G1 X3.085 Y37.014 E33.25865
G1 X3.124 Y36.51 E33.31931
G1 X3.243 Y36.018 E33.38005
G1 X3.437 Y35.551 E33.44073
G1 X3.702 Y35.121 E33.50135
G1 X4.032 Y34.738 E33.56201
G1 X4.418 Y34.411 E33.62272
G1 X4.85 Y34.15 E33.68329
G1 X5.319 Y33.959 E33.74405
G1 X5.811 Y33.845 E33.80466
G10
G0 F3600 X6.894 Y36.335
G0 X6.894 Y37.614
G0 X13.005 Y43.67
G0 X13.075 Y43.6
;TYPE:WALL-INNER
G11
G1 F1800 X20.475 Y43.6 E34.69266
G1 X20.475 Y37.6 E35.41266
G1 X28.675 Y37.6 E36.39666
G1 X28.675 Y47.918 E37.63482
G1 X28.696 Y48.374 E37.6896
G1 X28.772 Y48.851 E37.74756
G1 X28.895 Y49.316 E37.80528
G1 X29.067 Y49.766 E37.86309
G1 X29.285 Y50.196 E37.92094
G1 X29.547 Y50.602 E37.97892
G1 X29.85 Y50.977 E38.03678
G1 X30.191 Y51.318 E38.09465
G1 X30.564 Y51.622 E38.15239
G1 X30.969 Y51.885 E38.21034
G1 X31.397 Y52.105 E38.26809
G1 X31.847 Y52.278 E38.32594
G1 X32.313 Y52.403 E38.38384
G1 X32.789 Y52.478 E38.44166
G1 X33.255 Y52.503 E38.49766
G1 X48.041 Y52.504 E40.27198
G1 X48.041 Y56.508 E40.75246
G1 X39.44 Y56.508 E41.78458
G1 X39.032 Y56.532 E41.83363
G1 X38.592 Y56.613 E41.88731
G1 X38.165 Y56.748 E41.94105
G1 X37.756 Y56.935 E41.99502
G1 X37.375 Y57.173 E42.04893
G1 X37.027 Y57.455 E42.10268
G1 X36.718 Y57.776 E42.15614
G1 X36.449 Y58.135 E42.20998
G1 X36.227 Y58.526 E42.26393
G1 X36.055 Y58.94 E42.31773
G1 X35.938 Y59.372 E42.37144
G1 X35.873 Y59.814 E42.42505
G1 X35.864 Y60.263 E42.47894
G1 X35.91 Y60.709 E42.53274
G1 X36.012 Y61.147 E42.58671
G1 X36.169 Y61.567 E42.64051
G1 X36.376 Y61.965 E42.69435
G1 X36.631 Y62.334 E42.74817
G1 X36.925 Y62.663 E42.80112
G1 X43.933 Y69.544 E43.97969
G1 X44.325 Y69.956 E44.04793
G1 X44.675 Y70.381 E44.114
G1 X44.986 Y70.824 E44.17895
G1 X45.246 Y71.257 E44.23956
G1 X45.496 Y71.746 E44.30546
G1 X45.7 Y72.23 E44.36849
G1 X45.87 Y72.734 E44.43232
G1 X46.003 Y73.242 E44.49533
G1 X46.099 Y73.758 E44.55832
G1 X46.159 Y74.298 E44.62352
G1 X46.18 Y74.83 E44.6874
G1 X46.163 Y75.394 E44.75512
G1 X46.165 Y75.698 E44.7916
G1 X46.227 Y76.036 E44.83283
G1 X46.342 Y76.361 E44.8742
G1 X46.509 Y76.664 E44.91572
G1 X46.723 Y76.935 E44.95716
G1 X46.978 Y77.166 E44.99845
G1 X47.267 Y77.354 E45.03982
G1 X47.586 Y77.491 E45.08148
G1 X47.92 Y77.574 E45.12278
G1 X48.234 Y77.6 E45.16059
G1 X71.314 Y77.6 E47.93019
G1 X71.627 Y77.575 E47.96787
G1 X71.962 Y77.492 E48.00928
G1 X72.281 Y77.355 E48.05094
G1 X72.57 Y77.167 E48.09231
G1 X72.826 Y76.935 E48.13377
G1 X73.039 Y76.665 E48.17504
G1 X73.206 Y76.362 E48.21656
G1 X73.321 Y76.037 E48.25793
G1 X73.383 Y75.7 E48.29905
G1 X73.386 Y75.392 E48.33601
G1 X73.369 Y74.843 E48.40192
G1 X73.387 Y74.313 E48.46556
G1 X73.448 Y73.768 E48.53136
G1 X73.54 Y73.264 E48.59284
G1 X73.678 Y72.735 E48.65845
G1 X73.856 Y72.211 E48.72486
G1 X74.056 Y71.74 E48.78626
G1 X74.317 Y71.232 E48.8548
G1 X74.569 Y70.814 E48.91337
G1 X74.885 Y70.367 E48.97906
G1 X75.238 Y69.939 E49.04563
G1 X75.647 Y69.513 E49.1165
G1 X82.626 Y62.661 E50.29015
G1 X82.914 Y62.34 E50.3419
G1 X83.168 Y61.973 E50.39546
G1 X83.377 Y61.576 E50.4493
G1 X83.533 Y61.155 E50.50317
G1 X83.637 Y60.719 E50.55696
G1 X83.684 Y60.273 E50.61078
G1 X83.678 Y59.826 E50.66442
G1 X83.615 Y59.382 E50.71824
G1 X83.498 Y58.95 E50.77194
G1 X83.327 Y58.535 E50.8258
G1 X83.106 Y58.145 E50.8796
G1 X82.84 Y57.786 E50.93321
G1 X82.53 Y57.461 E50.98711
G1 X82.181 Y57.179 E51.04095
G1 X81.802 Y56.942 E51.09459
G1 X81.396 Y56.753 E51.14833
G1 X80.968 Y56.616 E51.20226
G1 X80.528 Y56.533 E51.25599
G1 X80.106 Y56.508 E51.30672
G1 X71.508 Y56.508 E52.33848
G1 X71.508 Y52.504 E52.81896
G1 X86.29 Y52.504 E54.5928
G1 X86.745 Y52.481 E54.64747
G1 X87.22 Y52.407 E54.70516
G1 X87.687 Y52.284 E54.76311
G1 X88.136 Y52.112 E54.82081
G1 X88.568 Y51.893 E54.87893
G1 X88.972 Y51.631 E54.93671
G1 X89.347 Y51.329 E54.99449
G1 X89.687 Y50.989 E55.05219
G1 X89.993 Y50.615 E55.11018
G1 X90.255 Y50.209 E55.16816
G1 X90.475 Y49.782 E55.2258
G1 X90.648 Y49.331 E55.28377
G1 X90.773 Y48.867 E55.34143
G1 X90.849 Y48.389 E55.39951
G1 X90.874 Y47.924 E55.45539
G1 X90.875 Y37.6 E56.69427
G1 X99.075 Y37.6 E57.67827
G1 X99.075 Y43.6 E58.39827
G1 X106.475 Y43.6 E59.28627
G1 X106.475 Y37.6 E60.00627
G1 X112.468 Y37.6 E60.72543
G1 X112.469 Y37.6 E60.72555
G1 X112.67 Y37.6 E60.74967
G1 X112.669 Y37.801 E60.76527
G1 X112.668 Y37.802 E60.76544
G1 X112.665 Y38.015 E60.791
G1 X112.64 Y38.438 E60.84185
G1 X112.598 Y38.852 E60.89179
G1 X112.537 Y39.278 E60.94343
G1 X112.461 Y39.683 E60.99288
G1 X112.371 Y40.065 E61.03997
G1 X112.264 Y40.446 E61.08746
G1 X112.14 Y40.82 E61.13474
G1 X111.999 Y41.181 E61.18125
G1 X111.851 Y41.512 E61.22476
G1 X111.693 Y41.818 E61.26609
G1 X111.515 Y42.119 E61.30805
G1 X111.344 Y42.372 E61.34469
G1 X111.146 Y42.628 E61.38353
G1 X110.965 Y42.83 E61.41608
G1 X110.56 Y43.205 E61.48231
G1 X83.585 Y67.088 E65.80572
G1 X82.854 Y67.765 E65.92529
G1 X82.152 Y68.479 E66.04544
G1 X81.483 Y69.229 E66.16604
G1 X80.851 Y70.008 E66.28642
G1 X80.254 Y70.815 E66.40688
G1 X79.699 Y71.651 E66.52729
G1 X79.181 Y72.51 E66.64766
G1 X78.706 Y73.392 E66.76788
G1 X78.271 Y74.297 E66.88837
G1 X77.879 Y75.221 E67.00882
G1 X77.532 Y76.163 E67.12928
G1 X77.23 Y77.119 E67.24959
G1 X76.972 Y78.088 E67.36992
G1 X76.76 Y79.068 E67.49024
G1 X76.593 Y80.058 E67.61072
G1 X76.474 Y81.055 E67.73121
G1 X76.4 Y82.054 E67.85142
G1 X76.391 Y82.4 E67.89295
G1 X43.158 Y82.4 E71.88091
G1 X43.147 Y81.994 E71.92965
G1 X43.07 Y80.993 E72.05012
G1 X42.948 Y79.998 E72.17042
G1 X42.779 Y79.008 E72.29094
G1 X42.564 Y78.029 E72.41122
G1 X42.303 Y77.06 E72.53164
G1 X41.997 Y76.105 E72.65198
G1 X41.648 Y75.165 E72.7723
G1 X41.252 Y74.241 E72.89294
G1 X40.815 Y73.339 E73.01321
G1 X40.338 Y72.457 E73.13354
G1 X39.817 Y71.599 E73.25399
G1 X39.258 Y70.766 E73.37437
G1 X38.661 Y69.959 E73.49483
G1 X38.026 Y69.184 E73.61506
G1 X37.355 Y68.437 E73.73556
G1 X36.65 Y67.722 E73.85605
G1 X35.962 Y67.088 E73.96832
G1 X8.863 Y43.095 E78.31162
G1 X8.575 Y42.822 E78.35924
G1 X8.407 Y42.633 E78.38959
G1 X8.214 Y42.386 E78.4272
G1 X8.019 Y42.095 E78.46924
G1 X7.856 Y41.818 E78.50781
G1 X7.698 Y41.513 E78.54903
G1 X7.541 Y41.157 E78.59572
G1 X7.408 Y40.82 E78.63919
G1 X7.29 Y40.464 E78.6842
G1 X7.175 Y40.047 E78.73611
G1 X7.083 Y39.663 E78.78349
G1 X7.013 Y39.281 E78.83009
G1 X6.955 Y38.872 E78.87966
G1 X6.908 Y38.429 E78.93312
G1 X6.884 Y38.006 E78.98396
G1 X6.881 Y37.801 E79.00857
G1 X6.88 Y37.8 E79.00874
G1 X6.88 Y37.6 E79.03274
G1 X7.08 Y37.6 E79.04828
G1 X7.081 Y37.6 E79.0484
G1 X13.075 Y37.6 E79.76768
G1 X13.075 Y43.6 E80.48768
G0 F3600 X13.005 Y43.67
G0 X37.384 Y68.41
G0 X38.692 Y69.935
G0 X39.85 Y71.578
G0 X40.85 Y73.321
G0 X41.685 Y75.151
G0 X42.341 Y77.049
G0 X76.435 Y81.052
G0 X76.721 Y79.061
G0 X77.192 Y77.108
G0 X77.842 Y75.207
G0 X78.671 Y73.374
G0 X84.447 Y63.241
G0 X98.975 Y43.2
G0 X99.475 Y43.2
;TYPE:WALL-OUTER
G1 F1800 X106.075 Y43.2 E81.27968
G1 X106.075 Y37.2 E81.99968
G1 X112.873 Y37.2 E82.81544
G1 X112.874 Y37.2 E82.81556
G1 X113.075 Y37.2 E82.83968
G1 X113.074 Y37.401 E82.85528
G1 X113.073 Y37.402 E82.85545
G1 X113.065 Y38.03 E82.93081
G1 X113.038 Y38.479 E82.98479
G1 X112.994 Y38.909 E83.03666
G1 X112.932 Y39.339 E83.08879
G1 X112.853 Y39.76 E83.14019
G1 X112.756 Y40.173 E83.1911
G1 X112.644 Y40.572 E83.24083
G1 X112.513 Y40.966 E83.29066
G1 X112.372 Y41.327 E83.33717
G1 X112.214 Y41.68 E83.38358
G1 X112.038 Y42.021 E83.42962
G1 X111.854 Y42.333 E83.47309
G1 X111.665 Y42.611 E83.51343
G1 X111.451 Y42.887 E83.55534
G1 X111.248 Y43.114 E83.59188
G1 X110.832 Y43.499 E83.6599
G1 X83.854 Y67.384 E87.98374
G1 X83.133 Y68.052 E88.10169
G1 X82.444 Y68.753 E88.21964
G1 X81.788 Y69.488 E88.33786
G1 X81.167 Y70.253 E88.4561
G1 X80.582 Y71.045 E88.57425
G1 X80.037 Y71.865 E88.6924
G1 X79.529 Y72.708 E88.81051
G1 X79.063 Y73.574 E88.92852
G1 X78.636 Y74.462 E89.04676
G1 X78.251 Y75.368 E89.16489
G1 X77.911 Y76.292 E89.28304
G1 X77.614 Y77.231 E89.40122
G1 X77.361 Y78.182 E89.51931
G1 X77.153 Y79.144 E89.63742
G1 X76.989 Y80.115 E89.75559
G1 X76.872 Y81.093 E89.87378
G1 X76.8 Y82.074 E89.99182
G1 X76.78 Y82.8 E90.07897
G1 X42.769 Y82.8 E94.16029
G1 X42.747 Y82.015 E94.25453
G1 X42.672 Y81.033 E94.37271
G1 X42.552 Y80.056 E94.49084
G1 X42.386 Y79.085 E94.60905
G1 X42.175 Y78.124 E94.72711
G1 X41.919 Y77.173 E94.8453
G1 X41.619 Y76.236 E94.96336
G1 X41.276 Y75.313 E95.08152
G1 X40.888 Y74.407 E95.19979
G1 X40.459 Y73.521 E95.31792
G1 X39.991 Y72.656 E95.43593
G1 X39.48 Y71.814 E95.55413
G1 X38.931 Y70.997 E95.67224
G1 X38.345 Y70.205 E95.79047
G1 X37.722 Y69.444 E95.90849
G1 X37.064 Y68.711 E96.02669
G1 X36.372 Y68.01 E96.14489
G1 X35.694 Y67.385 E96.25555
G1 X8.59 Y43.387 E100.5997
G1 X8.29 Y43.102 E100.64935
G1 X8.098 Y42.887 E100.68394
G1 X7.888 Y42.618 E100.7249
G1 X7.677 Y42.303 E100.77039
G1 X7.511 Y42.021 E100.80966
G1 X7.334 Y41.68 E100.85576
G1 X7.168 Y41.304 E100.90509
G1 X7.036 Y40.966 E100.94863
G1 X6.905 Y40.573 E100.99834
G1 X6.789 Y40.153 E101.05063
G1 X6.694 Y39.756 E101.09961
G1 X6.617 Y39.34 E101.15038
G1 X6.557 Y38.914 E101.20201
G1 X6.51 Y38.471 E101.25546
G1 X6.484 Y38.015 E101.31027
G1 X6.478 Y37.401 E101.38396
G1 X6.477 Y37.4 E101.38413
G1 X6.477 Y37.2 E101.40813
G1 X6.677 Y37.2 E101.42367
G1 X6.678 Y37.2 E101.42379
G1 X13.475 Y37.2 E102.23943
G1 X13.475 Y43.2 E102.95943
G1 X20.075 Y43.2 E103.75143
G1 X20.075 Y37.2 E104.47143
G1 X29.075 Y37.2 E105.55143
G1 X29.075 Y47.909 E106.83651
G1 X29.095 Y48.333 E106.88744
G1 X29.164 Y48.768 E106.94029
G1 X29.276 Y49.193 E106.99304
G1 X29.433 Y49.604 E107.04583
G1 X29.632 Y49.997 E107.09869
G1 X29.871 Y50.367 E107.15155
G1 X30.148 Y50.709 E107.20436
G1 X30.459 Y51.021 E107.25723
G1 X30.8 Y51.298 E107.30995
G1 X31.17 Y51.538 E107.36287
G1 X31.561 Y51.739 E107.41563
G1 X31.971 Y51.897 E107.46835
G1 X32.396 Y52.011 E107.52116
G1 X32.831 Y52.08 E107.57401
G1 X33.266 Y52.103 E107.62628
G1 X48.441 Y52.104 E109.44728
G1 X48.441 Y56.908 E110.02376
G1 X39.452 Y56.908 E111.10244
G1 X39.08 Y56.93 E111.14716
G1 X38.689 Y57.002 E111.19487
G1 X38.309 Y57.122 E111.24269
G1 X37.946 Y57.288 E111.29059
G1 X37.608 Y57.499 E111.3384
G1 X37.298 Y57.75 E111.38627
G1 X37.023 Y58.036 E111.43388
G1 X36.784 Y58.355 E111.48171
G1 X36.587 Y58.702 E111.52959
G1 X36.434 Y59.07 E111.57742
G1 X36.33 Y59.454 E111.62516
G1 X36.272 Y59.847 E111.67283
G1 X36.264 Y60.246 E111.72072
G1 X36.305 Y60.643 E111.76861
G1 X36.396 Y61.031 E111.81643
G1 X36.535 Y61.404 E111.8642
G1 X36.719 Y61.758 E111.91208
G1 X36.946 Y62.086 E111.95994
G1 X37.215 Y62.387 E112.00838
G1 X44.223 Y69.268 E113.18695
G1 X44.622 Y69.687 E113.25639
G1 X44.992 Y70.137 E113.32629
G1 X45.324 Y70.61 E113.39564
G1 X45.594 Y71.059 E113.45851
G1 X45.858 Y71.576 E113.52817
G1 X46.076 Y72.092 E113.59539
G1 X46.253 Y72.618 E113.66199
G1 X46.393 Y73.152 E113.72824
G1 X46.497 Y73.714 E113.79682
G1 X46.558 Y74.267 E113.86358
G1 X46.58 Y74.826 E113.93072
G1 X46.563 Y75.398 E113.99939
G1 X46.565 Y75.66 E114.03083
G1 X46.615 Y75.933 E114.06413
G1 X46.708 Y76.197 E114.09772
G1 X46.843 Y76.442 E114.13129
G1 X47.016 Y76.661 E114.16478
G1 X47.223 Y76.848 E114.19825
G1 X47.457 Y77 E114.23174
G1 X47.714 Y77.111 E114.26533
G1 X47.985 Y77.178 E114.29883
G1 X48.251 Y77.2 E114.33086
G1 X71.298 Y77.2 E117.0965
G1 X71.563 Y77.179 E117.1284
G1 X71.834 Y77.112 E117.1619
G1 X72.091 Y77.001 E117.19549
G1 X72.325 Y76.849 E117.22898
G1 X72.533 Y76.661 E117.26262
G1 X72.705 Y76.443 E117.29594
G1 X72.84 Y76.198 E117.32951
G1 X72.933 Y75.934 E117.3631
G1 X72.983 Y75.661 E117.3964
G1 X72.986 Y75.396 E117.4282
G1 X72.969 Y74.843 E117.4946
G1 X72.988 Y74.282 E117.56195
G1 X73.05 Y73.724 E117.62933
G1 X73.151 Y73.172 E117.69667
G1 X73.296 Y72.615 E117.76573
G1 X73.477 Y72.082 E117.83328
G1 X73.697 Y71.563 E117.90093
G1 X73.964 Y71.043 E117.97107
G1 X74.242 Y70.583 E118.03557
G1 X74.568 Y70.122 E118.10332
G1 X74.936 Y69.676 E118.17271
G1 X75.358 Y69.236 E118.24587
G1 X82.337 Y62.384 E119.41952
G1 X82.599 Y62.092 E119.46659
G1 X82.825 Y61.765 E119.51429
G1 X83.011 Y61.412 E119.56218
G1 X83.15 Y61.039 E119.60994
G1 X83.242 Y60.651 E119.65779
G1 X83.284 Y60.255 E119.70558
G1 X83.278 Y59.857 E119.75335
G1 X83.222 Y59.463 E119.8011
G1 X83.118 Y59.079 E119.84884
G1 X82.967 Y58.71 E119.89668
G1 X82.77 Y58.364 E119.94446
G1 X82.533 Y58.044 E119.99225
G1 X82.258 Y57.756 E120.04003
G1 X81.948 Y57.505 E120.0879
G1 X81.611 Y57.294 E120.13561
G1 X81.25 Y57.126 E120.18339
G1 X80.87 Y57.005 E120.23125
G1 X80.479 Y56.931 E120.279
G1 X80.094 Y56.908 E120.32528
G1 X71.108 Y56.908 E121.4036
G1 X71.108 Y52.104 E121.98008
G1 X86.28 Y52.104 E123.80072
G1 X86.704 Y52.083 E123.85166
G1 X87.138 Y52.015 E123.90438
G1 X87.564 Y51.903 E123.95724
G1 X87.974 Y51.746 E124.00992
G1 X88.368 Y51.546 E124.06294
G1 X88.737 Y51.307 E124.1157
G1 X89.079 Y51.031 E124.16844
G1 X89.39 Y50.72 E124.22122
G1 X89.669 Y50.379 E124.27409
G1 X89.908 Y50.009 E124.32694
G1 X90.109 Y49.618 E124.3797
G1 X90.267 Y49.207 E124.43254
G1 X90.381 Y48.783 E124.48523
G1 X90.451 Y48.347 E124.53822
G1 X90.474 Y47.913 E124.59037
G1 X90.475 Y37.2 E125.87593
G1 X99.475 Y37.2 E126.95593
G1 X99.475 Y43.2 E127.67593
G0 F3600 X99.675 Y43.2
G0 X99.675 Y43.7
G0 X98.685 Y43.99
;TYPE:SKIN
G1 F1800 X106.865 Y43.99 E128.65753
G1 X106.865 Y37.99 E129.37753
G1 X112.275 Y37.992 E130.02673
G1 X112.25 Y38.415 E130.07758
G1 X112.212 Y38.797 E130.12365
G1 X112.153 Y39.206 E130.17323
G1 X112.081 Y39.593 E130.22047
G1 X111.995 Y39.96 E130.2657
G1 X111.894 Y40.323 E130.31092
G1 X111.773 Y40.688 E130.35706
G1 X111.643 Y41.021 E130.39996
G1 X111.503 Y41.334 E130.4411
G1 X111.356 Y41.62 E130.47969
G1 X111.186 Y41.91 E130.52003
G1 X111.027 Y42.144 E130.55398
