;FLAVOR:UltiGCode
;TIME:2459
;MATERIAL:2655
;MATERIAL2:0
;NOZZLE_DIAMETER:0.4
;Generated with Cura_SteamEngine 3.4.1
M82 ;absolute extrusion mode

G92 E0
G10
;LAYER_COUNT:49
;LAYER:0
M107
G0 F3600 X36.953 Y37.31 Z0.3
;TYPE:SKIRT
G11
G1 F1800 X37.366 Y36.968 E0.06435
G1 X37.684 Y36.767 E0.10949
G1 X37.997 Y36.591 E0.15258
G1 X38.482 Y36.364 E0.21684
G1 X38.756 Y36.272 E0.25152
G1 X41.551 Y35.459 E0.60083
G1 X42.075 Y35.348 E0.6651
G1 X42.826 Y35.326 E0.75526
G1 X49.345 Y35.816 E1.53975
G1 X54.806 Y35.904 E2.19515
G1 X60.253 Y35.683 E2.84933
G1 X64.221 Y35.329 E3.32738
G1 X64.811 Y35.325 E3.39818
G1 X71.345 Y35.816 E4.18447
G1 X76.806 Y35.904 E4.83988
G1 X82.274 Y35.682 E5.49658
G1 X86.563 Y35.357 E6.01273
G1 X87.099 Y35.357 E6.07705
G1 X87.63 Y35.436 E6.14147
G1 X88.143 Y35.593 E6.20585
G1 X88.626 Y35.824 E6.2701
G1 X88.938 Y36.025 E6.31464
G1 X89.113 Y36.151 E6.34051
G1 X89.524 Y36.496 E6.40491
G1 X89.879 Y36.898 E6.46926
G1 X90.17 Y37.349 E6.53367
G1 X90.451 Y38.014 E6.6203
G1 X93.553 Y48.088 E7.8852
G1 X93.672 Y48.61 E7.94944
G1 X93.712 Y49.145 E8.01382
G1 X93.672 Y49.68 E8.0782
G1 X93.62 Y49.957 E8.11202
G1 X92.296 Y55.69 E8.81809
G1 X91.814 Y58.295 E9.136
G1 X91.043 Y63.709 E9.79223
G1 X90.581 Y69.071 E10.43806
G1 X90.438 Y69.81 E10.52838
G1 X87.609 Y79.104 E11.69418
G1 X87.536 Y79.32 E11.72154
G1 X87.223 Y80.155 E11.82855
G1 X86.998 Y80.641 E11.89282
G1 X86.703 Y81.089 E11.95719
G1 X86.345 Y81.488 E12.02151
G1 X85.931 Y81.83 E12.08595
G1 X85.472 Y82.106 E12.15022
G1 X85.187 Y82.234 E12.18772
G1 X84.899 Y82.349 E12.22493
G1 X84.388 Y82.511 E12.28926
G1 X83.858 Y82.594 E12.35363
G1 X83.307 Y82.597 E12.41975
G1 X78.083 Y82.223 E13.04824
G1 X72.648 Y82.117 E13.70056
G1 X67.152 Y82.321 E14.36054
G1 X63.9 Y82.579 E14.752
G1 X63.245 Y82.571 E14.83061
G1 X60.99 Y82.337 E15.10266
G1 X55.521 Y81.972 E15.7604
G1 X50.062 Y81.918 E16.41551
G1 X43.7 Y82.211 E17.17976
G1 X43.164 Y82.196 E17.24411
G1 X42.485 Y82.059 E17.32723
G1 X39.636 Y81.191 E17.68462
G1 X39.136 Y80.997 E17.74898
G1 X38.67 Y80.73 E17.81343
G1 X38.397 Y80.526 E17.85433
G1 X38.08 Y80.265 E17.9036
G1 X37.692 Y79.894 E17.96802
G1 X37.484 Y79.641 E18.00732
G1 X35.636 Y77.168 E18.37779
G1 X32.159 Y72.918 E19.03672
G1 X27.973 Y68.311 E19.78368
G1 X27.643 Y67.889 E19.84797
G1 X27.379 Y67.422 E19.91234
G1 X27.214 Y67.006 E19.96605
G1 X27.008 Y66.374 E20.04581
G1 X26.88 Y65.853 E20.11019
G1 X26.838 Y65.475 E20.15583
G1 X26.65 Y62.358 E20.53055
G1 X26.077 Y56.884 E21.19102
G1 X25.81 Y54.975 E21.42233
G1 X25.775 Y54.437 E21.48703
G1 X25.8 Y52.112 E21.76604
G1 X25.846 Y51.578 E21.83036
G1 X26.022 Y50.906 E21.91372
G1 X26.214 Y50.385 E21.98035
G1 X26.436 Y49.897 E22.04469
G1 X26.729 Y49.448 E22.10902
G1 X26.922 Y49.215 E22.14533
G1 X31.606 Y44.036 E22.98329
G1 X33.292 Y42.001 E23.30041
G1 X36.595 Y37.709 E23.95031
G1 X36.953 Y37.31 E24.01464
G0 F3600 X37.251 Y37.578
G1 F1800 X37.645 Y37.261 E24.07532
G1 X37.88 Y37.116 E24.10845
G1 X38.193 Y36.94 E24.15154
G1 X38.867 Y36.656 E24.23931
G1 X41.662 Y35.843 E24.58861
G1 X42.157 Y35.741 E24.64926
G1 X42.796 Y35.725 E24.72596
G1 X49.326 Y36.215 E25.51177
G1 X54.815 Y36.304 E26.17053
G1 X60.285 Y36.082 E26.82747
G1 X64.257 Y35.728 E27.306
G1 X64.781 Y35.724 E27.36889
G1 X71.326 Y36.215 E28.15649
G1 X76.815 Y36.304 E28.81526
G1 X82.291 Y36.082 E29.47292
G1 X86.593 Y35.756 E29.99064
G1 X87.099 Y35.758 E30.05136
G1 X87.598 Y35.839 E30.11202
G1 X88.078 Y35.998 E30.1727
G1 X88.705 Y36.35 E30.25899
G1 X88.88 Y36.476 E30.28486
G1 X89.265 Y36.803 E30.34548
G1 X89.595 Y37.187 E30.40624
G1 X89.86 Y37.617 E30.46685
G1 X90.068 Y38.131 E30.53339
G1 X93.17 Y48.205 E31.79828
G1 X93.28 Y48.699 E31.85901
G1 X93.312 Y49.203 E31.91961
G1 X93.23 Y49.867 E31.9999
G1 X91.906 Y55.597 E32.70562
G1 X91.418 Y58.236 E33.02767
G1 X90.644 Y63.673 E33.68668
G1 X90.182 Y69.037 E34.33275
G1 X90.055 Y69.694 E34.41305
G1 X87.226 Y78.988 E35.57885
G1 X87.161 Y79.179 E35.60306
G1 X86.848 Y80.014 E35.71007
G1 X86.634 Y80.472 E35.77073
G1 X86.35 Y80.891 E35.83147
G1 X86.004 Y81.259 E35.89209
G1 X85.604 Y81.568 E35.95274
G1 X85.039 Y81.863 E36.02923
G1 X84.751 Y81.978 E36.06644
G1 X84.268 Y82.128 E36.12713
G1 X83.767 Y82.2 E36.18787
G1 X83.335 Y82.198 E36.23971
G1 X78.099 Y81.823 E36.86964
G1 X72.641 Y81.717 E37.52472
G1 X67.13 Y81.922 E38.1865
G1 X63.869 Y82.18 E38.57904
G1 X63.286 Y82.173 E38.64901
G1 X61.029 Y81.939 E38.9213
G1 X55.535 Y81.572 E39.58205
G1 X50.065 Y81.518 E40.23848
G1 X43.681 Y81.812 E41.00537
G1 X43.176 Y81.795 E41.06601
G1 X42.601 Y81.676 E41.13647
G1 X39.752 Y80.808 E41.49386
G1 X39.282 Y80.623 E41.55448
G1 X38.651 Y80.217 E41.64452
G1 X38.334 Y79.956 E41.69379
G1 X37.97 Y79.605 E41.75447
G1 X37.805 Y79.401 E41.78595
G1 X35.961 Y76.933 E42.15565
G1 X32.465 Y72.659 E42.81825
G1 X28.269 Y68.042 E43.56691
G1 X27.959 Y67.642 E43.62764
G1 X27.717 Y67.199 E43.68822
G1 X27.595 Y66.882 E43.72898
G1 X27.389 Y66.25 E43.80874
G1 X27.27 Y65.758 E43.86949
G1 X27.237 Y65.451 E43.90654
G1 X27.049 Y62.339 E44.28066
G1 X26.472 Y56.816 E44.94703
G1 X26.206 Y54.92 E45.17677
G1 X26.175 Y54.442 E45.23426
G1 X26.2 Y52.117 E45.51327
G1 X26.246 Y51.613 E45.574
G1 X26.397 Y51.044 E45.64465
G1 X26.589 Y50.523 E45.71128
G1 X26.801 Y50.064 E45.77195
G1 X27.219 Y49.483 E45.85784
G1 X31.906 Y44.301 E46.6963
G1 X33.608 Y42.247 E47.01641
G1 X36.912 Y37.953 E47.66657
G1 X37.251 Y37.578 E47.72723
G10
G0 F3600 X39.376 Y49.836
G0 X40.135 Y50.874
G0 X39.367 Y51.536
G0 X39.309 Y51.617
;TYPE:WALL-INNER
G11
G1 F1800 X39.251 Y51.582 E47.73536
G1 X39.131 Y51.509 E47.75221
G1 X39.056 Y51.463 E47.76277
G1 X38.947 Y51.42 E47.77683
G1 X39.035 Y51.394 E47.777
G1 X39.226 Y51.338 E47.79025
G1 X39.236 Y51.335
G1 X39.452 Y51.25 E47.81283
G1 X39.456 Y51.248 E47.81337
G1 X39.637 Y51.162 E47.83742
G1 X39.831 Y51.055 E47.864
G1 X40.124 Y50.858 E47.90637
G1 X40.282 Y50.735 E47.9304
G1 X40.574 Y50.46 E47.97853
G1 X40.765 Y50.242 E48.01331
G1 X40.938 Y50.003 E48.04872
G1 X41.093 Y49.728 E48.0866
G1 X41.177 Y49.533 E48.11208
G1 X41.228 Y49.371 E48.13246
G1 X41.273 Y49.148 E48.15976
G1 X41.291 Y48.994 E48.17836
G1 X41.29 Y48.807 E48.2008
G1 X41.27 Y48.639 E48.2211
G1 X39.874 Y40.331 E49.23204
G1 X39.944 Y40.292 E49.24166
G1 X40.046 Y40.25 E49.25489
G1 X42.416 Y39.529 E49.55216
G1 X42.548 Y39.506 E49.56824
G1 X45.456 Y49.019 E50.76195
G1 X40.216 Y55.308 E51.74426
G1 X30.798 Y55.305 E52.87442
G1 X30.636 Y55.278 E52.89412
G1 X30.511 Y55.236 E52.90995
G1 X30.359 Y55.152 E52.93079
G1 X30.259 Y55.075 E52.94593
G1 X30.152 Y54.959 E52.96487
G1 X30.041 Y54.777 E52.99045
G1 X29.991 Y54.627 E53.00943
G1 X29.967 Y54.489 E53.02623
G1 X29.962 Y52.588 E53.25436
G1 X29.967 Y52.334 E53.28484
G1 X30.01 Y52.123 E53.31068
G1 X30.078 Y51.969 E53.33088
G1 X30.163 Y51.844 E53.34902
G1 X30.256 Y51.743 E53.3655
G1 X30.371 Y51.656 E53.3828
G1 X30.507 Y51.582 E53.40138
G1 X30.574 Y51.557 E53.40996
G1 X30.731 Y51.518 E53.42938
G1 X30.782 Y51.512 E53.43554
G1 X32.105 Y51.512 E53.5943
G1 X32.13 Y51.512 E53.5973
G1 X32.238 Y51.512 E53.61026
G1 X32.363 Y51.512 E53.62526
G1 X32.492 Y51.512 E53.64074
G1 X32.585 Y51.511 E53.6519
G1 X32.493 Y51.565 E53.65382
G1 X32.363 Y51.657 E53.66054
G1 X32.238 Y51.767 E53.6723
G1 X32.13 Y51.887 E53.68852
G1 X32.115 Y51.907 E53.69144
G1 X32.034 Y52.015 E53.70764
G1 X31.949 Y52.156 E53.72739
G1 X31.88 Y52.304 E53.74699
G1 X31.828 Y52.455 E53.76615
G1 X31.789 Y52.611 E53.78545
G1 X31.766 Y52.788 E53.80687
G1 X31.771 Y53.097 E53.84395
G1 X31.842 Y53.415 E53.88305
G1 X31.968 Y53.692 E53.91957
G1 X32.062 Y53.842 E53.94081
G1 X32.166 Y53.97 E53.9606
G1 X32.278 Y54.085 E53.97987
G1 X32.404 Y54.19 E53.99955
G1 X32.539 Y54.281 E54.01909
G1 X32.683 Y54.357 E54.03862
G1 X32.832 Y54.418 E54.05794
G1 X32.988 Y54.464 E54.07746
G1 X33.145 Y54.493 E54.09662
G1 X33.306 Y54.507 E54.11601
G1 X33.471 Y54.505 E54.13581
G1 X33.648 Y54.484 E54.1572
G1 X33.929 Y54.405 E54.19223
G1 X34.092 Y54.332 E54.21366
G1 X34.231 Y54.251 E54.23297
G1 X34.361 Y54.159 E54.25208
G1 X34.486 Y54.049 E54.27206
G1 X34.594 Y53.929 E54.29143
G1 X34.69 Y53.801 E54.31063
G1 X34.775 Y53.66 E54.33039
G1 X34.844 Y53.512 E54.34999
G1 X34.896 Y53.363 E54.36892
G1 X34.936 Y53.205 E54.38848
G1 X34.958 Y53.025 E54.41024
G1 X34.953 Y52.736 E54.44493
G1 X34.923 Y52.546 E54.46801
G1 X34.827 Y52.265 E54.50364
G1 X34.749 Y52.112 E54.52425
G1 X34.662 Y51.974 E54.54383
G1 X34.6 Y51.898 E54.5556
G1 X34.558 Y51.846 E54.56362
G1 X34.445 Y51.73 E54.58305
G1 X34.309 Y51.617 E54.60427
G1 X34.133 Y51.51 E54.62899
G1 X34.309 Y51.51 E54.63103
G1 X34.445 Y51.51 E54.63692
G1 X34.557 Y51.51 E54.64259
G1 X34.624 Y51.51 E54.65005
G1 X37.107 Y51.51 E54.94801
G1 X37.13 Y51.51 E54.95077
G1 X37.237 Y51.51 E54.96361
G1 X37.362 Y51.509 E54.97861
G1 X37.492 Y51.508 E54.99422
G1 X37.591 Y51.507 E55.0061
G1 X37.493 Y51.565 E55.00825
G1 X37.363 Y51.657 E55.01502
G1 X37.238 Y51.767 E55.02689
G1 X37.13 Y51.887 E55.04319
G1 X37.117 Y51.905 E55.04579
G1 X37.034 Y52.015 E55.06233
G1 X36.949 Y52.156 E55.08208
G1 X36.88 Y52.304 E55.10168
G1 X36.828 Y52.455 E55.12084
G1 X36.789 Y52.611 E55.14014
G1 X36.766 Y52.788 E55.16156
G1 X36.771 Y53.097 E55.19864
G1 X36.842 Y53.415 E55.23774
G1 X36.968 Y53.692 E55.27426
G1 X37.062 Y53.842 E55.2955
G1 X37.166 Y53.97 E55.31529
G1 X37.278 Y54.085 E55.33455
G1 X37.404 Y54.19 E55.35424
G1 X37.539 Y54.281 E55.37377
G1 X37.683 Y54.357 E55.39331
G1 X37.832 Y54.418 E55.41263
G1 X37.988 Y54.464 E55.43215
G1 X38.145 Y54.493 E55.45131
G1 X38.306 Y54.507 E55.4707
G1 X38.471 Y54.505 E55.4905
G1 X38.648 Y54.484 E55.51189
G1 X38.929 Y54.405 E55.54692
G1 X39.092 Y54.332 E55.56835
G1 X39.231 Y54.251 E55.58766
G1 X39.361 Y54.159 E55.60677
G1 X39.486 Y54.049 E55.62675
G1 X39.594 Y53.929 E55.64612
G1 X39.69 Y53.801 E55.66532
G1 X39.775 Y53.66 E55.68508
G1 X39.844 Y53.512 E55.70467
G1 X39.896 Y53.363 E55.72361
G1 X39.936 Y53.205 E55.74317
G1 X39.958 Y53.025 E55.76493
G1 X39.953 Y52.736 E55.79962
G1 X39.923 Y52.546 E55.8227
G1 X39.827 Y52.265 E55.85833
G1 X39.749 Y52.112 E55.87894
G1 X39.662 Y51.974 E55.89852
G1 X39.558 Y51.846 E55.91831
G1 X39.445 Y51.73 E55.93774
G1 X39.312 Y51.62 E55.95845
G1 X39.309 Y51.617 E55.95896
G0 F3600 X39.367 Y51.536
G0 X39.863 Y52.25
G0 X39.992 Y52.733
G0 X39.934 Y53.374
G0 X39.624 Y53.954
G0 X39.11 Y54.367
G0 X38.473 Y54.544
G0 X37.819 Y54.455
G0 X37.251 Y54.114
G0 X36.736 Y53.395
G0 X37.223 Y53.287
;TYPE:WALL-OUTER
G1 F1800 X37.321 Y53.502 E55.98731
G1 X37.388 Y53.609 E56.00246
G1 X37.465 Y53.704 E56.01714
G1 X37.55 Y53.791 E56.03173
G1 X37.644 Y53.869 E56.04639
G1 X37.745 Y53.937 E56.061
G1 X37.853 Y53.994 E56.07566
G1 X37.965 Y54.04 E56.09019
G1 X38.081 Y54.074 E56.10469
G1 X38.2 Y54.096 E56.11921
G1 X38.321 Y54.107 E56.13379
G1 X38.444 Y54.105 E56.14856
G1 X38.57 Y54.09 E56.16378
G1 X38.793 Y54.028 E56.19156
G1 X38.909 Y53.976 E56.20681
G1 X39.014 Y53.915 E56.22138
G1 X39.112 Y53.845 E56.23584
G1 X39.204 Y53.764 E56.25054
G1 X39.285 Y53.674 E56.26507
G1 X39.358 Y53.577 E56.27964
G1 X39.421 Y53.472 E56.29434
G1 X39.473 Y53.361 E56.30905
G1 X39.512 Y53.248 E56.32339
G1 X39.542 Y53.13 E56.338
G1 X39.558 Y53.003 E56.35336
G1 X39.554 Y52.772 E56.38109
G1 X39.533 Y52.643 E56.39677
G1 X39.458 Y52.421 E56.42489
G1 X39.401 Y52.31 E56.43986
G1 X39.336 Y52.207 E56.45448
G1 X39.259 Y52.112 E56.46915
G1 X39.174 Y52.025 E56.48375
G1 X39.076 Y51.944 E56.499
G1 X38.877 Y51.823 E56.52695
G1 X38.758 Y51.776 E56.54231
G1 X38.643 Y51.742 E56.5567
G1 X38.525 Y51.72 E56.5711
G1 X38.403 Y51.709 E56.5858
G1 X38.28 Y51.711 E56.60056
G1 X38.16 Y51.726 E56.61507
G1 X38.037 Y51.753 E56.63019
G1 X37.82 Y51.837 E56.65811
G1 X37.71 Y51.901 E56.67338
G1 X37.612 Y51.971 E56.68783
G1 X37.52 Y52.052 E56.70254
G1 X37.439 Y52.142 E56.71707
G1 X37.366 Y52.239 E56.73164
G1 X37.303 Y52.344 E56.74633
G1 X37.251 Y52.455 E56.76104
G1 X37.212 Y52.568 E56.77539
G1 X37.183 Y52.686 E56.78997
G1 X37.166 Y52.812 E56.80523
G1 X37.17 Y53.05 E56.83379
G1 X37.223 Y53.287 E56.86293
G0 F3600 X37.306 Y53.469
G0 X36.85 Y53.675
G0 X33.473 Y54.544
G0 X32.819 Y54.455
G0 X32.251 Y54.114
G0 X31.736 Y53.395
G0 X32.223 Y53.287
G1 F1800 X32.321 Y53.502 E56.89129
G1 X32.388 Y53.609 E56.90644
G1 X32.465 Y53.704 E56.92111
G1 X32.55 Y53.791 E56.93571
G1 X32.644 Y53.869 E56.95036
G1 X32.745 Y53.937 E56.96497
G1 X32.853 Y53.994 E56.97963
G1 X32.965 Y54.04 E56.99416
G1 X33.081 Y54.074 E57.00866
G1 X33.2 Y54.096 E57.02319
G1 X33.321 Y54.107 E57.03777
G1 X33.444 Y54.105 E57.05253
G1 X33.57 Y54.09 E57.06775
G1 X33.793 Y54.028 E57.09553
G1 X33.909 Y53.976 E57.11078
G1 X34.014 Y53.915 E57.12536
G1 X34.112 Y53.845 E57.13981
G1 X34.204 Y53.764 E57.15452
G1 X34.285 Y53.674 E57.16905
G1 X34.358 Y53.577 E57.18361
G1 X34.421 Y53.472 E57.19831
G1 X34.473 Y53.361 E57.21302
G1 X34.512 Y53.248 E57.22736
G1 X34.542 Y53.13 E57.24197
G1 X34.558 Y53.003 E57.25733
G1 X34.554 Y52.772 E57.28506
G1 X34.533 Y52.643 E57.30074
G1 X34.458 Y52.421 E57.32886
G1 X34.401 Y52.31 E57.34383
G1 X34.336 Y52.207 E57.35845
G1 X34.259 Y52.112 E57.37312
G1 X34.174 Y52.025 E57.38772
G1 X34.076 Y51.944 E57.40298
G1 X33.877 Y51.823 E57.43092
G1 X33.758 Y51.776 E57.44628
G1 X33.643 Y51.742 E57.46067
G1 X33.525 Y51.72 E57.47507
G1 X33.403 Y51.709 E57.48977
G1 X33.28 Y51.711 E57.50453
G1 X33.16 Y51.726 E57.51905
G1 X33.037 Y51.753 E57.53416
G1 X32.82 Y51.837 E57.56208
G1 X32.71 Y51.901 E57.57735
G1 X32.612 Y51.971 E57.5918
G1 X32.52 Y52.052 E57.60651
G1 X32.439 Y52.142 E57.62104
G1 X32.366 Y52.239 E57.63561
G1 X32.303 Y52.344 E57.6503
G1 X32.251 Y52.455 E57.66501
G1 X32.212 Y52.568 E57.67936
G1 X32.183 Y52.686 E57.69394
G1 X32.166 Y52.812 E57.7092
G1 X32.17 Y53.05 E57.73776
G1 X32.223 Y53.287 E57.7669
G0 F3600 X32.306 Y53.469
G0 X31.85 Y53.675
G0 X30.801 Y55.266
G0 X39.26 Y55.271
G0 X41.387 Y49.03
G0 X40.891 Y48.972
G1 F1800 X40.89 Y48.832 E57.7837
G1 X40.874 Y48.696 E57.80014
G1 X39.452 Y40.232 E58.83005
G1 X39.471 Y40.168 E58.83806
G1 X39.492 Y40.133 E58.84296
G1 X39.565 Y40.055 E58.85578
G1 X39.622 Y40.013 E58.86428
G1 X39.771 Y39.931 E58.88469
G1 X39.918 Y39.871 E58.90374
G1 X42.313 Y39.142 E59.20416
G1 X42.458 Y39.113 E59.2219
G1 X42.58 Y39.102 E59.2366
G1 X42.691 Y39.108 E59.24994
G1 X42.769 Y39.126 E59.25955
G1 X42.852 Y39.174 E59.27105
G1 X42.88 Y39.221 E59.27762
G1 X45.902 Y49.108 E60.51824
G1 X40.403 Y55.708 E61.54912
G1 X30.775 Y55.705 E62.70448
G1 X30.642 Y55.689 E62.72055
G1 X30.527 Y55.664 E62.73467
G1 X30.359 Y55.607 E62.75596
G1 X30.246 Y55.552 E62.77104
G1 X30.134 Y55.484 E62.78677
G1 X29.998 Y55.379 E62.80739
G1 X29.9 Y55.282 E62.82393
G1 X29.831 Y55.199 E62.83688
G1 X29.726 Y55.038 E62.85995
G1 X29.67 Y54.928 E62.87476
G1 X29.602 Y54.727 E62.90022
G1 X29.567 Y54.523 E62.92506
G1 X29.562 Y52.58 E63.15822
G1 X29.568 Y52.294 E63.19255
G1 X29.607 Y52.073 E63.21948
G1 X29.632 Y51.988 E63.23011
G1 X29.729 Y51.771 E63.25864
G1 X29.847 Y51.597 E63.28386
G1 X29.987 Y51.446 E63.30857
G1 X30.152 Y51.319 E63.33356
G1 X30.341 Y51.217 E63.35933
G1 X30.452 Y51.175 E63.37357
G1 X30.659 Y51.124 E63.39916
G1 X30.762 Y51.112 E63.4116
G1 X38.294 Y51.107 E64.31544
G1 X38.501 Y51.093 E64.34034
G1 X38.688 Y51.067 E64.36299
G1 X38.836 Y51.036 E64.38114
G1 X39.106 Y50.956 E64.41493
G1 X39.293 Y50.883 E64.43902
G1 X39.454 Y50.806 E64.46044
G1 X39.622 Y50.713 E64.48348
G1 X39.889 Y50.534 E64.52205
G1 X40.021 Y50.431 E64.54214
G1 X40.286 Y50.182 E64.58578
G1 X40.452 Y49.993 E64.61597
G1 X40.6 Y49.787 E64.6464
G1 X40.734 Y49.55 E64.67908
G1 X40.801 Y49.394 E64.69945
G1 X40.84 Y49.27 E64.71505
G1 X40.878 Y49.085 E64.73771
G1 X40.891 Y48.972 E64.75136
G0 F3600 X40.89 Y48.832
G0 X40.883 Y48.772
G0 X41.656 Y48.584
;TYPE:SKIN
G1 F1800 X40.31 Y40.577 E65.72568
G1 X42.284 Y39.976 E65.9733
G1 X45.021 Y48.93 E67.09685
G1 X40.033 Y54.918 E68.03206
G1 X30.827 Y54.915 E69.13678
G1 X30.735 Y54.899 E69.14798
G1 X30.669 Y54.877 E69.15633
G1 X30.572 Y54.824 E69.16959
G1 X30.522 Y54.786 E69.17713
G1 X30.465 Y54.723 E69.18733
G1 X30.396 Y54.61 E69.20321
G1 X30.37 Y54.53 E69.21331
G1 X30.357 Y54.457 E69.22221
G1 X30.352 Y52.596 E69.44553
G1 X30.357 Y52.376 E69.47193
G1 X30.384 Y52.244 E69.4881
G1 X30.424 Y52.153 E69.50003
G1 X30.467 Y52.089 E69.50928
