;FLAVOR:UltiGCode
;TIME:4215
;MATERIAL:5151
;MATERIAL2:0
;NOZZLE_DIAMETER:0.4
;Generated with Cura_SteamEngine 3.4.1
M82 ;absolute extrusion mode

G92 E0
G10
;LAYER_COUNT:249
;LAYER:0
M107
G0 F3600 X38.479 Y42.29 Z0.3
;TYPE:SKIRT
G11
G1 F1800 X39.065 Y41.76 E0.09481
G1 X39.701 Y41.293 E0.1895
G1 X40.381 Y40.892 E0.28423
G1 X41.099 Y40.562 E0.37906
G1 X41.846 Y40.307 E0.47378
G1 X42.615 Y40.128 E0.56852
G1 X43.399 Y40.028 E0.66336
G1 X43.994 Y40.005 E0.73482
G1 X57.432 Y40.005 E2.34738
G1 X58.221 Y40.045 E2.44218
G1 X59.001 Y40.164 E2.53686
G1 X59.766 Y40.362 E2.63169
G1 X60.506 Y40.636 E2.72638
G1 X61.215 Y40.984 E2.82116
G1 X61.886 Y41.402 E2.91602
G1 X62.51 Y41.885 E3.01071
G1 X63.083 Y42.428 E3.10544
G1 X63.598 Y43.027 E3.20024
G1 X64.049 Y43.675 E3.29498
G1 X64.424 Y44.349 E3.38753
G1 X64.479 Y44.29 E3.39721
G1 X66.479 Y42.29 E3.73662
G1 X67.065 Y41.76 E3.83144
G1 X67.701 Y41.293 E3.92612
G1 X68.381 Y40.892 E4.02085
G1 X69.099 Y40.562 E4.11568
G1 X69.846 Y40.307 E4.2104
G1 X70.615 Y40.128 E4.30514
G1 X71.399 Y40.028 E4.39999
G1 X71.994 Y40.005 E4.47144
G1 X85.432 Y40.005 E6.084
G1 X86.221 Y40.045 E6.1788
G1 X87.001 Y40.164 E6.27348
G1 X87.766 Y40.362 E6.36831
G1 X88.506 Y40.636 E6.463
G1 X89.215 Y40.984 E6.55778
G1 X89.886 Y41.402 E6.65264
G1 X90.51 Y41.885 E6.74733
G1 X91.083 Y42.428 E6.84206
G1 X91.598 Y43.027 E6.93686
G1 X92.049 Y43.675 E7.0316
G1 X92.433 Y44.366 E7.12646
G1 X92.621 Y44.778 E7.1808
G1 X96.621 Y54.277 E8.41763
G1 X96.89 Y55.019 E8.51234
G1 X97.083 Y55.785 E8.60713
G1 X97.197 Y56.566 E8.70184
G1 X97.232 Y57.304 E8.7905
G1 X97.232 Y68.805 E10.17062
G1 X97.192 Y69.594 E10.26542
G1 X97.073 Y70.374 E10.36011
G1 X96.875 Y71.139 E10.45493
G1 X96.601 Y71.879 E10.54962
G1 X96.253 Y72.588 E10.6444
G1 X95.835 Y73.259 E10.73927
G1 X95.352 Y73.883 E10.83396
G1 X94.809 Y74.456 E10.92869
G1 X94.51 Y74.726 E10.97703
G1 X90.557 Y78.116 E11.60193
G1 X89.932 Y78.599 E11.69672
G1 X89.262 Y79.016 E11.79142
G1 X88.553 Y79.364 E11.8862
G1 X87.812 Y79.638 E11.981
G1 X87.047 Y79.836 E12.07582
G1 X86.267 Y79.955 E12.17051
G1 X85.478 Y79.995 E12.26531
G1 X84.689 Y79.955 E12.36011
G1 X84.287 Y79.903 E12.40875
G1 X74.093 Y78.326 E13.64658
G1 X73.319 Y78.166 E13.74143
G1 X72.25 Y77.803 E13.8769
G1 X71.587 Y77.523 E13.96327
G1 X70.876 Y77.18 E14.058
G1 X70.204 Y76.766 E14.15271
G1 X69.577 Y76.286 E14.24747
G1 X69.068 Y75.815 E14.33068
G1 X68.711 Y75.453 E14.3917
G1 X68.186 Y74.863 E14.48647
G1 X67.723 Y74.224 E14.58116
G1 X67.451 Y73.755 E14.64622
G1 X67.352 Y73.883 E14.66564
G1 X66.809 Y74.456 E14.76037
G1 X66.51 Y74.726 E14.80871
G1 X62.557 Y78.116 E15.43361
G1 X61.932 Y78.599 E15.5284
G1 X61.262 Y79.016 E15.6231
G1 X60.553 Y79.364 E15.71788
G1 X59.812 Y79.638 E15.81268
G1 X59.047 Y79.836 E15.90751
G1 X58.267 Y79.955 E16.00219
G1 X57.478 Y79.995 E16.09699
G1 X56.689 Y79.955 E16.19179
G1 X56.287 Y79.903 E16.24043
G1 X46.093 Y78.326 E17.47827
G1 X45.319 Y78.166 E17.57311
G1 X44.25 Y77.803 E17.70858
G1 X43.587 Y77.523 E17.79495
G1 X42.876 Y77.18 E17.88968
G1 X42.204 Y76.766 E17.98439
G1 X41.577 Y76.286 E18.07915
G1 X41.068 Y75.815 E18.16237
G1 X40.711 Y75.453 E18.22338
G1 X40.186 Y74.863 E18.31815
G1 X39.723 Y74.224 E18.41284
G1 X39.327 Y73.54 E18.50769
G1 X39 Y72.816 E18.60302
G1 X38.88 Y72.509 E18.64257
G1 X38.63 Y71.76 E18.73732
G1 X38.458 Y70.989 E18.83212
G1 X38.363 Y70.205 E18.92689
G1 X38.345 Y69.684 E18.98944
G1 X38.332 Y62.948 E19.79777
G1 X38.043 Y62.757 E19.83934
G1 X37.776 Y62.56 E19.87915
G1 X37.165 Y62.06 E19.97389
G1 X36.608 Y61.5 E20.06867
G1 X36.11 Y60.887 E20.16345
G1 X35.844 Y60.5 E20.2198
G1 X35.571 Y60.075 E20.28042
G1 X35.179 Y59.389 E20.37523
G1 X34.857 Y58.668 E20.46999
G1 X34.536 Y57.622 E20.60128
G1 X34.4 Y57.036 E20.67347
G1 X34.261 Y56.259 E20.76819
G1 X34.198 Y55.279 E20.88604
G1 X34.194 Y49.811 E21.5422
G1 X34.233 Y49.022 E21.63699
G1 X34.352 Y48.241 E21.73179
G1 X34.55 Y47.477 E21.8265
G1 X34.823 Y46.736 E21.92126
G1 X35.17 Y46.027 E22.01599
G1 X35.587 Y45.356 E22.11079
G1 X36.07 Y44.731 E22.20558
G1 X36.479 Y44.29 E22.27775
G1 X38.479 Y42.29 E22.61716
G0 F3600 X38.761 Y42.572
G1 F1800 X39.333 Y42.058 E22.70944
G1 X39.955 Y41.605 E22.80178
G1 X40.62 Y41.219 E22.89405
G1 X41.322 Y40.904 E22.98638
G1 X42.053 Y40.664 E23.07871
G1 X42.804 Y40.501 E23.17093
G1 X43.569 Y40.417 E23.26328
G1 X43.994 Y40.405 E23.3143
G1 X57.432 Y40.405 E24.92686
G1 X58.2 Y40.445 E25.01914
G1 X58.96 Y40.564 E25.11146
G1 X59.703 Y40.762 E25.20373
G1 X60.422 Y41.036 E25.29606
G1 X61.108 Y41.383 E25.38831
G1 X61.755 Y41.799 E25.48062
G1 X62.355 Y42.28 E25.5729
G1 X62.902 Y42.821 E25.66522
G1 X63.39 Y43.416 E25.75756
G1 X63.813 Y44.058 E25.84982
G1 X64.252 Y44.933 E25.96729
G1 X64.313 Y45.077 E25.98606
G1 X64.466 Y44.886 E26.01543
G1 X64.761 Y44.572 E26.06713
G1 X66.761 Y42.572 E26.40654
G1 X67.333 Y42.058 E26.49882
G1 X67.955 Y41.605 E26.59116
G1 X68.62 Y41.219 E26.68343
G1 X69.322 Y40.904 E26.77576
G1 X70.053 Y40.664 E26.86809
G1 X70.804 Y40.501 E26.9603
G1 X71.569 Y40.417 E27.05266
G1 X71.994 Y40.405 E27.10368
G1 X85.432 Y40.405 E28.71624
G1 X86.2 Y40.445 E28.80852
G1 X86.96 Y40.564 E28.90083
G1 X87.703 Y40.762 E28.9931
G1 X88.422 Y41.036 E29.08544
G1 X89.108 Y41.383 E29.17769
G1 X89.755 Y41.799 E29.26999
G1 X90.355 Y42.28 E29.36227
G1 X90.902 Y42.821 E29.45459
G1 X91.39 Y43.416 E29.54694
G1 X91.813 Y44.058 E29.6392
G1 X92.252 Y44.933 E29.75667
G1 X96.252 Y54.432 E30.99349
G1 X96.513 Y55.156 E31.08584
G1 X96.698 Y55.902 E31.17808
G1 X96.804 Y56.664 E31.2704
G1 X96.832 Y57.304 E31.34727
G1 X96.832 Y68.805 E32.72739
G1 X96.792 Y69.573 E32.81967
G1 X96.673 Y70.333 E32.91199
G1 X96.475 Y71.076 E33.00426
G1 X96.201 Y71.795 E33.09659
G1 X95.854 Y72.481 E33.18884
G1 X95.438 Y73.128 E33.28115
G1 X94.957 Y73.728 E33.37343
G1 X94.249 Y74.422 E33.4924
G1 X90.296 Y77.812 E34.1173
G1 X89.687 Y78.282 E34.20961
G1 X89.033 Y78.686 E34.30186
G1 X88.34 Y79.02 E34.39417
G1 X87.616 Y79.28 E34.48648
G1 X86.869 Y79.463 E34.57877
G1 X86.107 Y79.568 E34.67108
G1 X85.338 Y79.594 E34.76341
G1 X84.348 Y79.508 E34.88266
G1 X74.154 Y77.931 E36.12049
G1 X73.401 Y77.774 E36.21279
G1 X72.406 Y77.435 E36.33893
G1 X71.743 Y77.155 E36.4253
G1 X71.051 Y76.819 E36.51761
G1 X70.398 Y76.414 E36.60982
G1 X69.79 Y75.942 E36.70218
G1 X69.353 Y75.534 E36.77392
G1 X68.996 Y75.172 E36.83493
G1 X68.485 Y74.597 E36.92724
G1 X68.037 Y73.972 E37.01952
G1 X67.656 Y73.304 E37.1118
G1 X67.52 Y73 E37.15177
G1 X67.438 Y73.128 E37.17001
G1 X66.957 Y73.728 E37.26229
G1 X66.249 Y74.422 E37.38126
G1 X62.296 Y77.812 E38.00616
G1 X61.687 Y78.282 E38.09847
G1 X61.033 Y78.686 E38.19072
G1 X60.34 Y79.02 E38.28304
G1 X59.616 Y79.28 E38.37535
G1 X58.869 Y79.463 E38.46764
G1 X58.107 Y79.568 E38.55994
G1 X57.338 Y79.594 E38.65228
G1 X56.348 Y79.508 E38.77152
G1 X46.154 Y77.931 E40.00935
G1 X45.401 Y77.774 E40.10166
G1 X44.406 Y77.435 E40.2278
G1 X43.743 Y77.155 E40.31416
G1 X43.051 Y76.819 E40.40647
G1 X42.398 Y76.414 E40.49868
G1 X41.79 Y75.942 E40.59104
G1 X41.353 Y75.534 E40.66279
G1 X40.996 Y75.172 E40.7238
G1 X40.485 Y74.597 E40.81611
G1 X40.037 Y73.972 E40.90839
G1 X39.656 Y73.304 E41.00067
G1 X39.373 Y72.67 E41.08398
G1 X39.253 Y72.363 E41.12354
G1 X39.01 Y71.633 E41.21586
G1 X38.845 Y70.882 E41.30813
G1 X38.759 Y70.118 E41.40039
G1 X38.745 Y69.683 E41.45262
G1 X38.732 Y62.737 E42.28614
G1 X38.281 Y62.436 E42.35121
G1 X38.014 Y62.239 E42.39102
G1 X37.419 Y61.75 E42.48344
G1 X36.879 Y61.203 E42.57568
G1 X36.398 Y60.603 E42.66796
G1 X36.181 Y60.283 E42.71436
G1 X35.908 Y59.858 E42.77497
G1 X35.526 Y59.191 E42.86721
G1 X35.216 Y58.487 E42.95952
G1 X34.926 Y57.532 E43.07928
G1 X34.79 Y56.946 E43.15147
G1 X34.655 Y56.189 E43.24375
G1 X34.598 Y55.278 E43.35328
G1 X34.594 Y49.81 E44.00944
G1 X34.633 Y49.042 E44.10172
G1 X34.752 Y48.282 E44.19403
G1 X34.95 Y47.539 E44.2863
G1 X35.223 Y46.82 E44.37859
G1 X35.569 Y46.133 E44.4709
G1 X35.985 Y45.486 E44.5632
G1 X36.466 Y44.886 E44.65548
G1 X36.761 Y44.572 E44.70718
G1 X38.761 Y42.572 E45.04659
G0 F3600 X39.044 Y42.855
G1 F1800 X39.601 Y42.355 E45.13641
G1 X40.207 Y41.918 E45.22607
G1 X40.857 Y41.547 E45.31588
G1 X41.543 Y41.248 E45.40568
G1 X42.257 Y41.024 E45.49548
G1 X42.99 Y40.877 E45.58519
G1 X43.994 Y40.805 E45.70598
G1 X57.432 Y40.805 E47.31854
G1 X58.179 Y40.845 E47.4083
G1 X58.917 Y40.964 E47.49801
G1 X59.639 Y41.162 E47.58785
G1 X60.335 Y41.435 E47.67756
G1 X60.998 Y41.782 E47.76736
G1 X61.621 Y42.197 E47.85719
G1 X62.195 Y42.676 E47.9469
G1 X62.716 Y43.213 E48.03669
G1 X63.175 Y43.803 E48.12639
G1 X63.57 Y44.439 E48.21623
G1 X63.883 Y45.088 E48.30269
G1 X64.214 Y45.874 E48.40504
G1 X64.383 Y45.62 E48.44165
G1 X65.044 Y44.855 E48.56297
G1 X67.044 Y42.855 E48.90238
G1 X67.601 Y42.355 E48.9922
G1 X68.207 Y41.918 E49.08185
G1 X68.857 Y41.547 E49.17167
G1 X69.543 Y41.248 E49.26147
G1 X70.257 Y41.024 E49.35126
G1 X70.99 Y40.877 E49.44097
G1 X71.994 Y40.805 E49.56176
G1 X85.432 Y40.805 E51.17432
G1 X86.179 Y40.845 E51.26409
G1 X86.917 Y40.964 E51.3538
G1 X87.639 Y41.162 E51.44364
G1 X88.335 Y41.435 E51.53335
G1 X88.998 Y41.782 E51.62315
G1 X89.621 Y42.197 E51.71298
G1 X90.195 Y42.676 E51.80269
G1 X90.716 Y43.213 E51.89247
G1 X91.175 Y43.803 E51.98218
G1 X91.57 Y44.439 E52.07202
G1 X91.883 Y45.088 E52.15848
G1 X95.883 Y54.587 E53.3953
G1 X96.136 Y55.291 E53.48507
G1 X96.313 Y56.018 E53.57486
G1 X96.411 Y56.76 E53.66467
G1 X96.432 Y57.304 E53.73
G1 X96.432 Y68.805 E55.11012
G1 X96.392 Y69.552 E55.19989
G1 X96.273 Y70.29 E55.28959
G1 X96.075 Y71.012 E55.37943
G1 X95.802 Y71.708 E55.46915
G1 X95.455 Y72.371 E55.55895
G1 X95.04 Y72.994 E55.64878
G1 X94.561 Y73.568 E55.73849
G1 X93.989 Y74.119 E55.83379
G1 X90.036 Y77.509 E56.4587
G1 X89.443 Y77.965 E56.54846
G1 X88.804 Y78.355 E56.6383
G1 X88.128 Y78.674 E56.728
G1 X87.422 Y78.92 E56.81771
G1 X86.693 Y79.089 E56.90751
G1 X85.95 Y79.179 E56.99732
G1 X85.202 Y79.19 E57.08709
G1 X84.409 Y79.113 E57.1827
G1 X74.215 Y77.536 E58.42053
G1 X73.483 Y77.382 E58.51029
G1 X72.562 Y77.067 E58.6271
G1 X71.899 Y76.787 E58.71346
G1 X71.226 Y76.459 E58.8033
G1 X70.592 Y76.062 E58.89307
G1 X70.004 Y75.599 E58.98288
G1 X69.638 Y75.253 E59.04332
G1 X69.281 Y74.891 E59.10433
G1 X68.785 Y74.331 E59.1941
G1 X68.351 Y73.722 E59.28384
G1 X67.985 Y73.069 E59.37366
G1 X67.745 Y72.524 E59.44513
G1 X67.625 Y72.217 E59.48468
G1 X67.59 Y72.112 E59.49796
G1 X67.455 Y72.371 E59.53301
G1 X67.04 Y72.994 E59.62284
G1 X66.561 Y73.568 E59.71255
G1 X65.989 Y74.119 E59.80786
G1 X62.036 Y77.509 E60.43276
G1 X61.443 Y77.965 E60.52253
G1 X60.804 Y78.355 E60.61236
G1 X60.128 Y78.674 E60.70206
G1 X59.422 Y78.92 E60.79177
G1 X58.693 Y79.089 E60.88157
G1 X57.95 Y79.179 E60.97139
G1 X57.202 Y79.19 E61.06116
G1 X56.409 Y79.113 E61.15676
G1 X46.215 Y77.536 E62.39459
G1 X45.483 Y77.382 E62.48436
G1 X44.562 Y77.067 E62.60116
G1 X43.899 Y76.787 E62.68753
G1 X43.226 Y76.459 E62.77737
G1 X42.592 Y76.062 E62.86713
G1 X42.004 Y75.599 E62.95694
G1 X41.638 Y75.253 E63.01738
G1 X41.281 Y74.891 E63.07839
G1 X40.785 Y74.331 E63.16816
G1 X40.351 Y73.722 E63.2579
G1 X39.985 Y73.069 E63.34773
G1 X39.745 Y72.524 E63.41919
G1 X39.625 Y72.217 E63.45874
G1 X39.391 Y71.507 E63.54845
G1 X39.233 Y70.776 E63.6382
G1 X39.145 Y69.682 E63.7699
G1 X39.131 Y62.51 E64.63054
G1 X38.988 Y62.432 E64.65009
G1 X38.518 Y62.114 E64.71819
G1 X38.251 Y61.917 E64.758
G1 X37.674 Y61.441 E64.84776
G1 X37.15 Y60.907 E64.93754
G1 X36.517 Y60.067 E65.06376
G1 X36.244 Y59.642 E65.12437
G1 X35.874 Y58.992 E65.21412
G1 X35.576 Y58.306 E65.30388
G1 X35.315 Y57.442 E65.41218
G1 X35.179 Y56.856 E65.48437
G1 X35.049 Y56.119 E65.57418
G1 X34.998 Y55.278 E65.67528
G1 X34.994 Y49.81 E66.33144
G1 X35.033 Y49.063 E66.4212
G1 X35.152 Y48.325 E66.51091
G1 X35.349 Y47.603 E66.60072
G1 X35.622 Y46.906 E66.69054
G1 X35.968 Y46.243 E66.78029
G1 X36.383 Y45.62 E66.87011
G1 X37.044 Y44.855 E66.99143
G1 X39.044 Y42.855 E67.33085
G0 F3600 X39.327 Y43.138
G1 F1800 X39.868 Y42.654 E67.41795
G1 X40.459 Y42.231 E67.50517
G1 X41.093 Y41.877 E67.5923
G1 X41.762 Y41.594 E67.67947
G1 X42.458 Y41.386 E67.76664
G1 X43.173 Y41.256 E67.85385
G1 X43.994 Y41.205 E67.95256
G1 X57.432 Y41.205 E69.56512
G1 X58.157 Y41.245 E69.65225
G1 X58.874 Y41.364 E69.73947
G1 X59.573 Y41.562 E69.82665
G1 X60.246 Y41.835 E69.9138
G1 X60.885 Y42.18 E70.00094
G1 X61.482 Y42.594 E70.08812
G1 X62.03 Y43.07 E70.17523
G1 X62.523 Y43.604 E70.26244
G1 X62.953 Y44.189 E70.34956
G1 X63.317 Y44.818 E70.43677
G1 X63.515 Y45.244 E70.49314
G1 X64.152 Y46.756 E70.69003
G1 X64.367 Y46.356 E70.74452
G1 X64.78 Y45.759 E70.83163
G1 X65.327 Y45.138 E70.93094
G1 X67.327 Y43.138 E71.27035
G1 X67.868 Y42.654 E71.35746
G1 X68.459 Y42.231 E71.44467
G1 X69.093 Y41.877 E71.53181
G1 X69.762 Y41.594 E71.61898
G1 X70.458 Y41.386 E71.70615
G1 X71.173 Y41.256 E71.79335
G1 X71.994 Y41.205 E71.89206
G1 X85.432 Y41.205 E73.50462
G1 X86.157 Y41.245 E73.59176
G1 X86.874 Y41.364 E73.67897
G1 X87.573 Y41.562 E73.76615
G1 X88.246 Y41.835 E73.85331
G1 X88.885 Y42.18 E73.94045
G1 X89.482 Y42.594 E74.02763
G1 X90.03 Y43.07 E74.11473
G1 X90.523 Y43.604 E74.20194
G1 X90.953 Y44.189 E74.28907
G1 X91.317 Y44.818 E74.37628
G1 X91.515 Y45.244 E74.43265
G1 X95.515 Y54.743 E75.66947
G1 X95.759 Y55.427 E75.75662
G1 X95.927 Y56.133 E75.8437
G1 X96.017 Y56.854 E75.93089
G1 X96.032 Y57.304 E75.98492
G1 X96.032 Y68.805 E77.36504
G1 X95.992 Y69.53 E77.45217
G1 X95.873 Y70.247 E77.53939
G1 X95.675 Y70.946 E77.62657
G1 X95.402 Y71.619 E77.71372
G1 X95.057 Y72.258 E77.80087
G1 X94.643 Y72.855 E77.88805
G1 X94.167 Y73.403 E77.97515
G1 X93.728 Y73.815 E78.0474
G1 X89.775 Y77.205 E78.6723
G1 X89.199 Y77.647 E78.75942
G1 X88.577 Y78.023 E78.84664
G1 X87.918 Y78.328 E78.93378
G1 X87.229 Y78.559 E79.02098
G1 X86.52 Y78.712 E79.10802
G1 X85.797 Y78.787 E79.19525
G1 X85.071 Y78.782 E79.28237
G1 X84.47 Y78.717 E79.35491
G1 X74.276 Y77.14 E80.59274
G1 X73.565 Y76.99 E80.67994
G1 X72.717 Y76.698 E80.78756
G1 X72.054 Y76.418 E80.87393
G1 X71.402 Y76.099 E80.96103
G1 X70.788 Y75.71 E81.04825
G1 X70.221 Y75.256 E81.13542
G1 X69.923 Y74.972 E81.18482
G1 X69.566 Y74.61 E81.24583
G1 X69.085 Y74.066 E81.33296
G1 X68.667 Y73.472 E81.42012
G1 X68.317 Y72.836 E81.50724
G1 X68.118 Y72.379 E81.56705
G1 X67.998 Y72.072 E81.60661
G1 X67.771 Y71.382 E81.69377
G1 X67.677 Y70.938 E81.74823
G1 X67.675 Y70.946 E81.74922
G1 X67.402 Y71.619 E81.83637
G1 X67.057 Y72.258 E81.92352
G1 X66.643 Y72.855 E82.0107
G1 X66.167 Y73.403 E82.0978
G1 X65.728 Y73.815 E82.17005
G1 X61.775 Y77.205 E82.79495
G1 X61.199 Y77.647 E82.88207
G1 X60.577 Y78.023 E82.96929
G1 X59.918 Y78.328 E83.05643
G1 X59.229 Y78.559 E83.14363
G1 X58.52 Y78.712 E83.23067
G1 X57.797 Y78.787 E83.3179
G1 X57.071 Y78.782 E83.40502
G1 X56.47 Y78.717 E83.47756
G1 X46.276 Y77.14 E84.71539
G1 X45.565 Y76.99 E84.80259
G1 X44.717 Y76.698 E84.91021
G1 X44.054 Y76.418 E84.99658
G1 X43.402 Y76.099 E85.08368
G1 X42.788 Y75.71 E85.1709
G1 X42.221 Y75.256 E85.25807
G1 X41.923 Y74.972 E85.30747
G1 X41.566 Y74.61 E85.36848
G1 X41.085 Y74.066 E85.45561
G1 X40.667 Y73.472 E85.54277
G1 X40.317 Y72.836 E85.62989
G1 X40.118 Y72.379 E85.6897
G1 X39.998 Y72.072 E85.72926
G1 X39.771 Y71.382 E85.81642
G1 X39.621 Y70.671 E85.90362
G1 X39.545 Y69.681 E86.02277
G1 X39.531 Y62.274 E86.91161
G1 X39.127 Y62.047 E86.96722
G1 X38.755 Y61.792 E87.02134
G1 X38.488 Y61.595 E87.06116
G1 X37.929 Y61.132 E87.14826
G1 X37.423 Y60.611 E87.23541
G1 X36.854 Y59.851 E87.34934
G1 X36.581 Y59.426 E87.40996
G1 X36.223 Y58.794 E87.49712
G1 X35.936 Y58.127 E87.58425
G1 X35.705 Y57.351 E87.68141
G1 X35.569 Y56.765 E87.7536
G1 X35.444 Y56.05 E87.8407
G1 X35.398 Y55.278 E87.93351
G1 X35.394 Y49.81 E88.58967
G1 X35.433 Y49.085 E88.67679
G1 X35.552 Y48.368 E88.76401
G1 X35.749 Y47.669 E88.85116
G1 X36.022 Y46.996 E88.93831
G1 X36.367 Y46.356 E89.02556
G1 X36.78 Y45.759 E89.11267
G1 X37.327 Y45.138 E89.21197
G1 X39.327 Y43.138 E89.55139
G0 F3600 X39.61 Y43.421
G1 F1800 X40.135 Y42.952 E89.63586
G1 X40.71 Y42.546 E89.72033
G1 X41.328 Y42.208 E89.80486
G1 X41.979 Y41.941 E89.88929
G1 X42.657 Y41.751 E89.97379
G1 X43.352 Y41.638 E90.05828
G1 X43.994 Y41.605 E90.13542
G1 X57.432 Y41.605 E91.74798
