;FLAVOR:UltiGCode
;TIME:3325
;MATERIAL:5668
;MATERIAL2:0
;NOZZLE_DIAMETER:0.4
;Generated with Cura_SteamEngine 3.4.1
M82 ;absolute extrusion mode

G92 E0
G10
;LAYER_COUNT:229
;LAYER:0
M107
G0 F3600 X20.931 Y53.8 Z0.3
;TYPE:SKIRT
G11
G1 F1800 X21.442 Y53.64 E0.06426
G1 X22.118 Y53.549 E0.14611
G1 X26.09 Y53.394 E0.62311
G1 X31.562 Y52.922 E1.28219
G1 X36.939 Y52.15 E1.93404
G1 X42.296 Y51.068 E2.58987
G1 X46.891 Y49.888 E3.15916
G1 X47.531 Y49.784 E3.23696
G1 X48.936 Y49.684 E3.40599
G1 X49.188 Y49.675 E3.43625
G1 X67.079 Y49.657 E5.58317
G1 X67.165 Y49.658 E5.59349
G1 X71.535 Y49.757 E6.11803
G1 X79.798 Y49.82 E7.10962
G1 X80.333 Y49.864 E7.17403
G1 X81.718 Y50.083 E7.3423
G1 X82.11 Y50.168 E7.39043
G1 X83.118 Y50.445 E7.51587
G1 X83.466 Y50.56 E7.55986
G1 X87.856 Y52.263 E8.12491
G1 X93.027 Y54.016 E8.78011
G1 X98.697 Y55.579 E9.48589
G1 X99.202 Y55.76 E9.55027
G1 X99.674 Y56.014 E9.61459
G1 X100.104 Y56.335 E9.67898
G1 X100.481 Y56.716 E9.7433
G1 X100.797 Y57.149 E9.80762
G1 X101.046 Y57.624 E9.87198
G1 X101.221 Y58.131 E9.93634
G1 X101.319 Y58.659 E10.00078
G1 X101.34 Y59.05 E10.04777
G1 X101.34 Y70.034 E11.36585
G1 X101.3 Y70.569 E11.43023
G1 X101.181 Y71.092 E11.4946
G1 X100.986 Y71.591 E11.55889
G1 X100.718 Y72.056 E11.62329
G1 X100.385 Y72.476 E11.68761
G1 X99.993 Y72.842 E11.75196
G1 X99.551 Y73.145 E11.81627
G1 X99.068 Y73.38 E11.88073
G1 X98.814 Y73.47 E11.91306
G1 X96.8 Y74.099 E12.16626
G1 X91.65 Y75.924 E12.82191
G1 X86.582 Y78.051 E13.48146
G1 X83.763 Y79.372 E13.85504
G1 X83.261 Y79.563 E13.9195
G1 X82.738 Y79.677 E13.98373
G1 X82.233 Y79.712 E14.04447
G1 X74.294 Y79.708 E14.99715
G1 X73.759 Y79.668 E15.06153
G1 X73.129 Y79.514 E15.13936
G1 X66.277 Y77.166 E16.00854
G1 X61.052 Y75.729 E16.65882
G1 X55.649 Y74.567 E17.322
G1 X53.049 Y74.126 E17.63846
G1 X47.613 Y73.433 E18.29606
G1 X42.182 Y73.051 E18.94939
G1 X36.722 Y72.976 E19.60465
G1 X30.407 Y73.27 E20.36327
G1 X30.24 Y73.274 E20.38332
G1 X22.259 Y73.273 E21.34104
G1 X21.724 Y73.233 E21.40541
G1 X21.201 Y73.114 E21.46978
G1 X20.701 Y72.919 E21.53418
G1 X20.237 Y72.651 E21.59848
G1 X19.817 Y72.318 E21.6628
G1 X19.451 Y71.926 E21.72716
G1 X19.147 Y71.483 E21.79163
G1 X18.913 Y71.001 E21.85592
G1 X18.753 Y70.489 E21.9203
G1 X18.67 Y69.959 E21.98467
G1 X18.659 Y69.673 E22.01902
G1 X18.659 Y57.146 E23.52226
G1 X18.699 Y56.611 E23.58663
G1 X18.818 Y56.088 E23.651
G1 X19.013 Y55.589 E23.71529
G1 X19.281 Y55.124 E23.77969
G1 X19.614 Y54.704 E23.84401
G1 X20.006 Y54.338 E23.90837
G1 X20.448 Y54.035 E23.97267
G1 X20.931 Y53.8 E24.03713
G0 F3600 X21.296 Y54.094
G1 F1800 X21.789 Y53.981 E24.09782
G1 X22.134 Y53.948 E24.13941
G1 X26.139 Y53.791 E24.62038
G1 X31.584 Y53.322 E25.2762
G1 X37.02 Y52.541 E25.93522
G1 X42.401 Y51.455 E26.59396
G1 X46.991 Y50.276 E27.16264
G1 X47.56 Y50.183 E27.23183
G1 X48.965 Y50.083 E27.40085
G1 X49.189 Y50.075 E27.42775
G1 X67.08 Y50.057 E29.57467
G1 X67.156 Y50.058 E29.58379
G1 X71.523 Y50.157 E30.10797
G1 X79.795 Y50.22 E31.10064
G1 X80.271 Y50.259 E31.15795
G1 X81.656 Y50.478 E31.32621
G1 X82.004 Y50.553 E31.36893
G1 X83.012 Y50.83 E31.49437
G1 X83.321 Y50.933 E31.53346
G1 X87.703 Y52.633 E32.09748
G1 X92.924 Y54.403 E32.75903
G1 X98.591 Y55.965 E33.46443
G1 X99.066 Y56.138 E33.52509
G1 X99.508 Y56.383 E33.58573
G1 X99.906 Y56.694 E33.64635
G1 X100.25 Y57.065 E33.70706
G1 X100.531 Y57.485 E33.7677
G1 X100.743 Y57.944 E33.82837
G1 X100.88 Y58.431 E33.88908
G1 X100.94 Y59.05 E33.96371
G1 X100.94 Y70.034 E35.28179
G1 X100.9 Y70.538 E35.34246
G1 X100.781 Y71.029 E35.40308
G1 X100.587 Y71.496 E35.46377
G1 X100.321 Y71.926 E35.52444
G1 X99.991 Y72.309 E35.58511
G1 X99.604 Y72.635 E35.64583
G1 X99.171 Y72.896 E35.7065
G1 X98.695 Y73.088 E35.76809
G1 X96.682 Y73.717 E36.02117
G1 X91.499 Y75.554 E36.68104
G1 X86.426 Y77.682 E37.34119
G1 X83.593 Y79.01 E37.71664
G1 X83.12 Y79.187 E37.77725
G1 X82.624 Y79.288 E37.83799
G1 X82.233 Y79.312 E37.885
G1 X74.294 Y79.308 E38.83768
G1 X73.79 Y79.268 E38.89835
G1 X73.258 Y79.135 E38.96415
G1 X66.411 Y76.788 E39.83272
G1 X61.12 Y75.334 E40.49118
G1 X55.752 Y74.18 E41.15006
G1 X53.093 Y73.728 E41.47372
G1 X47.658 Y73.035 E42.1312
G1 X42.198 Y72.651 E42.78801
G1 X36.725 Y72.576 E43.44484
G1 X30.389 Y72.871 E44.20598
G1 X30.24 Y72.874 E44.22386
G1 X22.259 Y72.873 E45.18158
G1 X21.755 Y72.833 E45.24225
G1 X21.263 Y72.714 E45.303
G1 X20.797 Y72.519 E45.36361
G1 X20.367 Y72.254 E45.42423
G1 X19.984 Y71.923 E45.48497
G1 X19.658 Y71.537 E45.5456
G1 X19.397 Y71.104 E45.60627
G1 X19.207 Y70.635 E45.66699
G1 X19.094 Y70.143 E45.72757
G1 X19.059 Y69.673 E45.78413
G1 X19.059 Y57.146 E47.28737
G1 X19.099 Y56.642 E47.34804
G1 X19.218 Y56.151 E47.40866
G1 X19.412 Y55.684 E47.46935
G1 X19.678 Y55.254 E47.53002
G1 X20.008 Y54.871 E47.59069
G1 X20.395 Y54.545 E47.65141
G1 X20.828 Y54.284 E47.71208
G1 X21.296 Y54.094 E47.77269
G10
G0 F3600 X22.863 Y56.472
G0 X22.864 Y57.751
G0 X27.999 Y62.953
G0 X28.3 Y63.569
G0 X28.389 Y64.248
G0 X28.284 Y64.795
G0 X27.967 Y65.561
G0 X27.89 Y65.499
;TYPE:WALL-INNER
G11
G1 F1800 X28.079 Y65.217 E47.81343
G1 X28.222 Y64.911 E47.85396
G1 X28.313 Y64.583 E47.89481
G1 X28.35 Y64.247 E47.93537
G1 X28.333 Y63.911 E47.97574
G1 X28.262 Y63.58 E48.01636
G1 X28.139 Y63.264 E48.05706
G1 X27.967 Y62.975 E48.09741
G1 X27.754 Y62.715 E48.13775
G1 X27.497 Y62.492 E48.17858
G1 X27.21 Y62.315 E48.21904
G1 X26.898 Y62.184 E48.25965
G1 X26.568 Y62.106 E48.30034
G1 X26.231 Y62.082 E48.34088
G1 X25.894 Y62.111 E48.38147
G1 X25.566 Y62.196 E48.42213
G1 X25.256 Y62.332 E48.46275
G1 X24.973 Y62.515 E48.50319
G1 X24.721 Y62.742 E48.54389
G1 X24.511 Y63.006 E48.58437
G1 X24.344 Y63.299 E48.62484
G1 X24.226 Y63.617 E48.66555
G1 X24.162 Y63.95 E48.70624
G1 X24.152 Y64.287 E48.7467
G1 X24.195 Y64.621 E48.78711
G1 X24.292 Y64.946 E48.82781
G1 X24.44 Y65.25 E48.86838
G1 X24.634 Y65.526 E48.90886
G1 X24.872 Y65.769 E48.94968
G1 X25.143 Y65.969 E48.9901
G1 X25.445 Y66.123 E49.03078
G1 X25.765 Y66.226 E49.07112
G1 X26.099 Y66.278 E49.11168
G1 X26.438 Y66.276 E49.15236
G1 X26.771 Y66.218 E49.19292
G1 X27.09 Y66.109 E49.23338
G1 X27.39 Y65.949 E49.27418
G1 X27.657 Y65.743 E49.31464
G1 X27.89 Y65.499 E49.35513
G0 F3600 X27.967 Y65.561
G0 X31.938 Y61.634
G0 X32.781 Y61.021
G0 X33.709 Y60.548
G0 X34.7 Y60.226
G0 X35.729 Y60.063
G0 X60.856 Y60.065
G0 X62.063 Y60.235
G0 X63.233 Y60.575
G0 X64.345 Y61.076
G0 X65.376 Y61.729
G0 X66.304 Y62.52
G0 X69.346 Y65.99
G0 X69.932 Y66.35
G0 X70.6 Y66.507
G0 X71.283 Y66.446
G0 X71.912 Y66.171
G0 X72.423 Y65.708
G0 X72.759 Y65.111
G0 X72.826 Y64.792
G0 X72.87 Y64.792
G0 X72.911 Y64.792
G0 X72.813 Y64.773
G1 F1800 X72.814 Y64.756 E49.35717
G1 X72.85 Y64.436 E49.39581
G1 X72.841 Y64.252 E49.41792
G1 X72.833 Y64.098 E49.43643
G1 X72.761 Y63.767 E49.47707
G1 X72.638 Y63.453 E49.51754
G1 X72.629 Y63.437 E49.51975
G1 X72.618 Y63.418 E49.52238
G1 X72.466 Y63.162 E49.55811
G1 X72.25 Y62.903 E49.59858
G1 X71.995 Y62.681 E49.63915
G1 X71.708 Y62.504 E49.67961
G1 X71.394 Y62.373 E49.72044
G1 X71.067 Y62.297 E49.76072
G1 X70.729 Y62.272 E49.8014
G1 X70.391 Y62.304 E49.84214
G1 X70.066 Y62.386 E49.88236
G1 X69.755 Y62.523 E49.92314
G1 X69.47 Y62.707 E49.96385
G1 X69.219 Y62.934 E50.00446
G1 X69.009 Y63.197 E50.04485
G1 X68.843 Y63.493 E50.08557
G1 X68.726 Y63.809 E50.12601
G1 X68.662 Y64.142 E50.1667
G1 X68.652 Y64.479 E50.20715
G1 X68.696 Y64.814 E50.2477
G1 X68.793 Y65.138 E50.28828
G1 X68.942 Y65.443 E50.32902
G1 X69.136 Y65.717 E50.36931
G1 X69.372 Y65.96 E50.40995
G1 X69.647 Y66.161 E50.45083
G1 X69.947 Y66.314 E50.49124
G1 X70.268 Y66.418 E50.53173
G1 X70.602 Y66.468 E50.57226
G1 X70.94 Y66.466 E50.61282
G1 X71.274 Y66.408 E50.6535
G1 X71.594 Y66.298 E50.69411
G1 X71.891 Y66.138 E50.73459
G1 X72.161 Y65.931 E50.77541
G1 X72.392 Y65.684 E50.816
G1 X72.553 Y65.445 E50.85058
G1 X72.581 Y65.404 E50.85653
G1 X72.693 Y65.16 E50.88875
G1 X72.722 Y65.098 E50.89697
G1 X72.813 Y64.773 E50.93747
G0 F3600 X72.911 Y64.792
G0 X78.74 Y70.161
G0 X78.74 Y70.261
G1 F1800 X78.516 Y70.282 E50.96446
G1 X78.401 Y70.293 E50.97833
G1 X78.076 Y70.377 E51.01861
G1 X77.766 Y70.511 E51.05913
G1 X77.693 Y70.558 E51.06955
G1 X77.482 Y70.696 E51.09981
G1 X77.231 Y70.922 E51.14034
G1 X77.019 Y71.187 E51.18106
G1 X76.854 Y71.482 E51.22162
G1 X76.737 Y71.798 E51.26206
G1 X76.673 Y72.131 E51.30275
G1 X76.663 Y72.468 E51.34321
G1 X76.707 Y72.803 E51.38375
G1 X76.804 Y73.127 E51.42434
G1 X76.953 Y73.432 E51.46507
G1 X77.147 Y73.706 E51.50536
G1 X77.383 Y73.949 E51.54601
G1 X77.658 Y74.15 E51.58688
G1 X77.958 Y74.303 E51.62729
G1 X78.279 Y74.407 E51.66779
G1 X78.613 Y74.457 E51.70831
G1 X78.951 Y74.455 E51.74887
G1 X79.285 Y74.397 E51.78955
G1 X79.605 Y74.287 E51.83016
G1 X79.902 Y74.127 E51.87064
G1 X80.172 Y73.92 E51.91147
G1 X80.403 Y73.673 E51.95205
G1 X80.592 Y73.392 E51.99269
G1 X80.731 Y73.087 E52.03291
G1 X80.824 Y72.762 E52.07347
G1 X80.861 Y72.426 E52.11404
G1 X80.844 Y72.088 E52.15465
G1 X80.772 Y71.756 E52.19542
G1 X80.649 Y71.442 E52.23588
G1 X80.477 Y71.151 E52.27645
G1 X80.261 Y70.892 E52.31692
G1 X80.006 Y70.67 E52.35749
G1 X79.817 Y70.553 E52.38416
G1 X79.717 Y70.492 E52.39822
G1 X79.453 Y70.383 E52.43249
G1 X79.404 Y70.363 E52.43884
G1 X79.077 Y70.287 E52.47913
G1 X79.02 Y70.283 E52.48599
G1 X78.74 Y70.261 E52.51969
G0 F3600 X78.74 Y70.161
G0 X78.681 Y70.236
G0 X78.395 Y70.254
G0 X77.748 Y70.476
G0 X77.202 Y70.895
G0 X76.985 Y71.217
G0 X74.804 Y75.335
G0 X74.709 Y75.365
G1 F1800 X74.555 Y74.955 E52.57225
G1 X74.363 Y74.564 E52.62452
G1 X74.136 Y74.194 E52.67661
G1 X73.875 Y73.845 E52.7289
G1 X73.583 Y73.523 E52.78107
G1 X73.261 Y73.231 E52.83323
G1 X72.931 Y72.982 E52.88284
G1 X72.426 Y72.619 E52.95747
G1 X71.977 Y72.253 E53.02698
G1 X71.511 Y71.828 E53.10266
G1 X71.112 Y71.419 E53.17123
G1 X70.711 Y70.961 E53.24428
G1 X70.348 Y70.492 E53.31545
G1 X70.009 Y69.997 E53.38744
G1 X69.7 Y69.484 E53.45931
G1 X69.425 Y68.965 E53.52979
G1 X69.167 Y68.402 E53.60411
G1 X68.951 Y67.846 E53.67568
G1 X68.766 Y67.277 E53.74748
G1 X68.464 Y66.143 E53.8883
G1 X68.265 Y65.568 E53.96132
G1 X68.025 Y65.011 E54.0341
G1 X67.747 Y64.471 E54.10698
G1 X67.43 Y63.952 E54.17996
G1 X67.079 Y63.457 E54.25278
G1 X66.693 Y62.989 E54.32558
G1 X66.276 Y62.548 E54.39841
G1 X65.828 Y62.138 E54.47128
G1 X65.353 Y61.761 E54.54406
G1 X64.851 Y61.418 E54.61701
G1 X64.327 Y61.111 E54.68989
G1 X63.783 Y60.843 E54.76266
G1 X63.22 Y60.612 E54.83569
G1 X62.645 Y60.424 E54.90828
G1 X62.055 Y60.274 E54.98134
G1 X61.458 Y60.168 E55.0541
G1 X60.854 Y60.104 E55.12698
G1 X60.259 Y60.083 E55.19843
G1 X36.239 Y60.083 E58.08083
G1 X35.732 Y60.102 E58.14171
G1 X35.217 Y60.164 E58.20396
G1 X34.709 Y60.264 E58.26609
G1 X34.21 Y60.405 E58.32831
G1 X33.724 Y60.584 E58.39046
G1 X33.253 Y60.802 E58.45274
G1 X32.801 Y61.055 E58.5149
G1 X32.37 Y61.343 E58.5771
G1 X31.963 Y61.664 E58.63931
G1 X31.582 Y62.016 E58.70155
G1 X31.232 Y62.396 E58.76355
G1 X30.91 Y62.802 E58.82573
G1 X30.622 Y63.234 E58.88803
G1 X30.369 Y63.687 E58.9503
G1 X30.152 Y64.157 E59.01242
G1 X29.973 Y64.643 E59.07457
G1 X29.832 Y65.141 E59.13668
G1 X29.731 Y65.65 E59.19895
G1 X29.67 Y66.165 E59.26118
G1 X29.65 Y66.671 E59.32195
G1 X29.65 Y69.083 E59.61139
G1 X22.85 Y69.083 E60.42739
G1 X22.85 Y57.737 E61.78891
G1 X38.544 Y57.736 E63.67219
G1 X38.994 Y57.724 E63.72621
G1 X39.454 Y57.682 E63.78164
G1 X39.913 Y57.614 E63.83732
G1 X40.367 Y57.516 E63.89305
G1 X40.816 Y57.393 E63.94892
G1 X41.262 Y57.245 E64.00531
G1 X41.704 Y57.068 E64.06244
G1 X42.129 Y56.868 E64.11881
G1 X47.944 Y53.961 E64.89894
G1 X48.558 Y53.956 E64.97263
G1 X48.887 Y53.932 E65.01221
G1 X49.213 Y53.893 E65.05161
G1 X49.468 Y53.848 E65.08268
G1 X67.032 Y53.847 E67.19036
G1 X67.281 Y53.891 E67.22071
G1 X67.605 Y53.931 E67.25988
G1 X67.929 Y53.955 E67.29887
G1 X68.374 Y53.962 E67.35227
G1 X78.109 Y53.962 E68.52047
G1 X78.38 Y53.962 E68.55299
G1 X78.517 Y53.962 E68.56943
G1 X78.723 Y53.965 E68.59416
G1 X79.063 Y53.972 E68.63497
G1 X79.32 Y53.978 E68.66581
G1 X79.413 Y53.985 E68.67701
G1 X79.479 Y53.99 E68.68495
G1 X79.91 Y54.026 E68.73685
G1 X80.511 Y54.112 E68.8097
G1 X81.088 Y54.228 E68.88033
G1 X81.66 Y54.377 E68.95126
G1 X82.227 Y54.561 E69.02279
G1 X82.793 Y54.78 E69.09562
G1 X83.33 Y55.025 E69.16645
G1 X83.865 Y55.308 E69.23908
G1 X84.402 Y55.633 E69.3144
G1 X84.875 Y55.957 E69.3832
G1 X85.998 Y56.827 E69.55367
G1 X86.62 Y57.258 E69.64448
G1 X87.257 Y57.653 E69.73442
G1 X87.937 Y58.025 E69.82743
G1 X88.633 Y58.36 E69.92012
G1 X89.329 Y58.65 E70.0106
G1 X90.039 Y58.906 E70.10117
G1 X90.783 Y59.129 E70.19438
G1 X91.528 Y59.311 E70.28641
G1 X92.282 Y59.454 E70.3785
G1 X93.044 Y59.555 E70.47074
G1 X93.808 Y59.619 E70.56274
G1 X94.568 Y59.639 E70.65397
G1 X97.15 Y59.641 E70.96381
G1 X97.15 Y69.442 E72.13993
G1 X94.16 Y69.442 E72.49873
G1 X93.423 Y69.46 E72.5872
G1 X92.678 Y69.518 E72.67687
G1 X91.937 Y69.613 E72.76652
G1 X91.203 Y69.746 E72.85603
G1 X90.477 Y69.916 E72.94551
G1 X89.76 Y70.123 E73.03506
G1 X89.054 Y70.367 E73.1247
G1 X88.362 Y70.645 E73.21419
G1 X87.685 Y70.961 E73.30384
G1 X87.025 Y71.309 E73.39338
G1 X86.384 Y71.69 E73.48286
G1 X85.762 Y72.105 E73.57259
G1 X84.838 Y72.794 E73.7109
G1 X84.487 Y73.036 E73.76206
G1 X83.729 Y73.524 E73.87024
G1 X83.35 Y73.812 E73.92736
G1 X82.995 Y74.126 E73.98423
G1 X82.662 Y74.465 E74.04126
G1 X82.355 Y74.826 E74.09812
G1 X82.074 Y75.209 E74.15513
G1 X81.875 Y75.526 E74.20004
G1 X74.751 Y75.527 E75.05492
G1 X74.709 Y75.365 E75.07501
G0 F3600 X74.804 Y75.335
G0 X76.986 Y71.165
G0 X77.458 Y70.665
G0 X78.064 Y70.34
G0 X78.395 Y70.254
G0 X78.74 Y70.221
G0 X79.083 Y70.248
G0 X79.114 Y70.257
G0 X80.033 Y70.162
G0 X81.008 Y69.855
G0 X81.916 Y69.387
G0 X82.729 Y68.771
G0 X83.427 Y68.023
G0 X83.984 Y67.169
G0 X84.387 Y66.23
G0 X84.625 Y65.236
G0 X84.678 Y64.728
G0 X84.687 Y64.218
G0 X84.663 Y63.951
G0 X84.63 Y63.761
G0 X84.726 Y63.787
G1 F1800 X84.662 Y64.12 E75.1157
G1 X84.66 Y64.218 E75.12746
G1 X84.652 Y64.457 E75.15615
G1 X84.686 Y64.72 E75.18798
G1 X84.696 Y64.793 E75.19682
G1 X84.793 Y65.117 E75.2374
G1 X84.942 Y65.421 E75.27803
G1 X84.951 Y65.434 E75.27993
G1 X85.136 Y65.695 E75.31832
G1 X85.372 Y65.938 E75.35897
G1 X85.647 Y66.139 E75.39984
G1 X85.946 Y66.291 E75.44009
G1 X86.267 Y66.397 E75.48066
G1 X86.603 Y66.447 E75.52142
G1 X86.941 Y66.444 E75.56198
G1 X87.274 Y66.386 E75.60254
G1 X87.594 Y66.276 E75.64315
G1 X87.891 Y66.116 E75.68363
G1 X88.161 Y65.909 E75.72446
G1 X88.392 Y65.662 E75.76504
G1 X88.581 Y65.382 E75.80558
G1 X88.721 Y65.076 E75.84596
G1 X88.813 Y64.752 E75.88638
G1 X88.85 Y64.415 E75.92706
G1 X88.833 Y64.077 E75.96767
G1 X88.761 Y63.745 E76.00844
G1 X88.638 Y63.431 E76.04891
G1 X88.466 Y63.14 E76.08947
G1 X88.25 Y62.881 E76.12994
G1 X87.995 Y62.659 E76.17051
G1 X87.706 Y62.481 E76.21124
G1 X87.394 Y62.352 E76.25176
G1 X87.068 Y62.276 E76.29192
G1 X86.729 Y62.25 E76.33272
G1 X86.39 Y62.282 E76.37358
G1 X86.065 Y62.366 E76.41387
G1 X85.755 Y62.5 E76.45439
G1 X85.47 Y62.685 E76.49517
G1 X85.219 Y62.912 E76.53578
G1 X85.009 Y63.175 E76.57616
G1 X84.884 Y63.397 E76.60674
G1 X84.881 Y63.403 E76.60754
G1 X84.843 Y63.471 E76.61689
G1 X84.737 Y63.759 E76.65372
G1 X84.726 Y63.787 E76.65733
G0 F3600 X84.63 Y63.761
G0 X84.453 Y62.706
G0 X84.097 Y61.777
G0 X83.592 Y60.924
G0 X82.91 Y60.123
G0 X82.098 Y59.456
G0 X81.226 Y58.964
G0 X80.252 Y58.616
G0 X79.289 Y58.424
G0 X79.258 Y58.393
G0 X79.241 Y58.483
G1 F1800 X78.928 Y58.471 E76.69491
G1 X78.733 Y58.463 E76.71833
G1 X78.592 Y58.469 E76.73527
G1 X78.26 Y58.484 E76.77515
G1 X78.225 Y58.486 E76.77936
G1 X77.966 Y58.52 E76.8107
G1 X77.723 Y58.553 E76.84013
G1 X77.614 Y58.577 E76.85352
G1 X77.228 Y58.662 E76.90095
G1 X76.743 Y58.815 E76.96198
G1 X76.274 Y59.008 E77.02284
G1 X75.824 Y59.239 E77.08354
G1 X75.392 Y59.511 E77.1448
G1 X74.987 Y59.818 E77.20578
G1 X74.612 Y60.158 E77.26653
G1 X74.266 Y60.529 E77.3274
G1 X73.952 Y60.929 E77.38842
G1 X73.676 Y61.354 E77.44924
G1 X73.435 Y61.8 E77.51007
G1 X73.235 Y62.268 E77.57114
G1 X73.075 Y62.748 E77.63186
G1 X72.962 Y63.22 E77.6901
G1 X72.957 Y63.242 E77.69275
G1 X72.92 Y63.494 E77.71822
G1 X72.883 Y63.745 E77.73178
G1 X72.882 Y63.774
G1 X72.861 Y64.099 E77.73872
