;FLAVOR:UltiGCode
;TIME:3308
;MATERIAL:5668
;MATERIAL2:0
;NOZZLE_DIAMETER:0.4
;Generated with Cura_SteamEngine 3.4.1
M82 ;absolute extrusion mode

G92 E0
G10
;LAYER_COUNT:229
;LAYER:0
M107
G0 F3600 X20.932 Y55.703 Z0.3
;TYPE:SKIRT
G11
G1 F1800 X21.326 Y55.572 E0.04982
G1 X25.633 Y54.415 E0.58499
G1 X30.814 Y52.746 E1.23817
G1 X36.321 Y50.631 E1.94607
G1 X36.607 Y50.535 E1.98227
G1 X37.76 Y50.2 E2.12636
G1 X38.104 Y50.118 E2.16879
G1 X39.059 Y49.94 E2.28537
G1 X39.473 Y49.887 E2.33545
G1 X41.094 Y49.776 E2.53043
G1 X41.334 Y49.768 E2.55924
G1 X48.474 Y49.757 E3.41604
G1 X52.637 Y49.664 E3.91573
G1 X52.724 Y49.663 E3.92617
G1 X71.152 Y49.698 E6.13753
G1 X71.397 Y49.707 E6.16695
G1 X72.451 Y49.781 E6.29374
G1 X73.131 Y49.895 E6.37648
G1 X75.736 Y50.594 E6.70014
G1 X81.138 Y51.804 E7.36444
G1 X83.751 Y52.27 E7.68295
G1 X89.173 Y53.009 E8.33961
G1 X94.655 Y53.44 E8.99948
G1 X97.876 Y53.561 E9.38627
G1 X98.409 Y53.62 E9.45062
G1 X98.927 Y53.759 E9.51498
G1 X99.419 Y53.973 E9.57936
G1 X99.873 Y54.257 E9.64362
G1 X100.28 Y54.606 E9.70796
G1 X100.631 Y55.012 E9.77236
G1 X100.918 Y55.465 E9.83672
G1 X101.134 Y55.956 E9.90109
G1 X101.275 Y56.473 E9.96539
G1 X101.341 Y57.158 E10.04797
G1 X101.341 Y69.674 E11.54989
G1 X101.301 Y70.209 E11.61427
G1 X101.182 Y70.732 E11.67863
G1 X100.987 Y71.231 E11.74292
G1 X100.719 Y71.696 E11.80733
G1 X100.386 Y72.116 E11.87165
G1 X99.994 Y72.482 E11.936
G1 X99.552 Y72.785 E12.00031
G1 X99.069 Y73.02 E12.06477
G1 X98.558 Y73.18 E12.12902
G1 X98.028 Y73.263 E12.1934
G1 X97.745 Y73.274 E12.22738
G1 X90.461 Y73.283 E13.10146
G1 X90.302 Y73.28 E13.12055
G1 X83.238 Y72.975 E13.96902
G1 X77.78 Y73.052 E14.62404
G1 X72.348 Y73.436 E15.27751
G1 X66.946 Y74.126 E15.93102
G1 X61.556 Y75.127 E16.58888
G1 X58.953 Y75.725 E16.90937
G1 X53.67 Y77.178 E17.56687
G1 X46.904 Y79.517 E18.42594
G1 X46.386 Y79.654 E18.49024
G1 X45.728 Y79.715 E18.56953
G1 X37.784 Y79.716 E19.52281
G1 X37.25 Y79.676 E19.58707
G1 X36.727 Y79.557 E19.65144
G1 X36.28 Y79.387 E19.70883
G1 X31.97 Y77.405 E20.27809
G1 X29.522 Y76.382 E20.59647
G1 X24.323 Y74.469 E21.26124
G1 X21.165 Y73.462 E21.659
G1 X20.668 Y73.261 E21.72334
G1 X20.206 Y72.989 E21.78767
G1 X19.789 Y72.651 E21.85209
G1 X19.428 Y72.255 E21.91639
G1 X19.129 Y71.81 E21.98072
G1 X18.899 Y71.325 E22.04514
G1 X18.744 Y70.812 E22.10944
G1 X18.659 Y70.032 E22.2036
G1 X18.66 Y59.049 E23.52156
G1 X18.7 Y58.514 E23.58594
G1 X18.819 Y57.991 E23.6503
G1 X19.014 Y57.492 E23.71459
G1 X19.282 Y57.027 E23.779
G1 X19.615 Y56.607 E23.84331
G1 X20.007 Y56.241 E23.90767
G1 X20.45 Y55.937 E23.97214
G1 X20.932 Y55.703 E24.03644
G0 F3600 X20.829 Y56.187
G1 F1800 X21.43 Y55.959 E24.11358
G1 X25.721 Y54.806 E24.64676
G1 X30.964 Y53.117 E25.30776
G1 X36.464 Y51.005 E26.01475
G1 X36.718 Y50.919 E26.04693
G1 X37.871 Y50.584 E26.19101
G1 X38.178 Y50.511 E26.22888
G1 X39.133 Y50.333 E26.34545
G1 X39.5 Y50.286 E26.38985
G1 X41.121 Y50.175 E26.58483
G1 X41.335 Y50.168 E26.61052
G1 X48.483 Y50.157 E27.46828
G1 X52.646 Y50.064 E27.96796
G1 X52.723 Y50.063 E27.97721
G1 X71.151 Y50.098 E30.18857
G1 X71.369 Y50.106 E30.21475
G1 X72.423 Y50.18 E30.34154
G1 X73.028 Y50.281 E30.41514
G1 X75.643 Y50.982 E30.74002
G1 X81.072 Y52.199 E31.40767
G1 X83.677 Y52.664 E31.72521
G1 X89.141 Y53.408 E32.38694
G1 X94.607 Y53.838 E33.04489
G1 X97.861 Y53.96 E33.43564
G1 X98.363 Y54.019 E33.4963
G1 X98.85 Y54.156 E33.55701
G1 X99.308 Y54.368 E33.61757
G1 X99.728 Y54.65 E33.67828
G1 X100.099 Y54.994 E33.73899
G1 X100.41 Y55.393 E33.79969
G1 X100.655 Y55.835 E33.86034
G1 X100.827 Y56.31 E33.92096
G1 X100.922 Y56.807 E33.98168
G1 X100.941 Y57.158 E34.02386
G1 X100.941 Y69.674 E35.52578
G1 X100.901 Y70.178 E35.58645
G1 X100.782 Y70.669 E35.64708
G1 X100.588 Y71.136 E35.70776
G1 X100.322 Y71.566 E35.76844
G1 X99.992 Y71.949 E35.8291
G1 X99.605 Y72.275 E35.88982
G1 X99.172 Y72.536 E35.95049
G1 X98.704 Y72.726 E36.0111
G1 X98.211 Y72.839 E36.0718
G1 X97.745 Y72.874 E36.12788
G1 X90.461 Y72.883 E37.00196
G1 X90.319 Y72.88 E37.019
G1 X83.249 Y72.575 E37.86819
G1 X77.764 Y72.652 E38.52645
G1 X72.306 Y73.038 E39.18305
G1 X66.874 Y73.732 E39.84019
G1 X61.508 Y74.728 E40.49511
G1 X58.832 Y75.343 E40.8246
G1 X53.555 Y76.795 E41.48137
G1 X46.773 Y79.139 E42.34245
G1 X46.284 Y79.266 E42.40308
G1 X45.728 Y79.315 E42.47006
G1 X37.784 Y79.316 E43.42334
G1 X37.28 Y79.276 E43.48401
G1 X36.789 Y79.157 E43.54463
G1 X36.447 Y79.023 E43.58871
G1 X32.147 Y77.045 E44.15668
G1 X29.654 Y76.003 E44.48092
G1 X24.463 Y74.094 E45.14463
G1 X21.287 Y73.081 E45.54467
G1 X20.819 Y72.89 E45.60533
G1 X20.387 Y72.627 E45.66602
G1 X20.001 Y72.3 E45.72672
G1 X19.672 Y71.916 E45.7874
G1 X19.408 Y71.485 E45.84805
G1 X19.215 Y71.018 E45.90869
G1 X19.097 Y70.526 E45.96941
G1 X19.059 Y70.032 E46.02886
G1 X19.06 Y59.049 E47.34682
G1 X19.1 Y58.545 E47.40749
G1 X19.219 Y58.053 E47.46823
G1 X19.414 Y57.587 E47.52885
G1 X19.679 Y57.157 E47.58946
G1 X20.01 Y56.774 E47.65021
G1 X20.396 Y56.448 E47.71084
G1 X20.829 Y56.187 E47.77151
G10
G0 F3600 X22.863 Y58.376
G0 X22.864 Y59.655
G0 X25.244 Y62.584
G0 X25.289 Y62.672
;TYPE:WALL-INNER
G11
G1 F1800 X25.002 Y62.853 E47.81222
G1 X24.747 Y63.074 E47.85272
G1 X24.533 Y63.334 E47.89313
G1 X24.361 Y63.623 E47.93348
G1 X24.238 Y63.937 E47.97395
G1 X24.167 Y64.27 E48.01481
G1 X24.15 Y64.606 E48.05518
G1 X24.187 Y64.942 E48.09575
G1 X24.278 Y65.27 E48.13659
G1 X24.421 Y65.577 E48.17723
G1 X24.612 Y65.857 E48.21791
G1 X24.843 Y66.101 E48.25823
G1 X25.11 Y66.306 E48.29862
G1 X25.409 Y66.468 E48.33943
G1 X25.729 Y66.577 E48.37999
G1 X26.062 Y66.635 E48.42056
G1 X26.401 Y66.637 E48.46124
G1 X26.735 Y66.585 E48.5018
G1 X27.056 Y66.482 E48.54225
G1 X27.358 Y66.326 E48.58304
G1 X27.628 Y66.127 E48.62329
G1 X27.865 Y65.885 E48.66394
G1 X28.059 Y65.609 E48.70442
G1 X28.208 Y65.305 E48.74505
G1 X28.305 Y64.98 E48.78575
G1 X28.348 Y64.646 E48.82616
G1 X28.338 Y64.309 E48.86662
G1 X28.274 Y63.975 E48.90743
G1 X28.156 Y63.657 E48.94813
G1 X27.989 Y63.365 E48.9885
G1 X27.779 Y63.101 E49.02898
G1 X27.527 Y62.875 E49.0696
G1 X27.243 Y62.69 E49.11027
G1 X26.932 Y62.555 E49.15095
G1 X26.606 Y62.47 E49.19138
G1 X26.269 Y62.441 E49.23197
G1 X25.932 Y62.465 E49.27251
G1 X25.603 Y62.543 E49.31309
G1 X25.289 Y62.672 E49.35382
G0 F3600 X25.244 Y62.584
G0 X26.269 Y62.401
G0 X26.945 Y62.518
G0 X31.148 Y64.759
G0 X31.385 Y65.401
G0 X31.813 Y65.938
G0 X32.39 Y66.312
G0 X33.056 Y66.483
G0 X33.742 Y66.435
G0 X34.373 Y66.173
G0 X34.794 Y65.807
G0 X35.3 Y65.153
G0 X35.207 Y65.117
G1 F1800 X35.304 Y64.793 E49.39441
G1 X35.313 Y64.72 E49.40323
G1 X35.348 Y64.457 E49.43507
G1 X35.341 Y64.219 E49.46364
G1 X35.338 Y64.12 E49.47553
G1 X35.274 Y63.787 E49.51622
G1 X35.264 Y63.759 E49.51979
G1 X35.157 Y63.471 E49.55666
G1 X35.12 Y63.404 E49.56584
G1 X35.117 Y63.398 E49.56665
G1 X34.991 Y63.175 E49.59738
G1 X34.781 Y62.912 E49.63777
G1 X34.53 Y62.685 E49.67838
G1 X34.245 Y62.5 E49.71915
G1 X33.935 Y62.366 E49.75968
G1 X33.61 Y62.282 E49.79996
G1 X33.271 Y62.25 E49.84082
G1 X32.932 Y62.276 E49.88162
G1 X32.606 Y62.352 E49.92179
G1 X32.294 Y62.481 E49.96231
G1 X32.005 Y62.659 E50.00304
G1 X31.75 Y62.881 E50.04361
G1 X31.534 Y63.14 E50.08408
G1 X31.362 Y63.431 E50.12464
G1 X31.239 Y63.745 E50.16511
G1 X31.167 Y64.077 E50.20587
G1 X31.15 Y64.415 E50.24649
G1 X31.187 Y64.752 E50.28717
G1 X31.279 Y65.076 E50.32759
G1 X31.419 Y65.382 E50.36797
G1 X31.608 Y65.662 E50.4085
G1 X31.839 Y65.909 E50.44909
G1 X32.109 Y66.116 E50.48991
G1 X32.406 Y66.276 E50.5304
G1 X32.726 Y66.386 E50.571
G1 X33.059 Y66.444 E50.61156
G1 X33.397 Y66.447 E50.65212
G1 X33.733 Y66.397 E50.69289
G1 X34.054 Y66.291 E50.73345
G1 X34.353 Y66.139 E50.7737
G1 X34.628 Y65.938 E50.81458
G1 X34.864 Y65.695 E50.85523
G1 X35.049 Y65.434 E50.89362
G1 X35.058 Y65.421 E50.89552
G1 X35.202 Y65.127 E50.9348
G1 X35.207 Y65.117 E50.93614
G0 F3600 X35.3 Y65.153
G0 X35.322 Y64.728
G0 X35.313 Y64.218
G0 X35.347 Y63.709
G0 X35.547 Y62.706
G0 X35.903 Y61.777
G0 X36.408 Y60.924
G0 X37.09 Y60.123
G0 X37.902 Y59.456
G0 X38.686 Y59.014
G0 X40.377 Y58.378
G0 X40.417 Y58.287
G1 F1800 X40.737 Y58.397 E50.97675
G1 X40.772 Y58.403 E50.98101
G1 X41.071 Y58.455 E51.01743
G1 X41.267 Y58.456 E51.04095
G1 X41.409 Y58.457 E51.05799
G1 X41.743 Y58.407 E51.09851
G1 X42.064 Y58.303 E51.13901
G1 X42.131 Y58.269 E51.14802
G1 X42.23 Y58.218 E51.16139
G1 X42.364 Y58.15 E51.17942
G1 X42.639 Y57.949 E51.22029
G1 X42.875 Y57.706 E51.26094
G1 X43.07 Y57.431 E51.3014
G1 X43.216 Y57.128 E51.34176
G1 X43.315 Y56.805 E51.3823
G1 X43.359 Y56.468 E51.42308
G1 X43.349 Y56.131 E51.46354
G1 X43.285 Y55.798 E51.50423
G1 X43.168 Y55.482 E51.54466
G1 X43.002 Y55.186 E51.58539
G1 X42.792 Y54.923 E51.62578
G1 X42.541 Y54.696 E51.66639
G1 X42.256 Y54.511 E51.70716
G1 X41.945 Y54.377 E51.7478
G1 X41.882 Y54.36 E51.75563
G1 X41.62 Y54.293 E51.78808
G1 X41.454 Y54.278 E51.80808
G1 X41.282 Y54.261 E51.82882
G1 X40.943 Y54.287 E51.86962
G1 X40.762 Y54.329 E51.89192
G1 X40.617 Y54.363 E51.90979
G1 X40.554 Y54.389 E51.91797
G1 X40.305 Y54.492 E51.9503
G1 X40.016 Y54.67 E51.99103
G1 X39.762 Y54.891 E52.03144
G1 X39.544 Y55.151 E52.07215
G1 X39.373 Y55.443 E52.11276
G1 X39.25 Y55.756 E52.15311
G1 X39.178 Y56.088 E52.19388
G1 X39.161 Y56.426 E52.23449
G1 X39.198 Y56.762 E52.27506
G1 X39.289 Y57.087 E52.31556
G1 X39.43 Y57.393 E52.35599
G1 X39.619 Y57.673 E52.39652
G1 X39.85 Y57.92 E52.43711
G1 X40.12 Y58.127 E52.47793
G1 X40.288 Y58.217 E52.5008
G1 X40.401 Y58.278 E52.51621
G1 X40.417 Y58.287 E52.51842
G0 F3600 X40.377 Y58.378
G0 X40.681 Y58.379
G0 X41.783 Y58.387
G0 X41.775 Y58.486
G1 F1800 X41.74 Y58.485
G1 X41.408 Y58.47 E52.52285
G1 X41.267 Y58.463 E52.52321
G1 X41.072 Y58.47 E52.5238
G1 X40.759 Y58.483 E52.52899
G1 X40.749 Y58.484
G1 X40.448 Y58.522 E52.54631
G1 X40.256 Y58.547 E52.56551
G1 X40.13 Y58.574 E52.57924
G1 X39.758 Y58.654 E52.62491
G1 X39.239 Y58.816 E52.69015
G1 X38.79 Y59 E52.74838
G1 X38.351 Y59.223 E52.80746
G1 X37.924 Y59.489 E52.86783
G1 X37.509 Y59.798 E52.92992
G1 X37.118 Y60.151 E52.99313
G1 X36.756 Y60.538 E53.05672
G1 X36.44 Y60.947 E53.11875
G1 X36.17 Y61.364 E53.17836
G1 X35.938 Y61.794 E53.23699
G1 X35.745 Y62.24 E53.29531
G1 X35.585 Y62.717 E53.35568
G1 X35.464 Y63.204 E53.4159
G1 X35.463 Y63.211 E53.41675
G1 X35.417 Y63.511 E53.44749
G1 X35.386 Y63.713 E53.45688
G1 X35.381 Y63.794 E53.45732
G1 X35.359 Y64.121 E53.46326
G1 X35.352 Y64.218 E53.46328
G1 X35.356 Y64.456 E53.46407
G1 X35.361 Y64.726 E53.46673
G1 X35.367 Y64.785
G1 X35.399 Y65.097 E53.48082
G1 X35.414 Y65.231 E53.48837
G1 X35.436 Y65.346 E53.49669
G1 X35.439 Y65.362 E53.49861
G1 X35.511 Y65.731 E53.54373
G1 X35.65 Y66.218 E53.6045
G1 X35.83 Y66.692 E53.66535
G1 X36.051 Y67.151 E53.72648
G1 X36.309 Y67.586 E53.78717
G1 X36.604 Y67.999 E53.84807
G1 X36.934 Y68.386 E53.9091
G1 X37.297 Y68.742 E53.97012
G1 X37.687 Y69.066 E54.03096
G1 X38.105 Y69.354 E54.09187
G1 X38.545 Y69.606 E54.15272
G1 X39.007 Y69.819 E54.21377
G1 X39.483 Y69.992 E54.27454
G1 X39.975 Y70.123 E54.33564
G1 X40.22 Y70.166 E54.36549
G1 X40.335 Y70.185 E54.37948
G1 X40.476 Y70.21 E54.39666
G1 X40.608 Y70.222 E54.41257
G1 X40.926 Y70.251 E54.45088
G1 X40.979 Y70.256 E54.45727
G1 X41.26 Y70.256 E54.49099
G1 X41.487 Y70.257 E54.51823
G1 X41.594 Y70.249 E54.53111
G1 X41.912 Y70.222 E54.56941
G1 X41.992 Y70.215 E54.57904
G1 X42.178 Y70.184 E54.60167
G1 X42.264 Y70.17 E54.61213
G1 X42.494 Y70.13 E54.64014
G1 X42.986 Y70.002 E54.70115
G1 X43.464 Y69.831 E54.76207
G1 X43.926 Y69.62 E54.82301
G1 X44.367 Y69.371 E54.88379
G1 X44.787 Y69.084 E54.94483
G1 X45.18 Y68.763 E55.00572
G1 X45.544 Y68.409 E55.06665
G1 X45.875 Y68.024 E55.12758
G1 X46.172 Y67.614 E55.18833
G1 X46.434 Y67.18 E55.24917
G1 X46.657 Y66.722 E55.3103
G1 X46.84 Y66.249 E55.37116
G1 X46.981 Y65.761 E55.43211
G1 X47.058 Y65.38 E55.47875
G1 X47.067 Y65.332 E55.48462
G1 X47.081 Y65.264 E55.49295
G1 X47.101 Y65.079 E55.51528
G1 X47.136 Y64.76 E55.55379
G1 X47.144 Y64.436 E55.59268
G1 X47.149 Y64.251 E55.61489
G1 X47.14 Y64.1 E55.63304
G1 X47.119 Y63.775 E55.67212
G1 X47.117 Y63.745 E55.67573
G1 X47.081 Y63.495 E55.70604
G1 X47.043 Y63.242 E55.73674
G1 X47.038 Y63.221 E55.73933
G1 X46.925 Y62.748 E55.79768
G1 X46.765 Y62.268 E55.8584
G1 X46.565 Y61.8 E55.91947
G1 X46.324 Y61.354 E55.98031
G1 X46.048 Y60.929 E56.04112
G1 X45.734 Y60.529 E56.10214
G1 X45.388 Y60.158 E56.16302
G1 X45.013 Y59.818 E56.22376
G1 X44.608 Y59.511 E56.28474
G1 X44.176 Y59.239 E56.346
G1 X43.726 Y59.008 E56.4067
G1 X43.257 Y58.815 E56.46756
G1 X42.772 Y58.662 E56.52859
G1 X42.386 Y58.577 E56.57602
G1 X42.277 Y58.553 E56.58814
G1 X42.035 Y58.521 E56.61065
G1 X41.775 Y58.486 E56.62034
G0 F3600 X41.783 Y58.387
G0 X41.817 Y58.418
G0 X43.27 Y58.778
G0 X44.195 Y59.205
G0 X45.038 Y59.788
G0 X45.764 Y60.503
G0 X46.358 Y61.334
G0 X46.483 Y61.594
G0 X47.273 Y63.41
G0 X47.362 Y63.453
G1 F1800 X47.239 Y63.767 E56.64404
G1 X47.167 Y64.098 E56.65367
G1 X47.16 Y64.251 E56.65466
G1 X47.15 Y64.436 E56.65525
G1 X47.184 Y64.754 E56.65761
G1 X47.187 Y64.773
G1 X47.278 Y65.098 E56.67046
G1 X47.306 Y65.159 E56.6716
G1 X47.419 Y65.404 E56.69921
G1 X47.446 Y65.444 E56.70473
G1 X47.608 Y65.684 E56.73948
G1 X47.839 Y65.931 E56.78006
G1 X48.109 Y66.138 E56.82088
G1 X48.406 Y66.298 E56.86137
G1 X48.726 Y66.408 E56.90197
G1 X49.06 Y66.466 E56.94265
G1 X49.398 Y66.468 E56.98321
G1 X49.732 Y66.418 E57.02374
G1 X50.053 Y66.314 E57.06423
G1 X50.353 Y66.161 E57.10464
G1 X50.628 Y65.96 E57.14552
G1 X50.864 Y65.717 E57.18617
G1 X51.058 Y65.443 E57.22645
G1 X51.207 Y65.138 E57.26719
G1 X51.304 Y64.814 E57.30777
G1 X51.348 Y64.479 E57.34832
G1 X51.338 Y64.142 E57.38878
G1 X51.274 Y63.809 E57.42947
G1 X51.157 Y63.493 E57.4699
G1 X50.991 Y63.197 E57.51063
G1 X50.781 Y62.934 E57.55101
G1 X50.53 Y62.707 E57.59162
G1 X50.245 Y62.523 E57.63233
G1 X49.934 Y62.386 E57.67311
G1 X49.609 Y62.304 E57.71334
G1 X49.271 Y62.272 E57.75408
G1 X48.933 Y62.297 E57.79475
G1 X48.606 Y62.373 E57.83503
G1 X48.292 Y62.504 E57.87586
G1 X48.005 Y62.681 E57.91632
G1 X47.75 Y62.903 E57.9569
G1 X47.534 Y63.162 E57.99737
G1 X47.384 Y63.416 E58.03276
G1 X47.373 Y63.435 E58.033
G1 X47.362 Y63.453
G0 F3600 X47.273 Y63.41
G0 X47.156 Y63.741
G0 X47.188 Y64.251
G0 X47.175 Y64.762
G0 X47.019 Y65.77
G0 X46.693 Y66.737
G0 X46.205 Y67.636
G0 X45.573 Y68.436
G0 X44.81 Y69.116
G0 X44.109 Y69.552
G0 X42.281 Y70.423
G0 X42.234 Y70.511
G1 F1800 X41.924 Y70.377 E58.06234
G1 X41.599 Y70.293 E58.07349
G1 X41.485 Y70.283 E58.07508
G1 X41.26 Y70.261 E58.07613
G1 X40.982 Y70.282 E58.07725
G1 X40.923 Y70.287
G1 X40.596 Y70.363 E58.08729
G1 X40.548 Y70.382
G1 X40.283 Y70.492 E58.11228
G1 X40.184 Y70.553 E58.12478
G1 X39.994 Y70.67 E58.15156
G1 X39.739 Y70.892 E58.19213
G1 X39.523 Y71.151 E58.2326
G1 X39.351 Y71.442 E58.27316
G1 X39.228 Y71.756 E58.31363
G1 X39.156 Y72.088 E58.35439
G1 X39.139 Y72.426 E58.39501
G1 X39.176 Y72.762 E58.43557
G1 X39.269 Y73.087 E58.47614
G1 X39.408 Y73.392 E58.51636
G1 X39.597 Y73.673 E58.55699
G1 X39.828 Y73.92 E58.59758
G1 X40.098 Y74.127 E58.6384
G1 X40.395 Y74.287 E58.67889
G1 X40.715 Y74.397 E58.71949
G1 X41.049 Y74.455 E58.76017
G1 X41.387 Y74.457 E58.80073
G1 X41.721 Y74.407 E58.84126
G1 X42.042 Y74.303 E58.88175
G1 X42.342 Y74.15 E58.92216
G1 X42.617 Y73.949 E58.96304
G1 X42.853 Y73.706 E59.00368
G1 X43.047 Y73.432 E59.04397
G1 X43.196 Y73.127 E59.08471
G1 X43.293 Y72.803 E59.12529
G1 X43.337 Y72.468 E59.16584
G1 X43.327 Y72.131 E59.20629
G1 X43.263 Y71.798 E59.24699
G1 X43.146 Y71.482 E59.28742
G1 X42.981 Y71.187 E59.32798
G1 X42.769 Y70.922 E59.36871
G1 X42.518 Y70.696 E59.40924
G1 X42.307 Y70.559 E59.43943
G1 X42.234 Y70.511 E59.44907
G0 F3600 X42.281 Y70.423
G0 X42.94 Y71.09
G0 X45.354 Y74.916
G0 X45.445 Y74.955
G1 F1800 X45.292 Y75.363 E59.50136
G1 X45.248 Y75.527 E59.52173
G1 X38.125 Y75.526 E60.37649
G1 X37.926 Y75.209 E60.42141
G1 X37.645 Y74.826 E60.47841
G1 X37.338 Y74.465 E60.53528
G1 X37.005 Y74.126 E60.5923
G1 X36.65 Y73.812 E60.64917
G1 X36.271 Y73.524 E60.70629
G1 X35.513 Y73.036 E60.81448
G1 X35.162 Y72.794 E60.86564
G1 X34.238 Y72.105 E61.00395
G1 X33.616 Y71.69 E61.09368
G1 X32.975 Y71.309 E61.18316
