;FLAVOR:UltiGCode
;TIME:1521
;MATERIAL:2822
;MATERIAL2:0
;NOZZLE_DIAMETER:0.4
;Generated with Cura_SteamEngine 3.4.1
M82 ;absolute extrusion mode

G92 E0
G10
;LAYER_COUNT:30
;LAYER:0
M107
G0 F3600 X23.867 Y31.237 Z0.3
;TYPE:SKIRT
G11
G1 F1800 X24.321 Y30.951 E0.06439
G1 X24.812 Y30.736 E0.12871
G1 X25.329 Y30.596 E0.19298
G1 X26.009 Y30.531 E0.27496
G1 X88.2 Y30.554 E7.73788
G1 X88.735 Y30.594 E7.80226
G1 X89.258 Y30.713 E7.86662
G1 X89.975 Y31.023 E7.96036
G1 X90.495 Y31.318 E8.0321
G1 X90.941 Y31.616 E8.09647
G1 X91.337 Y31.978 E8.16085
G1 X91.675 Y32.394 E8.22517
G1 X91.886 Y32.738 E8.2736
G1 X94.687 Y37.924 E8.98089
G1 X97.553 Y42.622 E9.64127
G1 X99.925 Y46.176 E10.15401
G1 X100.189 Y46.643 E10.21839
G1 X100.38 Y47.144 E10.28273
G1 X100.495 Y47.668 E10.34711
G1 X100.525 Y47.972 E10.38376
G1 X100.592 Y49.156 E10.52607
G1 X100.598 Y49.366 E10.55128
G1 X100.552 Y71.759 E13.23845
G1 X100.511 Y72.294 E13.30283
G1 X100.391 Y72.817 E13.36722
G1 X100.195 Y73.316 E13.43156
G1 X99.962 Y73.727 E13.48825
G1 X97.146 Y78.02 E14.10435
G1 X94.318 Y82.749 E14.76556
G1 X92.07 Y86.992 E15.34177
G1 X91.785 Y87.446 E15.4061
G1 X91.587 Y87.691 E15.4439
G1 X91.238 Y88.086 E15.50715
G1 X90.854 Y88.46 E15.57147
G1 X90.418 Y88.773 E15.63588
G1 X89.779 Y89.082 E15.72105
G1 X89.356 Y89.237 E15.77511
G1 X88.84 Y89.384 E15.8395
G1 X88.118 Y89.457 E15.92658
G1 X54.01 Y89.468 E20.01954
G1 X53.475 Y89.428 E20.08392
G1 X52.952 Y89.309 E20.14828
G1 X52.453 Y89.114 E20.21257
G1 X51.988 Y88.847 E20.27692
G1 X51.568 Y88.514 E20.34123
G1 X51.202 Y88.122 E20.40559
G1 X50.898 Y87.68 E20.46996
G1 X50.591 Y86.999 E20.5596
G1 X49.141 Y82.619 E21.11326
G1 X47.168 Y77.522 E21.76912
G1 X44.92 Y72.568 E22.42194
G1 X42.387 Y67.73 E23.07726
G1 X39.578 Y63.036 E23.7337
G1 X38.114 Y60.806 E24.05381
G1 X34.906 Y56.351 E24.71259
G1 X31.475 Y52.111 E25.36711
G1 X27.813 Y48.076 E26.02099
G1 X23.908 Y44.236 E26.6782
G1 X20.618 Y41.306 E27.20686
G1 X20.245 Y40.921 E27.27119
G1 X19.934 Y40.484 E27.33555
G1 X19.69 Y40.006 E27.39995
G1 X19.521 Y39.497 E27.46431
G1 X19.429 Y38.969 E27.52863
G1 X19.412 Y38.618 E27.5708
G1 X19.412 Y37.131 E27.74924
G1 X19.452 Y36.596 E27.81362
G1 X19.571 Y36.073 E27.87798
G1 X19.766 Y35.574 E27.94227
G1 X20.034 Y35.109 E28.00667
G1 X20.465 Y34.587 E28.08791
G1 X23.461 Y31.587 E28.59668
G1 X23.867 Y31.237 E28.66101
G0 F3600 X24.128 Y31.541
G1 F1800 X24.559 Y31.278 E28.7216
G1 X25.027 Y31.085 E28.78235
G1 X25.519 Y30.969 E28.843
G1 X26.009 Y30.931 E28.90198
G1 X88.2 Y30.954 E36.3649
G1 X88.704 Y30.994 E36.42557
G1 X89.196 Y31.113 E36.48631
G1 X89.778 Y31.371 E36.56271
G1 X90.298 Y31.666 E36.63445
G1 X90.717 Y31.949 E36.69513
G1 X91.085 Y32.295 E36.75574
G1 X91.395 Y32.695 E36.81647
G1 X91.535 Y32.928 E36.84909
G1 X94.352 Y38.142 E37.56024
G1 X97.214 Y42.836 E38.21997
G1 X99.592 Y46.398 E38.73391
G1 X99.839 Y46.84 E38.79467
G1 X100.013 Y47.314 E38.85526
G1 X100.126 Y47.994 E38.93798
G1 X100.193 Y49.178 E39.08029
G1 X100.198 Y49.366 E39.10285
G1 X100.152 Y71.759 E41.79002
G1 X100.111 Y72.262 E41.85058
G1 X99.991 Y72.754 E41.91135
G1 X99.796 Y73.22 E41.97197
G1 X99.628 Y73.507 E42.01188
G1 X96.793 Y77.828 E42.63204
G1 X93.983 Y82.527 E43.28905
G1 X91.717 Y86.805 E43.86998
G1 X91.287 Y87.426 E43.96062
G1 X90.938 Y87.821 E44.02387
G1 X90.574 Y88.172 E44.08455
G1 X90.16 Y88.462 E44.14521
G1 X89.641 Y88.707 E44.21408
G1 X89.218 Y88.862 E44.26814
G1 X88.731 Y88.998 E44.32881
G1 X88.118 Y89.057 E44.40271
G1 X54.01 Y89.068 E48.49567
G1 X53.506 Y89.028 E48.55634
G1 X53.015 Y88.91 E48.61694
G1 X52.548 Y88.715 E48.67767
G1 X52.118 Y88.449 E48.73834
G1 X51.735 Y88.119 E48.79901
G1 X51.409 Y87.733 E48.85964
G1 X51.147 Y87.3 E48.92037
G1 X50.971 Y86.874 E48.97568
G1 X49.517 Y82.481 E49.53097
G1 X47.541 Y77.376 E50.18786
G1 X45.281 Y72.396 E50.84412
G1 X42.734 Y67.532 E51.50298
G1 X39.913 Y62.817 E52.16232
G1 X38.447 Y60.584 E52.48286
G1 X35.225 Y56.11 E53.14447
G1 X31.781 Y51.854 E53.80146
G1 X28.098 Y47.796 E54.45908
G1 X24.183 Y43.946 E55.11798
G1 X20.884 Y41.008 E55.6481
G1 X20.534 Y40.643 E55.70878
G1 X20.246 Y40.227 E55.7695
G1 X20.027 Y39.771 E55.8302
G1 X19.883 Y39.287 E55.8908
G1 X19.812 Y38.618 E55.97153
G1 X19.812 Y37.131 E56.14997
G1 X19.852 Y36.627 E56.21064
G1 X19.971 Y36.136 E56.27126
G1 X20.165 Y35.669 E56.33195
G1 X20.431 Y35.239 E56.39262
G1 X20.748 Y34.87 E56.451
G1 X23.744 Y31.87 E56.95977
G1 X24.128 Y31.541 E57.02045
G10
G0 F3600 X25.352 Y33.833
G0 X26.258 Y34.74
G0 X82.753 Y38.061
G0 X83.479 Y38.297
G0 X84.138 Y38.677
G0 X84.703 Y39.187
G0 X85.151 Y39.803
G0 X85.46 Y40.497
G0 X85.617 Y41.242
G0 X85.635 Y49.604
G0 X93.404 Y49.897
G0 X94.021 Y50.119
G0 X94.54 Y50.516
G0 X94.917 Y51.05
G0 X95.2 Y52
G0 X95.1 Y52
;TYPE:WALL-INNER
G11
G1 F1800 X95.074 Y51.678 E57.05922
G1 X95.002 Y51.366 E57.09764
G1 X94.882 Y51.067 E57.13631
G1 X94.716 Y50.79 E57.17506
G1 X94.512 Y50.543 E57.2135
G1 X94.272 Y50.329 E57.25209
G1 X94.002 Y50.154 E57.2907
G1 X93.709 Y50.022 E57.32926
G1 X93.397 Y49.936 E57.3681
G1 X93.077 Y49.9 E57.40674
G1 X92.756 Y49.912 E57.44529
G1 X92.441 Y49.974 E57.48381
G1 X92.138 Y50.082 E57.52241
G1 X91.855 Y50.236 E57.56107
G1 X91.601 Y50.43 E57.59943
G1 X91.376 Y50.662 E57.63821
G1 X91.191 Y50.925 E57.6768
G1 X91.048 Y51.214 E57.71549
G1 X90.951 Y51.521 E57.75412
G1 X90.902 Y51.839 E57.79273
G1 X90.902 Y52.161 E57.83137
G1 X90.951 Y52.479 E57.86998
G1 X91.048 Y52.786 E57.90862
G1 X91.191 Y53.075 E57.94731
G1 X91.376 Y53.338 E57.9859
G1 X91.601 Y53.57 E58.02468
G1 X91.855 Y53.764 E58.06303
G1 X92.138 Y53.918 E58.1017
G1 X92.441 Y54.026 E58.1403
G1 X92.756 Y54.088 E58.17882
G1 X93.077 Y54.1 E58.21737
G1 X93.397 Y54.064 E58.25601
G1 X93.709 Y53.978 E58.29485
G1 X94.002 Y53.846 E58.33341
G1 X94.272 Y53.671 E58.37202
G1 X94.512 Y53.457 E58.41061
G1 X94.716 Y53.21 E58.44905
G1 X94.882 Y52.933 E58.4878
G1 X95.002 Y52.634 E58.52646
G1 X95.074 Y52.322 E58.56489
G1 X95.1 Y52 E58.60365
G0 F3600 X95.2 Y52
G0 X95.2 Y60
G0 X95.1 Y60
G1 F1800 X95.074 Y59.678 E58.64242
G1 X95.002 Y59.366 E58.68084
G1 X94.882 Y59.067 E58.71951
G1 X94.716 Y58.79 E58.75826
G1 X94.512 Y58.543 E58.7967
G1 X94.272 Y58.329 E58.83529
G1 X94.002 Y58.154 E58.8739
G1 X93.709 Y58.022 E58.91246
G1 X93.397 Y57.936 E58.9513
G1 X93.077 Y57.9 E58.98994
G1 X92.756 Y57.912 E59.02848
G1 X92.441 Y57.974 E59.06701
G1 X92.138 Y58.082 E59.10561
G1 X91.855 Y58.236 E59.14427
G1 X91.601 Y58.43 E59.18263
G1 X91.376 Y58.662 E59.22141
G1 X91.191 Y58.925 E59.26
G1 X91.048 Y59.214 E59.29869
G1 X90.951 Y59.521 E59.33732
G1 X90.902 Y59.839 E59.37593
G1 X90.902 Y60.161 E59.41457
G1 X90.951 Y60.479 E59.45318
G1 X91.048 Y60.786 E59.49182
G1 X91.191 Y61.075 E59.53051
G1 X91.376 Y61.338 E59.5691
G1 X91.601 Y61.57 E59.60788
G1 X91.855 Y61.764 E59.64623
G1 X92.138 Y61.918 E59.6849
G1 X92.441 Y62.026 E59.7235
G1 X92.756 Y62.088 E59.76202
G1 X93.077 Y62.1 E59.80057
G1 X93.397 Y62.064 E59.83921
G1 X93.709 Y61.978 E59.87805
G1 X94.002 Y61.846 E59.91661
G1 X94.272 Y61.671 E59.95522
G1 X94.512 Y61.457 E59.99381
G1 X94.716 Y61.21 E60.03225
G1 X94.882 Y60.933 E60.071
G1 X95.002 Y60.634 E60.10966
G1 X95.074 Y60.322 E60.14809
G1 X95.1 Y60 E60.18685
G0 F3600 X95.2 Y60
G0 X95.2 Y68
G0 X95.1 Y68
G1 F1800 X95.074 Y67.678 E60.22562
G1 X95.002 Y67.366 E60.26404
G1 X94.882 Y67.067 E60.30271
G1 X94.716 Y66.79 E60.34146
G1 X94.512 Y66.543 E60.3799
G1 X94.272 Y66.329 E60.41849
G1 X94.002 Y66.154 E60.4571
G1 X93.709 Y66.022 E60.49566
G1 X93.397 Y65.936 E60.5345
G1 X93.077 Y65.9 E60.57314
G1 X92.756 Y65.912 E60.61168
G1 X92.441 Y65.974 E60.65021
G1 X92.138 Y66.082 E60.68881
G1 X91.855 Y66.236 E60.72747
G1 X91.601 Y66.43 E60.76583
G1 X91.376 Y66.662 E60.80461
G1 X91.191 Y66.925 E60.84319
G1 X91.048 Y67.214 E60.88189
G1 X90.951 Y67.521 E60.92052
G1 X90.902 Y67.839 E60.95913
G1 X90.902 Y68.161 E60.99777
G1 X90.951 Y68.479 E61.03638
G1 X91.048 Y68.786 E61.07502
G1 X91.191 Y69.075 E61.11371
G1 X91.376 Y69.338 E61.1523
G1 X91.601 Y69.57 E61.19108
G1 X91.855 Y69.764 E61.22943
G1 X92.138 Y69.918 E61.2681
G1 X92.441 Y70.026 E61.3067
G1 X92.756 Y70.088 E61.34522
G1 X93.077 Y70.1 E61.38377
G1 X93.397 Y70.064 E61.42241
G1 X93.709 Y69.978 E61.46125
G1 X94.002 Y69.846 E61.49981
G1 X94.272 Y69.671 E61.53842
G1 X94.512 Y69.457 E61.57701
G1 X94.716 Y69.21 E61.61545
G1 X94.882 Y68.933 E61.6542
G1 X95.002 Y68.634 E61.69286
G1 X95.074 Y68.322 E61.73129
G1 X95.1 Y68 E61.77005
G0 F3600 X95.2 Y68
G0 X94.917 Y68.95
G0 X92.829 Y71.865
G0 X90.651 Y71.882
G0 X89.992 Y72.059
G0 X89.398 Y72.399
G0 X88.899 Y72.897
G0 X88.594 Y73.428
G0 X85.667 Y83.548
G0 X85.597 Y83.478
G1 F1800 X85.597 Y41.607 E66.79457
G1 X85.578 Y41.246 E66.83795
G1 X85.52 Y40.875 E66.88301
G1 X85.422 Y40.509 E66.92848
G1 X85.287 Y40.159 E66.9735
G1 X85.117 Y39.822 E67.01879
G1 X84.911 Y39.505 E67.06416
G1 X84.674 Y39.213 E67.10929
G1 X84.407 Y38.946 E67.1546
G1 X84.115 Y38.709 E67.19973
G1 X83.797 Y38.503 E67.24519
G1 X83.463 Y38.333 E67.29017
G1 X83.111 Y38.198 E67.33541
G1 X82.745 Y38.1 E67.38087
G1 X82.374 Y38.042 E67.42594
G1 X82.072 Y38.025 E67.46223
G1 X23.602 Y38.022 E74.47863
G1 X23.602 Y37.37 E74.55687
G1 X26.251 Y34.722 E75.00634
G1 X87.971 Y34.722 E82.41274
G1 X88.063 Y34.73 E82.42382
G1 X88.132 Y34.747 E82.43235
G1 X88.19 Y34.774 E82.44002
G1 X88.246 Y34.813 E82.44821
G1 X88.3 Y34.866 E82.45729
G1 X88.342 Y34.925 E82.46598
G1 X88.367 Y34.977 E82.47291
G1 X88.387 Y35.05 E82.48199
G1 X88.397 Y35.145 E82.49345
G1 X88.398 Y45.523 E83.73881
G1 X88.419 Y45.836 E83.77646
G1 X88.485 Y46.172 E83.81755
G1 X88.592 Y46.488 E83.85758
G1 X88.75 Y46.81 E83.90062
G1 X88.937 Y47.088 E83.94083
G1 X89.158 Y47.34 E83.98105
G1 X89.41 Y47.56 E84.02119
G1 X89.688 Y47.746 E84.06133
G1 X90.012 Y47.907 E84.10475
G1 X90.327 Y48.013 E84.14463
G1 X90.666 Y48.081 E84.18612
G1 X90.976 Y48.1 E84.22339
G1 X95.979 Y48.1 E84.82375
G1 X96.064 Y48.108 E84.834
G1 X96.135 Y48.126 E84.84278
G1 X96.192 Y48.153 E84.85035
G1 X96.258 Y48.2 E84.86008
G1 X96.3 Y48.241 E84.86712
G1 X96.34 Y48.299 E84.87557
G1 X96.372 Y48.369 E84.88481
G1 X96.39 Y48.435 E84.89302
G1 X96.398 Y48.521 E84.90338
G1 X96.398 Y71.479 E87.65834
G1 X96.39 Y71.565 E87.66871
G1 X96.372 Y71.631 E87.67692
G1 X96.34 Y71.701 E87.68615
G1 X96.3 Y71.759 E87.69461
G1 X96.258 Y71.8 E87.70165
G1 X96.192 Y71.847 E87.71138
G1 X96.135 Y71.874 E87.71894
G1 X96.064 Y71.892 E87.72773
G1 X95.979 Y71.9 E87.73798
G1 X90.967 Y71.901 E88.33942
G1 X90.656 Y71.921 E88.37682
G1 X90.316 Y71.99 E88.41845
G1 X90.007 Y72.095 E88.45761
G1 X89.705 Y72.242 E88.49791
G1 X89.422 Y72.43 E88.53869
G1 X89.149 Y72.67 E88.5823
G1 X88.93 Y72.921 E88.62228
G1 X88.742 Y73.202 E88.66285
G1 X88.596 Y73.502 E88.70289
G1 X88.483 Y73.834 E88.74497
G1 X88.417 Y74.167 E88.78571
G1 X88.398 Y74.482 E88.82358
G1 X88.398 Y84.856 E90.06846
G1 X88.391 Y84.943 E90.07893
G1 X88.373 Y85.012 E90.08749
G1 X88.346 Y85.07 E90.09516
G1 X88.307 Y85.126 E90.10335
G1 X88.254 Y85.18 E90.11243
G1 X88.195 Y85.222 E90.12112
G1 X88.143 Y85.247 E90.12805
G1 X88.07 Y85.267 E90.13713
G1 X87.975 Y85.277 E90.14859
G1 X54.797 Y85.278 E94.12995
G1 X54.597 Y85.278 E94.15395
G1 X54.597 Y85.078 E94.16949
G1 X54.597 Y83.126 E94.40373
G1 X58.245 Y79.478 E95.02282
G1 X64.75 Y79.478 E95.80342
G1 X68.001 Y82.73 E96.35522
G1 X68.242 Y82.941 E96.39365
G1 X68.526 Y83.132 E96.43472
G1 X68.832 Y83.28 E96.47551
G1 X69.152 Y83.39 E96.51612
G1 X69.486 Y83.456 E96.55697
G1 X69.805 Y83.478 E96.59535
G1 X85.597 Y83.478 E98.49039
G0 F3600 X85.197 Y83.078
;TYPE:WALL-OUTER
G1 F1800 X85.197 Y41.617 E103.46571
G1 X85.18 Y41.288 E103.50524
G1 X85.128 Y40.958 E103.54533
G1 X85.041 Y40.633 E103.5857
G1 X84.921 Y40.321 E103.62581
G1 X84.77 Y40.022 E103.66601
G1 X84.587 Y39.741 E103.70625
G1 X84.376 Y39.481 E103.74643
G1 X84.139 Y39.244 E103.78665
G1 X83.879 Y39.033 E103.82683
G1 X83.597 Y38.85 E103.86717
G1 X83.3 Y38.699 E103.90716
G1 X82.987 Y38.579 E103.94738
G1 X82.662 Y38.492 E103.98775
G1 X82.332 Y38.44 E104.02784
G1 X82.061 Y38.425 E104.06041
G1 X23.202 Y38.422 E111.12349
G1 X23.202 Y37.204 E111.26965
G1 X26.085 Y34.322 E111.75883
G1 X87.992 Y34.322 E119.18767
G1 X88.126 Y34.333 E119.2038
G1 X88.265 Y34.369 E119.22103
G1 X88.391 Y34.426 E119.23763
G1 X88.502 Y34.503 E119.25384
G1 X88.605 Y34.604 E119.27115
G1 X88.687 Y34.719 E119.2881
G1 X88.744 Y34.837 E119.30383
G1 X88.782 Y34.977 E119.32123
G1 X88.797 Y35.123 E119.33885
G1 X88.798 Y45.51 E120.58529
G1 X88.816 Y45.784 E120.61824
G1 X88.872 Y46.069 E120.65309
G1 X88.962 Y46.335 E120.68679
G1 X89.097 Y46.609 E120.72344
G1 X89.255 Y46.844 E120.75742
G1 X89.441 Y47.056 E120.79127
G1 X89.654 Y47.242 E120.8252
G1 X89.889 Y47.399 E120.85911
G1 X90.166 Y47.537 E120.89625
G1 X90.43 Y47.626 E120.92968
G1 X90.718 Y47.683 E120.96491
G1 X90.989 Y47.7 E120.9975
G1 X95.993 Y47.7 E121.59798
G1 X96.137 Y47.713 E121.61533
G1 X96.27 Y47.748 E121.63183
G1 X96.396 Y47.807 E121.64853
G1 X96.512 Y47.889 E121.66557
G1 X96.61 Y47.986 E121.68212
G1 X96.689 Y48.1 E121.69876
G1 X96.749 Y48.229 E121.71584
G1 X96.785 Y48.362 E121.73237
G1 X96.798 Y48.507 E121.74984
G1 X96.798 Y71.493 E124.50816
G1 X96.785 Y71.638 E124.52563
G1 X96.749 Y71.771 E124.54216
G1 X96.689 Y71.9 E124.55924
G1 X96.61 Y72.014 E124.57588
G1 X96.512 Y72.111 E124.59243
G1 X96.396 Y72.193 E124.60947
G1 X96.27 Y72.252 E124.62617
G1 X96.137 Y72.287 E124.64267
G1 X95.993 Y72.3 E124.66002
G1 X90.98 Y72.301 E125.26158
G1 X90.709 Y72.318 E125.29417
G1 X90.421 Y72.377 E125.32944
G1 X90.159 Y72.466 E125.36265
G1 X89.904 Y72.59 E125.39668
G1 X89.666 Y72.748 E125.43096
G1 X89.433 Y72.953 E125.4682
G1 X89.248 Y73.165 E125.50196
G1 X89.09 Y73.401 E125.53604
G1 X88.967 Y73.655 E125.56991
G1 X88.87 Y73.938 E125.60581
G1 X88.815 Y74.218 E125.64005
G1 X88.798 Y74.494 E125.67323
G1 X88.798 Y84.878 E126.91931
G1 X88.787 Y85.006 E126.93473
G1 X88.751 Y85.145 E126.95196
G1 X88.694 Y85.271 E126.96855
G1 X88.617 Y85.382 E126.98477
G1 X88.516 Y85.485 E127.00208
G1 X88.401 Y85.567 E127.01903
G1 X88.283 Y85.624 E127.03475
G1 X88.143 Y85.662 E127.05216
G1 X87.996 Y85.677 E127.06989
G1 X54.397 Y85.678 E131.10177
G1 X54.197 Y85.678 E131.12577
G1 X54.197 Y85.478 E131.14131
G1 X54.197 Y82.96 E131.44347
G1 X58.079 Y79.078 E132.10227
G1 X64.916 Y79.078 E132.92271
G1 X68.275 Y82.438 E133.49283
G1 X68.486 Y82.623 E133.52651
G1 X68.726 Y82.784 E133.56119
G1 X68.985 Y82.91 E133.59575
G1 X69.256 Y83.003 E133.63013
G1 X69.539 Y83.059 E133.66475
G1 X69.819 Y83.078 E133.69843
G1 X85.197 Y83.078 E135.54379
G0 F3600 X85.197 Y82.878
G0 X85.697 Y82.878
G0 X88.56 Y73.487
G0 X88.899 Y72.897
G0 X89.398 Y72.399
G0 X94.296 Y69.702
G0 X94.748 Y69.233
G0 X94.983 Y68.757
G0 X95.196 Y68.041
G0 X94.699 Y68
G1 F1800 X94.678 Y67.74 E135.57509
G1 X94.619 Y67.487 E135.60626
G1 X94.522 Y67.245 E135.63755
G1 X94.388 Y67.021 E135.66887
G1 X94.223 Y66.821 E135.69999
G1 X94.029 Y66.648 E135.73118
G1 X93.81 Y66.506 E135.7625
G1 X93.573 Y66.399 E135.7937
G1 X93.321 Y66.33 E135.82506
G1 X93.062 Y66.301 E135.85633
G1 X92.802 Y66.311 E135.88755
G1 X92.547 Y66.361 E135.91874
G1 X92.302 Y66.448 E135.94993
G1 X92.073 Y66.573 E135.98124
G1 X91.867 Y66.73 E136.01232
G1 X91.685 Y66.918 E136.04372
G1 X91.536 Y67.13 E136.07482
G1 X91.42 Y67.364 E136.10616
G1 X91.342 Y67.612 E136.13736
G1 X91.302 Y67.87 E136.16869
G1 X91.302 Y68.13 E136.19989
G1 X91.342 Y68.388 E136.23122
G1 X91.42 Y68.636 E136.26241
G1 X91.536 Y68.87 E136.29375
G1 X91.685 Y69.082 E136.32485
G1 X91.867 Y69.27 E136.35625
G1 X92.073 Y69.427 E136.38733
G1 X92.302 Y69.552 E136.41864
G1 X92.547 Y69.639 E136.44984
G1 X92.802 Y69.689 E136.48102
G1 X93.062 Y69.699 E136.51224
G1 X93.321 Y69.67 E136.54351
G1 X93.573 Y69.601 E136.57487
G1 X93.81 Y69.494 E136.60607
G1 X94.029 Y69.352 E136.63739
G1 X94.223 Y69.179 E136.66859
G1 X94.388 Y68.979 E136.6997
G1 X94.522 Y68.755 E136.73102
G1 X94.619 Y68.513 E136.76231
G1 X94.678 Y68.26 E136.79348
G1 X94.699 Y68 E136.82478
G0 F3600 X94.683 Y67.8
G0 X95.181 Y67.761
G0 X95.196 Y60.041
G0 X94.699 Y60
G1 F1800 X94.678 Y59.74 E136.85608
G1 X94.619 Y59.487 E136.88726
G1 X94.522 Y59.245 E136.91855
G1 X94.388 Y59.021 E136.94987
G1 X94.223 Y58.821 E136.98098
G1 X94.029 Y58.648 E137.01217
G1 X93.81 Y58.506 E137.04349
