;FLAVOR:UltiGCode
;TIME:3646
;MATERIAL:8610
;MATERIAL2:0
;NOZZLE_DIAMETER:0.4
;Generated with Cura_SteamEngine 3.4.1
M82 ;absolute extrusion mode

G92 E0
G10
;LAYER_COUNT:54
;LAYER:0
M107
G0 F3600 X24.942 Y27.047 Z0.3
;TYPE:SKIRT
G11
G1 F1800 X25.327 Y26.719 E0.06069
G1 X25.759 Y26.456 E0.12138
G1 X26.226 Y26.263 E0.18202
G1 X26.718 Y26.147 E0.24268
G1 X27.205 Y26.11 E0.30129
G1 X92.794 Y26.11 E8.17197
G1 X93.298 Y26.15 E8.23264
G1 X93.789 Y26.269 E8.29326
G1 X94.256 Y26.463 E8.35395
G1 X94.686 Y26.729 E8.41462
G1 X95.056 Y27.047 E8.47317
G1 X103.452 Y35.44 E9.89776
G1 X103.781 Y35.824 E9.95844
G1 X104.044 Y36.256 E10.01913
G1 X104.236 Y36.723 E10.07972
G1 X104.353 Y37.215 E10.14041
G1 X104.39 Y37.703 E10.19914
G1 X104.39 Y82.295 E15.55018
G1 X104.35 Y82.799 E15.61085
G1 X104.231 Y83.29 E15.67147
G1 X104.037 Y83.757 E15.73216
G1 X103.771 Y84.187 E15.79283
G1 X103.455 Y84.556 E15.85113
G1 X94.763 Y93.263 E17.32749
G1 X94.729 Y93.297 E17.33326
G1 X94.227 Y93.785 E17.41727
G1 X93.837 Y94.107 E17.47796
G1 X93.402 Y94.365 E17.53865
G1 X92.932 Y94.55 E17.59926
G1 X92.438 Y94.659 E17.65997
G1 X91.997 Y94.69 E17.71302
G1 X38.08 Y94.7 E24.18306
G1 X37.879 Y94.694 E24.20719
G1 X36.681 Y94.619 E24.35123
G1 X36.181 Y94.547 E24.41185
G1 X35.698 Y94.398 E24.4725
G1 X35.447 Y94.286 E24.50549
G1 X32.281 Y92.699 E24.93046
G1 X27.279 Y90.353 E25.59344
G1 X24.817 Y89.321 E25.91379
G1 X19.893 Y87.492 E26.54411
G1 X19.434 Y87.279 E26.60484
G1 X19.015 Y86.996 E26.66551
G1 X18.741 Y86.752 E26.70954
G1 X16.544 Y84.549 E27.08289
G1 X16.217 Y84.164 E27.14351
G1 X15.954 Y83.732 E27.2042
G1 X15.762 Y83.264 E27.2649
G1 X15.647 Y82.772 E27.32553
G1 X15.61 Y82.289 E27.38366
G1 X15.61 Y37.704 E32.73386
G1 X15.65 Y37.2 E32.79453
G1 X15.769 Y36.709 E32.85516
G1 X15.963 Y36.242 E32.91584
G1 X16.229 Y35.812 E32.97652
G1 X16.547 Y35.441 E33.03515
G1 X24.942 Y27.047 E34.45975
G10
G0 F3600 X26.549 Y29.011
G0 X27.455 Y29.918
G0 X38.954 Y43.063
G0 X39.737 Y43.724
G0 X40.626 Y44.235
G0 X41.174 Y44.427
G0 X42.603 Y44.796
G0 X42.609 Y44.697
;TYPE:WALL-INNER
G11
G1 F1800 X43.119 Y44.705 E34.52095
G1 X43.626 Y44.67 E34.58194
G1 X44.13 Y44.588 E34.64321
G1 X44.623 Y44.459 E34.70436
G1 X45.103 Y44.288 E34.76551
G1 X45.565 Y44.073 E34.82666
G1 X46.007 Y43.815 E34.88807
G1 X46.421 Y43.521 E34.94901
G1 X46.809 Y43.189 E35.01029
G1 X47.165 Y42.823 E35.07156
G1 X47.485 Y42.427 E35.13265
G1 X47.768 Y42.002 E35.19392
G1 X48.011 Y41.554 E35.25508
G1 X48.212 Y41.088 E35.31598
G1 X48.372 Y40.6 E35.37761
G1 X48.484 Y40.104 E35.43863
G1 X48.552 Y39.601 E35.49954
G1 X48.574 Y39.091 E35.56079
G1 X48.549 Y38.581 E35.62207
G1 X48.479 Y38.077 E35.68313
G1 X48.363 Y37.58 E35.74437
G1 X48.201 Y37.096 E35.80562
G1 X47.997 Y36.63 E35.86666
G1 X47.75 Y36.183 E35.92795
G1 X47.465 Y35.761 E35.98905
G1 X47.142 Y35.367 E36.05019
G1 X46.784 Y35.002 E36.11154
G1 X46.394 Y34.673 E36.17277
G1 X45.978 Y34.381 E36.23376
G1 X45.535 Y34.127 E36.29504
G1 X45.072 Y33.915 E36.35615
G1 X44.591 Y33.746 E36.41732
G1 X44.096 Y33.621 E36.47859
G1 X43.593 Y33.542 E36.53969
G1 X43.085 Y33.509 E36.60078
G1 X42.576 Y33.521 E36.66187
G1 X42.069 Y33.581 E36.72314
G1 X41.57 Y33.685 E36.78431
G1 X41.082 Y33.836 E36.84561
G1 X40.611 Y34.031 E36.90678
G1 X40.159 Y34.266 E36.96791
G1 X39.731 Y34.543 E37.02909
G1 X39.33 Y34.856 E37.09013
G1 X38.958 Y35.205 E37.15134
G1 X38.619 Y35.587 E37.21263
G1 X38.318 Y35.997 E37.27366
G1 X38.054 Y36.432 E37.33473
G1 X37.83 Y36.892 E37.39612
G1 X37.651 Y37.37 E37.45737
G1 X37.515 Y37.86 E37.5184
G1 X37.424 Y38.362 E37.57962
G1 X37.379 Y38.869 E37.6407
G1 X37.38 Y39.379 E37.7019
G1 X37.429 Y39.887 E37.76314
G1 X37.522 Y40.389 E37.8244
G1 X37.661 Y40.878 E37.88541
G1 X37.844 Y41.355 E37.94672
G1 X38.071 Y41.812 E38.00795
G1 X38.336 Y42.245 E38.06887
G1 X38.641 Y42.655 E38.13019
G1 X38.982 Y43.035 E38.19146
G1 X39.356 Y43.382 E38.25268
G1 X39.759 Y43.692 E38.31369
G1 X40.188 Y43.966 E38.37478
G1 X40.642 Y44.199 E38.43601
G1 X41.115 Y44.391 E38.49727
G1 X41.603 Y44.537 E38.55839
G1 X42.102 Y44.639 E38.61951
G1 X42.609 Y44.697 E38.68075
G0 F3600 X42.603 Y44.796
G0 X49.011 Y47.896
G0 X49.102 Y47.856
G1 F1800 X49.33 Y48.312 E38.74193
G1 X49.594 Y48.745 E38.80278
G1 X49.899 Y49.155 E38.8641
G1 X50.24 Y49.535 E38.92537
G1 X50.615 Y49.882 E38.98668
G1 X51.017 Y50.191 E39.04753
G1 X51.446 Y50.466 E39.10868
G1 X51.901 Y50.699 E39.17002
G1 X52.372 Y50.891 E39.23105
G1 X52.861 Y51.037 E39.29229
G1 X53.36 Y51.139 E39.35341
G1 X53.867 Y51.197 E39.41465
G1 X54.377 Y51.205 E39.47586
G1 X54.884 Y51.17 E39.53684
G1 X55.389 Y51.088 E39.59823
G1 X55.882 Y50.959 E39.65939
G1 X56.362 Y50.787 E39.72057
G1 X56.824 Y50.572 E39.78172
G1 X57.265 Y50.316 E39.84291
G1 X57.681 Y50.021 E39.90411
G1 X58.067 Y49.689 E39.96521
G1 X58.422 Y49.323 E40.02639
G1 X58.743 Y48.928 E40.08747
G1 X59.028 Y48.501 E40.14908
G1 X59.269 Y48.053 E40.21012
G1 X59.47 Y47.588 E40.27091
G1 X59.63 Y47.101 E40.33242
G1 X59.743 Y46.605 E40.39347
G1 X59.811 Y46.1 E40.45462
G1 X59.832 Y45.591 E40.51575
G1 X59.808 Y45.082 E40.5769
G1 X59.738 Y44.577 E40.63808
G1 X59.621 Y44.079 E40.69946
G1 X59.459 Y43.596 E40.7606
G1 X59.255 Y43.131 E40.82153
G1 X59.01 Y42.684 E40.8827
G1 X58.723 Y42.261 E40.94404
G1 X58.4 Y41.867 E41.00518
G1 X58.043 Y41.503 E41.06636
G1 X57.653 Y41.173 E41.12766
G1 X57.236 Y40.881 E41.18875
G1 X56.794 Y40.627 E41.24993
G1 X56.331 Y40.415 E41.31103
G1 X55.85 Y40.246 E41.37221
G1 X55.355 Y40.121 E41.43348
G1 X54.851 Y40.042 E41.4947
G1 X54.343 Y40.009 E41.55578
G1 X53.834 Y40.021 E41.61688
G1 X53.327 Y40.081 E41.67815
G1 X52.828 Y40.185 E41.73931
G1 X52.34 Y40.336 E41.80061
G1 X51.87 Y40.531 E41.86167
G1 X51.417 Y40.766 E41.92291
G1 X50.989 Y41.043 E41.98409
G1 X50.589 Y41.356 E42.04504
G1 X50.216 Y41.704 E42.10625
G1 X49.877 Y42.087 E42.16763
G1 X49.576 Y42.498 E42.22876
G1 X49.313 Y42.932 E42.28966
G1 X49.088 Y43.392 E42.35111
G1 X48.909 Y43.87 E42.41236
G1 X48.773 Y44.36 E42.47338
G1 X48.682 Y44.863 E42.53472
G1 X48.638 Y45.37 E42.59579
G1 X48.639 Y45.878 E42.65675
G1 X48.686 Y46.386 E42.71797
G1 X48.78 Y46.889 E42.77938
G1 X48.919 Y47.377 E42.84027
G1 X49.102 Y47.856 E42.9018
G0 F3600 X49.011 Y47.896
G0 X48.647 Y46.391
G0 X48.604 Y45.472
G0 X49.53 Y36.608
G0 X49.63 Y36.608
G1 F1800 X49.658 Y36.979 E42.94644
G1 X49.736 Y37.34 E42.99076
G1 X49.866 Y37.687 E43.03523
G1 X50.044 Y38.014 E43.07991
G1 X50.267 Y38.311 E43.12448
G1 X50.529 Y38.573 E43.16894
G1 X50.826 Y38.796 E43.21351
G1 X51.153 Y38.974 E43.25818
G1 X51.5 Y39.103 E43.30261
G1 X51.861 Y39.182 E43.34695
G1 X52.21 Y39.208 E43.38895
G1 X56.254 Y39.208 E43.87423
G1 X56.604 Y39.182 E43.91634
G1 X56.965 Y39.103 E43.96069
G1 X57.312 Y38.974 E44.00511
G1 X57.639 Y38.796 E44.04979
G1 X57.936 Y38.573 E44.09436
G1 X58.198 Y38.311 E44.13882
G1 X58.421 Y38.014 E44.18339
G1 X58.599 Y37.687 E44.22807
G1 X58.728 Y37.34 E44.27249
G1 X58.807 Y36.978 E44.31695
G1 X58.833 Y36.608 E44.36146
G1 X58.807 Y36.237 E44.40609
G1 X58.728 Y35.875 E44.45055
G1 X58.599 Y35.528 E44.49498
G1 X58.421 Y35.201 E44.53966
G1 X58.198 Y34.904 E44.58422
G1 X57.936 Y34.642 E44.62869
G1 X57.639 Y34.419 E44.67325
G1 X57.312 Y34.241 E44.71793
G1 X56.965 Y34.112 E44.76236
G1 X56.603 Y34.033 E44.80682
G1 X56.253 Y34.008 E44.84893
G1 X52.211 Y34.008 E45.33397
G1 X51.862 Y34.033 E45.37595
G1 X51.5 Y34.112 E45.42042
G1 X51.153 Y34.241 E45.46484
G1 X50.826 Y34.419 E45.50952
G1 X50.529 Y34.642 E45.55408
G1 X50.267 Y34.904 E45.59855
G1 X50.044 Y35.201 E45.64312
G1 X49.866 Y35.528 E45.68779
G1 X49.736 Y35.875 E45.73226
G1 X49.658 Y36.236 E45.77658
G1 X49.63 Y36.608 E45.82134
G0 F3600 X49.53 Y36.608
G0 X49.83 Y37.703
G0 X50.237 Y38.337
G0 X50.805 Y38.829
G0 X51.489 Y39.141
G0 X52.209 Y39.247
G0 X54.516 Y39.226
G0 X63.142 Y44.235
G0 X63.69 Y44.427
G0 X65.119 Y44.796
G0 X65.125 Y44.697
G1 F1800 X65.635 Y44.705 E45.88255
G1 X66.142 Y44.67 E45.94354
G1 X66.646 Y44.588 E46.00481
G1 X67.139 Y44.459 E46.06596
G1 X67.619 Y44.288 E46.12711
G1 X68.081 Y44.073 E46.18826
G1 X68.523 Y43.815 E46.24967
G1 X68.937 Y43.521 E46.31061
G1 X69.325 Y43.189 E46.37188
G1 X69.681 Y42.823 E46.43315
G1 X70.001 Y42.427 E46.49425
G1 X70.284 Y42.002 E46.55552
G1 X70.527 Y41.554 E46.61668
G1 X70.728 Y41.088 E46.67758
G1 X70.888 Y40.6 E46.73921
G1 X71 Y40.104 E46.80023
G1 X71.068 Y39.601 E46.86114
G1 X71.09 Y39.091 E46.92239
G1 X71.065 Y38.581 E46.98367
G1 X70.995 Y38.077 E47.04473
G1 X70.879 Y37.58 E47.10597
G1 X70.717 Y37.096 E47.16722
G1 X70.513 Y36.63 E47.22826
G1 X70.266 Y36.183 E47.28955
G1 X69.981 Y35.761 E47.35065
G1 X69.658 Y35.367 E47.41179
G1 X69.3 Y35.002 E47.47314
G1 X68.91 Y34.673 E47.53437
G1 X68.494 Y34.381 E47.59536
G1 X68.051 Y34.127 E47.65664
G1 X67.588 Y33.915 E47.71774
G1 X67.107 Y33.746 E47.77892
G1 X66.612 Y33.621 E47.84019
G1 X66.109 Y33.542 E47.90129
G1 X65.601 Y33.509 E47.96238
G1 X65.092 Y33.521 E48.02347
G1 X64.585 Y33.581 E48.08474
G1 X64.086 Y33.685 E48.14591
G1 X63.598 Y33.836 E48.2072
G1 X63.127 Y34.031 E48.26838
G1 X62.675 Y34.266 E48.32951
G1 X62.247 Y34.543 E48.39069
G1 X61.846 Y34.856 E48.45173
G1 X61.474 Y35.205 E48.51294
G1 X61.135 Y35.587 E48.57423
G1 X60.834 Y35.997 E48.63526
G1 X60.57 Y36.432 E48.69632
G1 X60.346 Y36.892 E48.75772
G1 X60.167 Y37.37 E48.81897
G1 X60.031 Y37.86 E48.87999
G1 X59.94 Y38.362 E48.94122
G1 X59.895 Y38.869 E49.0023
G1 X59.896 Y39.379 E49.0635
G1 X59.945 Y39.887 E49.12474
G1 X60.038 Y40.389 E49.186
G1 X60.177 Y40.878 E49.24701
G1 X60.36 Y41.355 E49.30832
G1 X60.587 Y41.812 E49.36955
G1 X60.852 Y42.245 E49.43047
G1 X61.157 Y42.655 E49.49179
G1 X61.498 Y43.035 E49.55306
G1 X61.872 Y43.382 E49.61428
G1 X62.275 Y43.692 E49.67529
G1 X62.704 Y43.966 E49.73637
G1 X63.158 Y44.199 E49.79761
G1 X63.631 Y44.391 E49.85887
G1 X64.119 Y44.537 E49.91999
G1 X64.618 Y44.639 E49.98111
G1 X65.125 Y44.697 E50.04235
G0 F3600 X65.119 Y44.796
G0 X71.527 Y47.896
G0 X71.618 Y47.856
G1 F1800 X71.846 Y48.312 E50.10353
G1 X72.11 Y48.745 E50.16438
G1 X72.415 Y49.155 E50.2257
G1 X72.756 Y49.535 E50.28697
G1 X73.131 Y49.882 E50.34828
G1 X73.533 Y50.191 E50.40913
G1 X73.962 Y50.466 E50.47027
G1 X74.417 Y50.699 E50.53162
G1 X74.888 Y50.891 E50.59265
G1 X75.377 Y51.037 E50.65389
G1 X75.876 Y51.139 E50.71501
G1 X76.383 Y51.197 E50.77625
G1 X76.893 Y51.205 E50.83746
G1 X77.4 Y51.17 E50.89844
G1 X77.905 Y51.088 E50.95983
G1 X78.398 Y50.959 E51.02099
G1 X78.878 Y50.787 E51.08217
G1 X79.34 Y50.572 E51.14332
G1 X79.781 Y50.316 E51.20451
G1 X80.197 Y50.021 E51.26571
G1 X80.583 Y49.689 E51.32681
G1 X80.938 Y49.323 E51.38799
G1 X81.259 Y48.928 E51.44907
G1 X81.544 Y48.501 E51.51067
G1 X81.785 Y48.053 E51.57172
G1 X81.986 Y47.588 E51.63251
G1 X82.146 Y47.101 E51.69402
G1 X82.259 Y46.605 E51.75507
G1 X82.327 Y46.1 E51.81622
G1 X82.348 Y45.591 E51.87735
G1 X82.324 Y45.082 E51.93849
G1 X82.254 Y44.577 E51.99967
G1 X82.137 Y44.079 E52.06106
G1 X81.975 Y43.596 E52.12219
G1 X81.771 Y43.131 E52.18313
G1 X81.526 Y42.684 E52.2443
G1 X81.239 Y42.261 E52.30564
G1 X80.916 Y41.867 E52.36677
G1 X80.559 Y41.503 E52.42796
G1 X80.169 Y41.173 E52.48926
G1 X79.752 Y40.881 E52.55035
G1 X79.31 Y40.627 E52.61153
G1 X78.847 Y40.415 E52.67263
G1 X78.366 Y40.246 E52.73381
G1 X77.871 Y40.121 E52.79508
G1 X77.367 Y40.042 E52.85629
G1 X76.859 Y40.009 E52.91738
G1 X76.35 Y40.021 E52.97848
G1 X75.843 Y40.081 E53.03974
G1 X75.344 Y40.185 E53.10091
G1 X74.856 Y40.336 E53.16221
G1 X74.386 Y40.531 E53.22327
G1 X73.933 Y40.766 E53.28451
G1 X73.505 Y41.043 E53.34569
G1 X73.105 Y41.356 E53.40664
G1 X72.732 Y41.704 E53.46785
G1 X72.393 Y42.087 E53.52923
G1 X72.092 Y42.498 E53.59036
G1 X71.829 Y42.932 E53.65126
G1 X71.604 Y43.392 E53.71271
G1 X71.425 Y43.87 E53.77396
G1 X71.289 Y44.36 E53.83498
G1 X71.198 Y44.863 E53.89632
G1 X71.154 Y45.37 E53.95739
G1 X71.155 Y45.878 E54.01835
G1 X71.202 Y46.386 E54.07957
G1 X71.296 Y46.889 E54.14098
G1 X71.435 Y47.377 E54.20187
G1 X71.618 Y47.856 E54.2634
G0 F3600 X71.527 Y47.896
G0 X71.163 Y46.391
G0 X71.125 Y45.564
G0 X72.046 Y36.608
G0 X72.146 Y36.608
G1 F1800 X72.174 Y36.979 E54.30804
G1 X72.252 Y37.34 E54.35236
G1 X72.382 Y37.687 E54.39683
G1 X72.56 Y38.014 E54.44151
G1 X72.783 Y38.311 E54.48607
G1 X73.045 Y38.573 E54.53054
G1 X73.342 Y38.796 E54.57511
G1 X73.669 Y38.974 E54.61978
G1 X74.016 Y39.103 E54.66421
G1 X74.377 Y39.182 E54.70855
G1 X74.726 Y39.208 E54.75055
G1 X78.77 Y39.208 E55.23583
G1 X79.12 Y39.182 E55.27794
G1 X79.481 Y39.103 E55.32229
G1 X79.828 Y38.974 E55.36671
G1 X80.155 Y38.796 E55.41139
G1 X80.452 Y38.573 E55.45596
G1 X80.714 Y38.311 E55.50042
G1 X80.937 Y38.014 E55.54499
G1 X81.115 Y37.687 E55.58967
G1 X81.244 Y37.34 E55.63409
G1 X81.323 Y36.978 E55.67855
G1 X81.349 Y36.608 E55.72306
G1 X81.323 Y36.237 E55.76769
G1 X81.244 Y35.875 E55.81215
G1 X81.115 Y35.528 E55.85658
G1 X80.937 Y35.201 E55.90125
G1 X80.714 Y34.904 E55.94582
G1 X80.452 Y34.642 E55.99029
G1 X80.155 Y34.419 E56.03485
G1 X79.828 Y34.241 E56.07953
G1 X79.481 Y34.112 E56.12395
G1 X79.119 Y34.033 E56.16842
G1 X78.769 Y34.008 E56.21052
G1 X74.727 Y34.008 E56.69556
G1 X74.378 Y34.033 E56.73755
G1 X74.016 Y34.112 E56.78201
G1 X73.669 Y34.241 E56.82644
G1 X73.342 Y34.419 E56.87112
G1 X73.045 Y34.642 E56.91568
G1 X72.783 Y34.904 E56.96015
G1 X72.56 Y35.201 E57.00471
G1 X72.382 Y35.528 E57.04939
G1 X72.252 Y35.875 E57.09386
G1 X72.174 Y36.236 E57.13818
G1 X72.146 Y36.608 E57.18294
G0 F3600 X72.046 Y36.608
G0 X72.346 Y37.703
G0 X72.753 Y38.337
G0 X73.321 Y38.829
G0 X74.005 Y39.141
G0 X74.725 Y39.247
G0 X77.031 Y39.226
G0 X85.658 Y44.235
G0 X86.206 Y44.427
G0 X87.635 Y44.796
G0 X87.641 Y44.697
G1 F1800 X88.151 Y44.705 E57.24415
G1 X88.658 Y44.67 E57.30514
G1 X89.162 Y44.588 E57.36641
G1 X89.655 Y44.459 E57.42756
G1 X90.135 Y44.288 E57.48871
G1 X90.597 Y44.073 E57.54986
G1 X91.039 Y43.815 E57.61127
G1 X91.453 Y43.521 E57.67221
G1 X91.841 Y43.189 E57.73348
G1 X92.197 Y42.823 E57.79475
G1 X92.517 Y42.427 E57.85585
G1 X92.8 Y42.002 E57.91712
G1 X93.043 Y41.554 E57.97828
G1 X93.244 Y41.088 E58.03918
G1 X93.404 Y40.6 E58.10081
G1 X93.516 Y40.104 E58.16183
G1 X93.584 Y39.601 E58.22274
G1 X93.606 Y39.091 E58.28399
G1 X93.581 Y38.581 E58.34527
G1 X93.511 Y38.077 E58.40633
G1 X93.395 Y37.58 E58.46757
G1 X93.233 Y37.096 E58.52882
G1 X93.029 Y36.63 E58.58986
G1 X92.782 Y36.183 E58.65114
G1 X92.497 Y35.761 E58.71225
G1 X92.174 Y35.367 E58.77339
G1 X91.816 Y35.002 E58.83474
G1 X91.426 Y34.673 E58.89597
G1 X91.01 Y34.381 E58.95696
G1 X90.567 Y34.127 E59.01824
G1 X90.104 Y33.915 E59.07934
G1 X89.623 Y33.746 E59.14052
G1 X89.128 Y33.621 E59.20179
G1 X88.625 Y33.542 E59.26289
G1 X88.117 Y33.509 E59.32398
G1 X87.608 Y33.521 E59.38507
G1 X87.101 Y33.581 E59.44634
G1 X86.602 Y33.685 E59.5075
G1 X86.114 Y33.836 E59.5688
G1 X85.643 Y34.031 E59.62998
G1 X85.191 Y34.266 E59.69111
G1 X84.763 Y34.543 E59.75229
G1 X84.362 Y34.856 E59.81333
G1 X83.99 Y35.205 E59.87454
G1 X83.651 Y35.587 E59.93583
G1 X83.35 Y35.997 E59.99686
G1 X83.086 Y36.432 E60.05792
G1 X82.862 Y36.892 E60.11932
G1 X82.683 Y37.37 E60.18057
G1 X82.547 Y37.86 E60.24159
G1 X82.456 Y38.362 E60.30282
G1 X82.411 Y38.869 E60.36389
G1 X82.412 Y39.379 E60.42509
G1 X82.461 Y39.887 E60.48634
G1 X82.554 Y40.389 E60.5476
G1 X82.693 Y40.878 E60.60861
G1 X82.876 Y41.355 E60.66992
G1 X83.103 Y41.812 E60.73115
G1 X83.368 Y42.245 E60.79207
G1 X83.673 Y42.655 E60.85339
G1 X84.014 Y43.035 E60.91466
G1 X84.388 Y43.382 E60.97588
G1 X84.791 Y43.692 E61.03689
G1 X85.22 Y43.966 E61.09797
G1 X85.674 Y44.199 E61.15921
G1 X86.147 Y44.391 E61.22047
G1 X86.635 Y44.537 E61.28159
G1 X87.134 Y44.639 E61.34271
G1 X87.641 Y44.697 E61.40395
G0 F3600 X87.635 Y44.796
G0 X83.962 Y48.178
G0 X83.317 Y48.975
G0 X82.826 Y49.877
G0 X82.509 Y50.852
G0 X82.372 Y51.868
G0 X82.422 Y52.892
G0 X82.656 Y53.89
G0 X83.068 Y54.831
G0 X83.643 Y55.68
G0 X84.363 Y56.412
G0 X85.201 Y57
G0 X86.04 Y57.385
G0 X87.635 Y57.796
G0 X87.641 Y57.697
G1 F1800 X88.151 Y57.705 E61.46515
G1 X88.658 Y57.67 E61.52614
G1 X89.162 Y57.588 E61.58741
G1 X89.655 Y57.459 E61.64857
G1 X90.135 Y57.288 E61.70971
G1 X90.597 Y57.073 E61.77086
G1 X91.039 Y56.815 E61.83228
G1 X91.453 Y56.521 E61.89321
G1 X91.841 Y56.189 E61.95449
G1 X92.197 Y55.823 E62.01576
