;FLAVOR:UltiGCode
;TIME:5597
;MATERIAL:12536
;MATERIAL2:0
;NOZZLE_DIAMETER:0.4
;Generated with Cura_SteamEngine 3.4.1
M82 ;absolute extrusion mode

G92 E0
G10
;LAYER_COUNT:85
;LAYER:0
M107
G0 F3600 X26.897 Y24.944 Z0.3
;TYPE:SKIRT
G11
G1 F1800 X34.806 Y17.02 E1.34348
G1 X34.844 Y16.983 E1.34984
G1 X35.33 Y16.512 E1.43105
G1 X35.72 Y16.19 E1.49174
G1 X36.155 Y15.933 E1.55237
G1 X36.626 Y15.748 E1.6131
G1 X37.12 Y15.64 E1.67378
G1 X37.557 Y15.61 E1.72634
G1 X82.146 Y15.61 E7.07702
G1 X82.65 Y15.65 E7.13769
G1 X83.141 Y15.769 E7.19832
G1 X83.608 Y15.963 E7.259
G1 X84.038 Y16.229 E7.31967
G1 X84.413 Y16.551 E7.37899
G1 X92.798 Y24.965 E8.80443
G1 X93.125 Y25.35 E8.86505
G1 X93.388 Y25.782 E8.92574
G1 X93.579 Y26.25 E8.9864
G1 X93.695 Y26.742 E9.04705
G1 X93.731 Y27.223 E9.10494
G1 X93.742 Y92.794 E16.97346
G1 X93.702 Y93.298 E17.03413
G1 X93.583 Y93.79 E17.09487
G1 X93.389 Y94.256 E17.15544
G1 X93.123 Y94.687 E17.21622
G1 X92.805 Y95.057 E17.27476
G1 X84.42 Y103.444 E18.69791
G1 X84.035 Y103.773 E18.75869
G1 X83.604 Y104.036 E18.81927
G1 X83.136 Y104.228 E18.87998
G1 X82.644 Y104.345 E18.94066
G1 X82.158 Y104.382 E18.99915
G1 X37.558 Y104.39 E24.35115
G1 X37.054 Y104.35 E24.41182
G1 X36.562 Y104.231 E24.47256
G1 X36.096 Y104.037 E24.53314
G1 X35.665 Y103.771 E24.59391
G1 X35.296 Y103.455 E24.65221
G1 X27.372 Y95.546 E25.99569
G1 X27.337 Y95.51 E26.00171
G1 X26.866 Y95.025 E26.08284
G1 X26.544 Y94.636 E26.14344
G1 X26.287 Y94.201 E26.20407
G1 X26.101 Y93.73 E26.26484
G1 X25.992 Y93.237 E26.32542
G1 X25.962 Y92.796 E26.37847
G1 X25.962 Y27.205 E34.24939
G1 X26.002 Y26.701 E34.31006
G1 X26.121 Y26.21 E34.37068
G1 X26.315 Y25.743 E34.43137
G1 X26.581 Y25.313 E34.49204
G1 X26.897 Y24.944 E34.55034
G10
G0 F3600 X28.863 Y26.549
G0 X29.77 Y27.455
G0 X41.506 Y24.721
G0 X41.553 Y24.808
;TYPE:WALL-INNER
G11
G1 F1800 X41.264 Y25 E34.59197
G1 X41.008 Y25.234 E34.63359
G1 X40.795 Y25.507 E34.67515
G1 X40.629 Y25.813 E34.71692
G1 X40.517 Y26.142 E34.75863
G1 X40.46 Y26.484 E34.80023
G1 X40.46 Y26.831 E34.84187
G1 X40.517 Y27.173 E34.88348
G1 X40.629 Y27.502 E34.92518
G1 X40.795 Y27.808 E34.96696
G1 X41.008 Y28.081 E35.00851
G1 X41.264 Y28.315 E35.05013
G1 X41.553 Y28.507 E35.09176
G1 X41.873 Y28.646 E35.13363
G1 X42.209 Y28.731 E35.17522
G1 X42.53 Y28.758 E35.21388
G1 X70.52 Y28.758 E38.57268
G1 X70.841 Y28.731 E38.61133
G1 X71.177 Y28.646 E38.65292
G1 X71.496 Y28.507 E38.69468
G1 X71.788 Y28.315 E38.73662
G1 X72.04 Y28.081 E38.77788
G1 X72.254 Y27.809 E38.81941
G1 X72.421 Y27.502 E38.86135
G1 X72.533 Y27.173 E38.90306
G1 X72.59 Y26.831 E38.94466
G1 X72.59 Y26.484 E38.9863
G1 X72.533 Y26.142 E39.02791
G1 X72.421 Y25.813 E39.06961
G1 X72.254 Y25.506 E39.11155
G1 X72.04 Y25.234 E39.15308
G1 X71.788 Y25 E39.19435
G1 X71.496 Y24.808 E39.23629
G1 X71.177 Y24.669 E39.27804
G1 X70.841 Y24.584 E39.31963
G1 X70.519 Y24.558 E39.3584
G1 X42.531 Y24.558 E42.71696
G1 X42.209 Y24.584 E42.75572
G1 X41.873 Y24.669 E42.79731
G1 X41.553 Y24.808 E42.83918
G0 F3600 X41.506 Y24.721
G0 X40.979 Y25.207
G0 X40.593 Y25.797
G0 X40.421 Y26.481
G0 X40.479 Y27.182
G0 X40.762 Y27.829
G0 X41.24 Y28.346
G0 X41.591 Y28.536
G0 X47.827 Y31.026
G0 X47.892 Y31.101
G1 F1800 X47.555 Y31.423 E42.89511
G1 X47.252 Y31.776 E42.95094
G1 X46.985 Y32.159 E43.00696
G1 X46.759 Y32.567 E43.06293
G1 X46.575 Y32.994 E43.11873
G1 X46.436 Y33.44 E43.17479
G1 X46.342 Y33.896 E43.23066
G1 X46.295 Y34.36 E43.28662
G1 X46.295 Y34.825 E43.34242
G1 X46.342 Y35.289 E43.39839
G1 X46.436 Y35.745 E43.45426
G1 X46.575 Y36.191 E43.51032
G1 X46.759 Y36.618 E43.56611
G1 X46.985 Y37.026 E43.62208
G1 X47.252 Y37.409 E43.67811
G1 X47.555 Y37.762 E43.73393
G1 X47.892 Y38.084 E43.78986
G1 X48.263 Y38.369 E43.846
G1 X48.658 Y38.615 E43.90184
G1 X49.075 Y38.82 E43.9576
G1 X49.512 Y38.982 E44.01353
G1 X49.965 Y39.099 E44.06968
G1 X50.424 Y39.169 E44.12539
G1 X50.875 Y39.193 E44.17959
G1 X60.905 Y39.193 E45.38319
G1 X61.356 Y39.169 E45.43739
G1 X61.816 Y39.099 E45.49322
G1 X62.267 Y38.982 E45.54913
G1 X62.704 Y38.82 E45.60506
G1 X63.122 Y38.615 E45.66093
G1 X63.518 Y38.369 E45.71687
G1 X63.887 Y38.084 E45.77282
G1 X64.224 Y37.762 E45.82875
G1 X64.528 Y37.409 E45.88465
G1 X64.794 Y37.026 E45.94061
G1 X65.02 Y36.619 E45.99648
G1 X65.205 Y36.191 E46.05243
G1 X65.344 Y35.745 E46.10849
G1 X65.438 Y35.289 E46.16436
G1 X65.485 Y34.825 E46.22032
G1 X65.485 Y34.36 E46.27612
G1 X65.438 Y33.896 E46.33209
G1 X65.344 Y33.44 E46.38796
G1 X65.205 Y32.994 E46.44402
G1 X65.02 Y32.566 E46.49997
G1 X64.794 Y32.159 E46.55584
G1 X64.528 Y31.776 E46.61179
G1 X64.224 Y31.423 E46.6677
G1 X63.887 Y31.101 E46.72363
G1 X63.518 Y30.816 E46.77958
G1 X63.122 Y30.57 E46.83552
G1 X62.704 Y30.365 E46.89139
G1 X62.267 Y30.203 E46.94731
G1 X61.816 Y30.086 E47.00323
G1 X61.355 Y30.016 E47.05918
G1 X60.905 Y29.993 E47.11325
G1 X50.875 Y29.993 E48.31685
G1 X50.425 Y30.016 E48.37092
G1 X49.965 Y30.086 E48.42676
G1 X49.512 Y30.203 E48.4829
G1 X49.075 Y30.365 E48.53883
G1 X48.658 Y30.57 E48.59459
G1 X48.263 Y30.816 E48.65043
G1 X47.892 Y31.101 E48.70657
G0 F3600 X47.827 Y31.026
G0 X45.671 Y33.833
G0 X45.737 Y34.268
G0 X45.621 Y34.922
G0 X45.289 Y35.497
G0 X44.782 Y35.922
G0 X44.606 Y35.986
G0 X43.825 Y36.241
G0 X43.825 Y36.141
G1 F1800 X44.15 Y36.111 E48.74573
G1 X44.465 Y36.027 E48.78486
G1 X44.762 Y35.888 E48.82421
G1 X45.028 Y35.702 E48.86316
G1 X45.259 Y35.472 E48.90227
G1 X45.447 Y35.204 E48.94156
G1 X45.584 Y34.909 E48.98059
G1 X45.669 Y34.593 E49.01986
G1 X45.697 Y34.268 E49.059
G1 X45.669 Y33.942 E49.09826
G1 X45.584 Y33.626 E49.13753
G1 X45.447 Y33.333 E49.17635
G1 X45.26 Y33.064 E49.21566
G1 X45.028 Y32.833 E49.25495
G1 X44.762 Y32.647 E49.2939
G1 X44.465 Y32.508 E49.33325
G1 X44.149 Y32.423 E49.37251
G1 X43.825 Y32.396 E49.41153
G1 X43.5 Y32.423 E49.45066
G1 X43.185 Y32.508 E49.48981
G1 X42.888 Y32.647 E49.52916
G1 X42.622 Y32.833 E49.56811
G1 X42.39 Y33.064 E49.6074
G1 X42.204 Y33.332 E49.64655
G1 X42.065 Y33.626 E49.68557
G1 X41.98 Y33.943 E49.72496
G1 X41.953 Y34.268 E49.76409
G1 X41.98 Y34.592 E49.8031
G1 X42.065 Y34.908 E49.84237
G1 X42.204 Y35.205 E49.88172
G1 X42.391 Y35.472 E49.92084
G1 X42.622 Y35.702 E49.95996
G1 X42.888 Y35.888 E49.99891
G1 X43.185 Y36.027 E50.03826
G1 X43.499 Y36.111 E50.07726
G1 X43.825 Y36.141 E50.11655
G0 F3600 X43.825 Y36.241
G0 X42.964 Y35.954
G0 X40.579 Y34.249
G0 X40.48 Y34.256
G1 F1800 X40.419 Y33.784 E50.17366
G1 X40.312 Y33.324 E50.23033
G1 X40.159 Y32.876 E50.28714
G1 X39.959 Y32.445 E50.34416
G1 X39.717 Y32.039 E50.40088
G1 X39.434 Y31.659 E50.45773
G1 X39.114 Y31.31 E50.51455
G1 X38.759 Y30.996 E50.57142
G1 X38.373 Y30.72 E50.62837
G1 X37.961 Y30.485 E50.68528
G1 X37.529 Y30.295 E50.74192
G1 X37.079 Y30.149 E50.79869
G1 X36.614 Y30.049 E50.85576
G1 X36.144 Y30 E50.91247
G1 X35.672 Y29.997 E50.96911
G1 X35.199 Y30.043 E51.02614
G1 X34.734 Y30.138 E51.08309
G1 X34.283 Y30.281 E51.13987
G1 X33.848 Y30.47 E51.19678
G1 X33.435 Y30.701 E51.25357
G1 X33.047 Y30.975 E51.31057
G1 X32.691 Y31.286 E51.36729
G1 X32.368 Y31.632 E51.42409
G1 X32.082 Y32.012 E51.48116
G1 X31.838 Y32.416 E51.5378
G1 X31.636 Y32.844 E51.59459
G1 X31.478 Y33.292 E51.6516
G1 X31.368 Y33.751 E51.70824
G1 X31.305 Y34.219 E51.7649
G1 X31.291 Y34.692 E51.82169
G1 X31.325 Y35.166 E51.87871
G1 X31.408 Y35.633 E51.93563
G1 X31.539 Y36.088 E51.99245
G1 X31.716 Y36.526 E52.04914
G1 X31.937 Y36.946 E52.10609
G1 X32.2 Y37.34 E52.16294
G1 X32.501 Y37.705 E52.21971
G1 X32.839 Y38.037 E52.27656
G1 X33.21 Y38.333 E52.33352
G1 X33.61 Y38.588 E52.39044
G1 X34.032 Y38.8 E52.44711
G1 X34.474 Y38.969 E52.5039
G1 X34.933 Y39.092 E52.56092
G1 X35.4 Y39.165 E52.61764
G1 X35.872 Y39.193 E52.67438
G1 X36.345 Y39.171 E52.7312
G1 X36.813 Y39.099 E52.78802
G1 X37.272 Y38.981 E52.84489
G1 X37.717 Y38.816 E52.90185
G1 X38.141 Y38.605 E52.95868
G1 X38.543 Y38.353 E53.01561
G1 X38.914 Y38.059 E53.07242
G1 X39.254 Y37.731 E53.12911
G1 X39.558 Y37.368 E53.18593
G1 X39.825 Y36.977 E53.24274
G1 X40.049 Y36.557 E53.29986
G1 X40.229 Y36.12 E53.35658
G1 X40.362 Y35.666 E53.41334
G1 X40.45 Y35.201 E53.47014
G1 X40.487 Y34.728 E53.52707
G1 X40.48 Y34.256 E53.58372
G0 F3600 X40.579 Y34.249
G0 X41.506 Y39.951
G0 X41.553 Y40.038
G1 F1800 X41.264 Y40.23 E53.62535
G1 X41.008 Y40.464 E53.66697
G1 X40.795 Y40.737 E53.70852
G1 X40.629 Y41.043 E53.7503
G1 X40.517 Y41.372 E53.792
G1 X40.46 Y41.714 E53.83361
G1 X40.46 Y42.061 E53.87525
G1 X40.517 Y42.403 E53.91685
G1 X40.629 Y42.732 E53.95856
G1 X40.795 Y43.038 E54.00033
G1 X41.008 Y43.311 E54.04189
G1 X41.264 Y43.545 E54.08351
G1 X41.553 Y43.737 E54.12514
G1 X41.873 Y43.876 E54.16701
G1 X42.209 Y43.961 E54.2086
G1 X42.53 Y43.988 E54.24725
G1 X70.52 Y43.988 E57.60605
G1 X70.841 Y43.961 E57.64471
G1 X71.177 Y43.876 E57.6863
G1 X71.496 Y43.737 E57.72806
G1 X71.788 Y43.545 E57.76999
G1 X72.04 Y43.311 E57.81126
G1 X72.254 Y43.039 E57.85279
G1 X72.421 Y42.732 E57.89473
G1 X72.533 Y42.403 E57.93643
G1 X72.59 Y42.061 E57.97804
G1 X72.59 Y41.714 E58.01968
G1 X72.533 Y41.372 E58.06129
G1 X72.421 Y41.043 E58.10299
G1 X72.254 Y40.736 E58.14493
G1 X72.04 Y40.464 E58.18646
G1 X71.788 Y40.23 E58.22773
G1 X71.496 Y40.038 E58.26966
G1 X71.177 Y39.899 E58.31142
G1 X70.841 Y39.814 E58.35301
G1 X70.519 Y39.788 E58.39177
G1 X42.531 Y39.788 E61.75033
G1 X42.209 Y39.814 E61.7891
G1 X41.873 Y39.899 E61.83069
G1 X41.553 Y40.038 E61.87256
G0 F3600 X41.506 Y39.951
G0 X34.397 Y45.989
G0 X34.131 Y46.448
G0 X34.039 Y46.972
G0 X34.131 Y47.497
G0 X34.397 Y47.956
G0 X34.806 Y48.298
G0 X35.307 Y48.481
G0 X35.833 Y48.481
G0 X36.116 Y48.378
G0 X36.789 Y47.995
G0 X36.713 Y47.931
G1 F1800 X36.73 Y47.906 E61.87618
G1 X36.768 Y47.852 E61.88411
G1 X36.787 Y47.879
G1 X36.812 Y47.915 E61.88466
G1 X36.877 Y48.007 E61.89208
G1 X37.075 Y48.205 E61.92568
G1 X37.305 Y48.366 E61.95937
G1 X37.558 Y48.483 E61.99282
G1 X37.827 Y48.556 E62.02627
G1 X38.079 Y48.577 E62.05661
G1 X73.692 Y48.578 E66.33017
G1 X73.944 Y48.555 E66.36054
G1 X74.212 Y48.483 E66.39384
G1 X74.465 Y48.366 E66.42729
G1 X74.695 Y48.205 E66.46098
G1 X74.892 Y48.007 E66.49449
G1 X74.96 Y47.911 E66.50861
G1 X74.986 Y47.874 E66.51404
G1 X75.007 Y47.845 E66.51833
G1 X75.045 Y47.9 E66.52016
G1 X75.067 Y47.931 E66.52152
G1 X75.251 Y48.116 E66.54575
G1 X75.465 Y48.264 E66.57697
G1 X75.699 Y48.374 E66.608
G1 X75.951 Y48.441 E66.63929
G1 X76.21 Y48.465 E66.6705
G1 X76.469 Y48.441 E66.70171
G1 X76.721 Y48.374 E66.733
G1 X76.955 Y48.263 E66.76408
G1 X77.167 Y48.116 E66.79504
G1 X77.353 Y47.931 E66.82652
G1 X77.502 Y47.717 E66.85781
G1 X77.611 Y47.482 E66.8889
G1 X77.678 Y47.232 E66.91996
G1 X77.702 Y46.973 E66.95117
G1 X77.678 Y46.713 E66.9825
G1 X77.611 Y46.463 E67.01356
G1 X77.502 Y46.228 E67.04465
G1 X77.353 Y46.014 E67.07594
G1 X77.167 Y45.829 E67.10742
G1 X76.955 Y45.682 E67.13838
G1 X76.721 Y45.571 E67.16946
G1 X76.467 Y45.503 E67.20101
G1 X76.21 Y45.482 E67.23195
G1 X75.953 Y45.503 E67.26289
G1 X75.699 Y45.571 E67.29445
G1 X75.465 Y45.681 E67.32548
G1 X75.251 Y45.829 E67.3567
G1 X75.067 Y46.014 E67.38801
G1 X75.041 Y46.051 E67.39344
G1 X75.003 Y46.105 E67.40136
G1 X74.982 Y46.074
G1 X74.955 Y46.036
G1 X74.893 Y45.948 E67.40845
G1 X74.695 Y45.75 E67.44206
G1 X74.465 Y45.589 E67.47575
G1 X74.212 Y45.472 E67.50919
G1 X73.943 Y45.399 E67.54264
G1 X73.691 Y45.378 E67.57299
G1 X38.078 Y45.377 E71.84655
G1 X37.826 Y45.4 E71.87691
G1 X37.558 Y45.472 E71.91021
G1 X37.305 Y45.589 E71.94366
G1 X37.075 Y45.75 E71.97735
G1 X36.878 Y45.948 E72.01087
G1 X36.818 Y46.033 E72.02335
G1 X36.792 Y46.07 E72.02878
G1 X36.772 Y46.098 E72.03291
G1 X36.737 Y46.047 E72.03457
G1 X36.713 Y46.014 E72.03607
G1 X36.527 Y45.829 E72.06039
G1 X36.315 Y45.682 E72.09135
G1 X36.081 Y45.571 E72.12243
G1 X35.829 Y45.504 E72.15372
G1 X35.57 Y45.48 E72.18493
G1 X35.311 Y45.504 E72.21615
G1 X35.059 Y45.571 E72.24744
G1 X34.825 Y45.681 E72.27846
G1 X34.611 Y45.829 E72.30969
G1 X34.427 Y46.014 E72.341
G1 X34.279 Y46.225 E72.37193
G1 X34.168 Y46.461 E72.40322
G1 X34.1 Y46.715 E72.43478
G1 X34.079 Y46.972 E72.46572
G1 X34.1 Y47.23 E72.49678
G1 X34.168 Y47.484 E72.52833
G1 X34.279 Y47.72 E72.55963
G1 X34.427 Y47.931 E72.59056
G1 X34.611 Y48.116 E72.62187
G1 X34.825 Y48.264 E72.65309
G1 X35.059 Y48.374 E72.68412
G1 X35.313 Y48.442 E72.71567
G1 X35.57 Y48.463 E72.74662
G1 X35.827 Y48.442 E72.77756
G1 X36.081 Y48.374 E72.80911
G1 X36.315 Y48.263 E72.84019
G1 X36.527 Y48.116 E72.87115
G1 X36.713 Y47.931 E72.89521
G0 F3600 X36.789 Y47.995
G0 X39.75 Y52.017
G0 X40.196 Y52.862
G0 X40.579 Y54.249
G0 X40.48 Y54.256
G1 F1800 X40.419 Y53.784 E72.95232
G1 X40.312 Y53.324 E73.00899
G1 X40.159 Y52.876 E73.0658
G1 X39.959 Y52.445 E73.12282
G1 X39.717 Y52.039 E73.17954
G1 X39.434 Y51.659 E73.23639
G1 X39.114 Y51.31 E73.29321
G1 X38.759 Y50.996 E73.35009
G1 X38.373 Y50.72 E73.40703
G1 X37.961 Y50.485 E73.46395
G1 X37.529 Y50.295 E73.52058
G1 X37.079 Y50.149 E73.57735
G1 X36.614 Y50.049 E73.63442
G1 X36.144 Y50 E73.69113
G1 X35.672 Y49.997 E73.74777
G1 X35.199 Y50.043 E73.8048
G1 X34.734 Y50.138 E73.86175
G1 X34.283 Y50.281 E73.91853
G1 X33.848 Y50.47 E73.97544
G1 X33.435 Y50.701 E74.03223
G1 X33.047 Y50.975 E74.08923
G1 X32.691 Y51.286 E74.14595
G1 X32.368 Y51.632 E74.20275
G1 X32.082 Y52.012 E74.25982
G1 X31.838 Y52.416 E74.31646
G1 X31.636 Y52.844 E74.37325
G1 X31.478 Y53.292 E74.43026
G1 X31.368 Y53.751 E74.4869
G1 X31.305 Y54.219 E74.54356
G1 X31.291 Y54.692 E74.60035
G1 X31.325 Y55.166 E74.65738
G1 X31.408 Y55.633 E74.71429
G1 X31.539 Y56.088 E74.77111
G1 X31.716 Y56.526 E74.8278
G1 X31.937 Y56.946 E74.88475
G1 X32.2 Y57.34 E74.9416
G1 X32.501 Y57.705 E74.99837
G1 X32.839 Y58.037 E75.05522
G1 X33.21 Y58.333 E75.11218
G1 X33.61 Y58.588 E75.1691
G1 X34.032 Y58.8 E75.22577
G1 X34.474 Y58.969 E75.28256
G1 X34.933 Y59.092 E75.33958
G1 X35.401 Y59.165 E75.39642
G1 X35.872 Y59.191 E75.45303
G1 X36.344 Y59.171 E75.50972
G1 X36.813 Y59.099 E75.56666
G1 X37.272 Y58.981 E75.62353
G1 X37.717 Y58.816 E75.68048
G1 X38.141 Y58.605 E75.73731
G1 X38.543 Y58.353 E75.79425
G1 X38.914 Y58.059 E75.85105
G1 X39.254 Y57.731 E75.90774
G1 X39.558 Y57.368 E75.96456
G1 X39.825 Y56.977 E76.02138
G1 X40.049 Y56.557 E76.0785
G1 X40.229 Y56.12 E76.13521
G1 X40.362 Y55.666 E76.19198
G1 X40.45 Y55.201 E76.24877
G1 X40.487 Y54.728 E76.3057
G1 X40.48 Y54.256 E76.36235
G0 F3600 X40.579 Y54.249
G0 X40.4 Y55.675
G0 X40.085 Y56.574
G0 X39.589 Y57.392
G0 X39.064 Y57.956
G0 X35.57 Y60.62
G0 X35.57 Y60.72
G1 F1800 X35.311 Y60.744 E76.39356
G1 X35.059 Y60.811 E76.42485
G1 X34.825 Y60.921 E76.45588
G1 X34.611 Y61.069 E76.4871
G1 X34.427 Y61.254 E76.51841
G1 X34.279 Y61.465 E76.54934
G1 X34.168 Y61.701 E76.58064
G1 X34.1 Y61.955 E76.61219
G1 X34.079 Y62.212 E76.64313
G1 X34.1 Y62.47 E76.6742
G1 X34.168 Y62.724 E76.70575
G1 X34.279 Y62.96 E76.73705
G1 X34.427 Y63.171 E76.76797
G1 X34.611 Y63.356 E76.79928
G1 X34.825 Y63.504 E76.83051
G1 X35.059 Y63.614 E76.86154
G1 X35.313 Y63.682 E76.89309
G1 X35.57 Y63.703 E76.92403
G1 X35.827 Y63.682 E76.95497
G1 X36.081 Y63.614 E76.98653
G1 X36.315 Y63.503 E77.01761
G1 X36.527 Y63.356 E77.04856
G1 X36.713 Y63.171 E77.08004
G1 X36.736 Y63.139 E77.08477
G1 X36.772 Y63.087 E77.09236
G1 X36.791 Y63.114
G1 X36.817 Y63.151
G1 X36.877 Y63.237 E77.09911
G1 X37.075 Y63.435 E77.13272
G1 X37.305 Y63.596 E77.16641
G1 X37.558 Y63.713 E77.19985
G1 X37.827 Y63.786 E77.2333
G1 X38.079 Y63.807 E77.26365
G1 X73.691 Y63.807 E81.53709
G1 X73.943 Y63.786 E81.56743
G1 X74.212 Y63.713 E81.60088
G1 X74.465 Y63.596 E81.63433
G1 X74.695 Y63.435 E81.66802
G1 X74.893 Y63.237 E81.70162
G1 X74.954 Y63.149 E81.71447
G1 X74.981 Y63.111 E81.72006
G1 X75.003 Y63.08 E81.72462
G1 X75.04 Y63.133 E81.72658
G1 X75.067 Y63.171 E81.72885
G1 X75.251 Y63.356 E81.75323
G1 X75.465 Y63.504 E81.78446
G1 X75.699 Y63.614 E81.81548
G1 X75.951 Y63.681 E81.84678
G1 X76.21 Y63.705 E81.87799
G1 X76.469 Y63.681 E81.9092
G1 X76.721 Y63.614 E81.94049
G1 X76.955 Y63.503 E81.97157
G1 X77.167 Y63.356 E82.00253
G1 X77.353 Y63.171 E82.03401
G1 X77.502 Y62.957 E82.0653
G1 X77.611 Y62.722 E82.09639
G1 X77.678 Y62.472 E82.12745
G1 X77.702 Y62.213 E82.15866
G1 X77.678 Y61.953 E82.18999
G1 X77.611 Y61.703 E82.22105
