;FLAVOR:UltiGCode
;TIME:2183
;MATERIAL:3820
;MATERIAL2:0
;NOZZLE_DIAMETER:0.4
;Generated with Cura_SteamEngine 3.4.1
M82 ;absolute extrusion mode

G92 E0
G10
;LAYER_COUNT:86
;LAYER:0
M107
G0 F3600 X28.029 Y46.787 Z0.3
;TYPE:SKIRT
G11
G1 F1800 X28.666 Y46.471 E0.08533
G1 X29.347 Y46.213 E0.17272
G1 X29.861 Y46.06 E0.23707
G1 X30.618 Y45.979 E0.32843
G1 X56.802 Y45.952 E3.47051
G1 X61.053 Y45.799 E3.98096
G1 X61.18 Y45.797 E3.9962
G1 X84.88 Y45.776 E6.8402
G1 X85.506 Y45.83 E6.9156
G1 X85.819 Y45.885 E6.95374
G1 X86.339 Y46.017 E7.01812
G1 X86.861 Y46.239 E7.08619
G1 X87.672 Y46.662 E7.19595
G1 X88.128 Y46.945 E7.26035
G1 X88.536 Y47.292 E7.32462
G1 X88.81 Y47.595 E7.37365
G1 X89.263 Y48.157 E7.46027
G1 X89.567 Y48.598 E7.52454
G1 X89.887 Y49.313 E7.61854
G1 X90.111 Y50.009 E7.70628
G1 X90.237 Y50.53 E7.7706
G1 X90.284 Y51.099 E7.83912
G1 X90.3 Y55.499 E8.36712
G1 X90.214 Y56.296 E8.46332
G1 X89.542 Y59.307 E8.83353
G1 X88.542 Y64.684 E9.48983
G1 X87.848 Y70.103 E10.14542
G1 X87.487 Y74.865 E10.7185
G1 X87.406 Y75.396 E10.78296
G1 X87.141 Y76.153 E10.8792
G1 X86.85 Y76.758 E10.95976
G1 X86.582 Y77.223 E11.02417
G1 X86.249 Y77.643 E11.08849
G1 X85.694 Y78.131 E11.17717
G1 X85.243 Y78.452 E11.2436
G1 X84.784 Y78.73 E11.30799
G1 X84.289 Y78.936 E11.37233
G1 X83.768 Y79.066 E11.43677
G1 X83.401 Y79.111 E11.48114
G1 X82.101 Y79.2 E11.6375
G1 X81.818 Y79.208 E11.67148
G1 X72.121 Y79.108 E12.83518
G1 X67.993 Y79.209 E13.33069
G1 X67.857 Y79.21 E13.34701
G1 X60.772 Y79.116 E14.19728
G1 X55.232 Y79.195 E14.86215
G1 X52.166 Y79.372 E15.23068
G1 X51.961 Y79.378 E15.25529
G1 X47.504 Y79.38 E15.79013
G1 X47.407 Y79.379 E15.80178
G1 X44.105 Y79.292 E16.19815
G1 X33.603 Y79.387 E17.45844
G1 X33.373 Y79.382 E17.48605
G1 X32.479 Y79.333 E17.59349
G1 X31.947 Y79.263 E17.65788
G1 X31.406 Y79.107 E17.72545
G1 X31.162 Y79.015 E17.75674
G1 X30.676 Y78.788 E17.82111
G1 X30.228 Y78.493 E17.88548
G1 X29.966 Y78.268 E17.92692
G1 X29.478 Y77.809 E18.00731
G1 X29.115 Y77.414 E18.07169
G1 X28.816 Y76.969 E18.13602
G1 X28.547 Y76.379 E18.21383
G1 X28.388 Y75.926 E18.27144
G1 X28.249 Y75.408 E18.3358
G1 X28.193 Y74.977 E18.38796
G1 X27.982 Y71.855 E18.76345
G1 X27.369 Y66.396 E19.42265
G1 X26.454 Y61.007 E20.07859
G1 X25.883 Y58.341 E20.40576
G1 X25.494 Y56.632 E20.61609
G1 X25.404 Y55.869 E20.70828
G1 X25.368 Y52.239 E21.1439
G1 X25.379 Y51.922 E21.18197
G1 X25.475 Y50.696 E21.32954
G1 X25.557 Y50.166 E21.39389
G1 X25.716 Y49.654 E21.45823
G1 X25.876 Y49.304 E21.50441
G1 X26.246 Y48.599 E21.59995
G1 X26.53 Y48.144 E21.66431
G1 X26.879 Y47.736 E21.72874
G1 X27.09 Y47.54 E21.7633
G1 X27.597 Y47.105 E21.84347
G1 X28.029 Y46.787 E21.90784
G0 F3600 X28.266 Y47.111
G1 F1800 X28.807 Y46.845 E21.98018
G1 X29.488 Y46.587 E22.06757
G1 X29.974 Y46.445 E22.12833
G1 X30.619 Y46.379 E22.20613
G1 X56.818 Y46.352 E25.35001
G1 X61.068 Y46.199 E25.86034
G1 X61.18 Y46.197 E25.87378
G1 X84.88 Y46.176 E28.71778
G1 X85.437 Y46.224 E28.78487
G1 X85.75 Y46.279 E28.82301
G1 X86.239 Y46.406 E28.88363
G1 X86.676 Y46.594 E28.94072
G1 X87.487 Y47.017 E29.05048
G1 X87.915 Y47.285 E29.11108
G1 X88.296 Y47.618 E29.1718
G1 X88.498 Y47.846 E29.20836
G1 X88.951 Y48.408 E29.29498
G1 X89.237 Y48.825 E29.35566
G1 X89.506 Y49.436 E29.43577
G1 X89.73 Y50.132 E29.52351
G1 X89.847 Y50.624 E29.58419
G1 X89.884 Y51.1 E29.64149
G1 X89.9 Y55.5 E30.16949
G1 X89.823 Y56.209 E30.25507
G1 X89.155 Y59.204 E30.6233
G1 X88.145 Y64.632 E31.28584
G1 X87.45 Y70.06 E31.94252
G1 X87.088 Y74.835 E32.51716
G1 X87.01 Y75.335 E32.57789
G1 X86.781 Y75.98 E32.66002
G1 X86.49 Y76.585 E32.74058
G1 X86.235 Y77.022 E32.8013
G1 X85.915 Y77.413 E32.86193
G1 X85.462 Y77.805 E32.93381
G1 X85.011 Y78.126 E33.00024
G1 X84.577 Y78.386 E33.06095
G1 X84.108 Y78.574 E33.12159
G1 X83.374 Y78.712 E33.21121
G1 X82.074 Y78.801 E33.36758
G1 X81.822 Y78.808 E33.39783
G1 X72.116 Y78.708 E34.56261
G1 X67.984 Y78.809 E35.0586
G1 X67.862 Y78.81 E35.07324
G1 X60.771 Y78.716 E35.92423
G1 X55.226 Y78.795 E36.5897
G1 X52.143 Y78.973 E36.96028
G1 X51.96 Y78.978 E36.98224
G1 X47.503 Y78.98 E37.51708
G1 X47.417 Y78.979 E37.52741
G1 X44.111 Y78.892 E37.92426
G1 X33.599 Y78.987 E39.18575
G1 X33.395 Y78.982 E39.21024
G1 X32.501 Y78.933 E39.31768
G1 X32 Y78.866 E39.37834
G1 X31.547 Y78.732 E39.43503
G1 X31.303 Y78.64 E39.46632
G1 X30.846 Y78.425 E39.52692
G1 X30.24 Y77.977 E39.61736
G1 X29.752 Y77.518 E39.69775
G1 X29.412 Y77.144 E39.7584
G1 X29.135 Y76.72 E39.81918
G1 X28.925 Y76.247 E39.88128
G1 X28.766 Y75.794 E39.93889
G1 X28.636 Y75.305 E39.99961
G1 X28.592 Y74.95 E40.04254
G1 X28.379 Y71.805 E40.4208
G1 X27.768 Y66.356 E41.07878
G1 X26.845 Y60.926 E41.73973
G1 X26.274 Y58.257 E42.06726
G1 X25.884 Y56.543 E42.27819
G1 X25.804 Y55.865 E42.36012
G1 X25.768 Y52.235 E42.79574
G1 X25.778 Y51.953 E42.8296
G1 X25.874 Y50.727 E42.97717
G1 X25.953 Y50.228 E43.0378
G1 X26.11 Y49.747 E43.09851
G1 X26.231 Y49.49 E43.1326
G1 X26.601 Y48.785 E43.22814
G1 X26.87 Y48.357 E43.2888
G1 X27.35 Y47.843 E43.3732
G1 X27.857 Y47.408 E43.45336
G1 X28.266 Y47.111 E43.51402
G10
G0 F3600 X28.311 Y55.77
G0 X28.389 Y56.215
G0 X28.703 Y56.9
G0 X32.709 Y63.517
;TYPE:SUPPORT
G11
G1 F1800 X32.881 Y63.488 E43.53495
G1 X33.157 Y63.478 E43.56809
G1 X33.4 Y63.45 E43.59744
G1 X33.832 Y63.368 E43.65021
G1 X34.277 Y63.176 E43.70837
G1 X34.485 Y63.066 E43.7366
G1 X34.486 Y63.817 E43.82672
G1 X34.885 Y64.216 E43.89444
G1 X36.312 Y64.216 E44.06568
G1 X36.565 Y64.47 E44.1087
G1 X38.965 Y64.47 E44.3967
G1 X38.962 Y74.689 E45.62298
G1 X38.922 Y74.901 E45.64886
G1 X38.859 Y75.047 E45.66795
G1 X38.74 Y75.229 E45.69404
G1 X38.654 Y75.321 E45.70915
G1 X38.556 Y75.393 E45.72375
G1 X38.343 Y75.519 E45.75344
G1 X38.287 Y75.541 E45.76066
G1 X38.126 Y75.577 E45.78046
G1 X38.009 Y75.589 E45.79457
G1 X32.917 Y75.587 E46.40561
G1 X32.744 Y75.558 E46.42666
G1 X32.643 Y75.522 E46.43953
G1 X32.576 Y75.507 E46.44777
G1 X32.369 Y75.39 E46.4763
G1 X32.311 Y75.345 E46.48511
G1 X32.179 Y75.204 E46.50829
G1 X32.087 Y75.063 E46.52849
G1 X32.024 Y74.915 E46.54779
G1 X31.975 Y74.716 E46.57239
G1 X31.968 Y74.515 E46.59652
G1 X31.967 Y64.462 E47.80288
G1 X31.978 Y64.342 E47.81734
G1 X32.035 Y64.118 E47.84508
G1 X32.083 Y64.02 E47.85817
G1 X32.147 Y63.916 E47.87283
G1 X32.246 Y63.792 E47.89187
G1 X32.42 Y63.647 E47.91905
G1 X32.525 Y63.586 E47.93362
G1 X32.623 Y63.542 E47.94651
G1 X32.709 Y63.517 E47.95726
G0 F3600 X32.297 Y63.984
G1 F1800 X34.425 Y63.984 E48.21262
G0 F3600 X34.658 Y64.216
G1 F1800 X34.658 Y75.427 E49.55794
G0 F3600 X32.131 Y74.648
G1 F1800 X38.801 Y74.648 E50.35834
G0 F3600 X37.324 Y75.428
G1 F1800 X37.324 Y64.63 E51.6541
G0 F3600 X38.803 Y66.65
G1 F1800 X32.126 Y66.65 E52.45534
G0 F3600 X32.126 Y69.316
G1 F1800 X38.802 Y69.316 E53.25646
G0 F3600 X38.801 Y71.982
G1 F1800 X32.126 Y71.982 E54.05746
G0 F3600 X45.968 Y74.634
G1 F1800 X45.97 Y64.469 E55.27726
G1 X48.375 Y64.469 E55.56586
G1 X48.627 Y64.216 E55.60871
G1 X50.05 Y64.216 E55.77947
G1 X50.449 Y63.817 E55.84718
G1 X50.45 Y63.073 E55.93646
G1 X50.681 Y63.192 E55.96764
G1 X51.165 Y63.39 E56.0304
G1 X51.681 Y63.472 E56.09309
G1 X52.074 Y63.489 E56.1403
G1 X52.186 Y63.51 E56.15397
G1 X52.337 Y63.554 E56.17284
G1 X52.461 Y63.613 E56.18932
G1 X52.552 Y63.668 E56.20208
G1 X52.687 Y63.782 E56.22329
G1 X52.798 Y63.928 E56.24529
G1 X52.876 Y64.062 E56.2639
G1 X52.926 Y64.204 E56.28197
G1 X52.953 Y64.335 E56.29802
G1 X52.967 Y64.503 E56.31825
G1 X52.967 Y74.497 E57.51753
G1 X52.958 Y74.716 E57.54383
G1 X52.928 Y74.865 E57.56207
G1 X52.854 Y75.057 E57.58676
G1 X52.822 Y75.111 E57.59429
G1 X52.659 Y75.313 E57.62544
G1 X52.55 Y75.401 E57.64225
G1 X52.454 Y75.464 E57.65603
G1 X52.321 Y75.521 E57.67339
G1 X52.205 Y75.56 E57.68808
G1 X52.092 Y75.577 E57.70179
G1 X51.95 Y75.589 E57.71889
G1 X46.827 Y75.58 E58.33365
G1 X46.638 Y75.541 E58.35681
G1 X46.511 Y75.483 E58.37356
G1 X46.3 Y75.33 E58.40484
G1 X46.161 Y75.181 E58.42929
G1 X46.062 Y75.006 E58.45342
G1 X46.026 Y74.928 E58.46373
G1 X45.985 Y74.769 E58.48343
G1 X45.968 Y74.634 E58.49976
G0 F3600 X46.129 Y74.648
G1 F1800 X52.799 Y74.648 E59.30016
G0 F3600 X50.654 Y75.426
G1 F1800 X50.654 Y63.354 E60.7488
G0 F3600 X50.508 Y63.984
G1 F1800 X52.639 Y63.984 E61.00452
G0 F3600 X52.806 Y66.65
G1 F1800 X46.129 Y66.65 E61.80576
G0 F3600 X46.129 Y69.316
G1 F1800 X52.806 Y69.316 E62.607
G0 F3600 X52.806 Y71.982
G1 F1800 X46.128 Y71.982 E63.40836
G0 F3600 X47.988 Y75.422
G1 F1800 X47.988 Y64.629 E64.70352
G0 F3600 X62.715 Y64.316
G1 F1800 X62.731 Y64.111 E64.7282
G1 X62.791 Y63.932 E64.75085
G1 X62.877 Y63.756 E64.77436
G1 X63.049 Y63.557 E64.80592
G1 X63.144 Y63.477 E64.82082
G1 X63.233 Y63.428 E64.83302
G1 X63.36 Y63.37 E64.84977
G1 X63.491 Y63.328 E64.86628
G1 X63.579 Y63.317 E64.87692
G1 X63.886 Y63.301 E64.91381
G1 X64.11 Y63.273 E64.9409
G1 X64.537 Y63.201 E64.99286
G1 X64.954 Y63.037 E65.04663
G1 X65.233 Y62.894 E65.08426
G1 X65.234 Y63.638 E65.17354
G1 X65.633 Y64.037 E65.24125
G1 X67.06 Y64.037 E65.41249
G1 X67.313 Y64.291 E65.45551
G1 X69.713 Y64.291 E65.74351
G1 X69.71 Y74.506 E66.96931
G1 X69.692 Y74.73 E66.99628
G1 X69.582 Y74.927 E67.02335
G1 X69.432 Y75.113 E67.05202
G1 X69.245 Y75.26 E67.08057
G1 X69.203 Y75.286 E67.0865
G1 X69.067 Y75.347 E67.10438
G1 X68.955 Y75.38 E67.11839
G1 X68.791 Y75.41 E67.1384
G1 X63.734 Y75.41 E67.74524
G1 X63.5 Y75.384 E67.77349
G1 X63.328 Y75.333 E67.79502
G1 X63.121 Y75.215 E67.82361
G1 X62.965 Y75.073 E67.84893
G1 X62.877 Y74.958 E67.8663
G1 X62.829 Y74.874 E67.87791
G1 X62.769 Y74.731 E67.89652
G1 X62.738 Y74.629 E67.90932
G1 X62.719 Y74.505 E67.92437
G1 X62.715 Y64.316 E69.14705
G0 F3600 X62.943 Y63.984
G1 F1800 X65.353 Y63.984 E69.43625
G0 F3600 X66.65 Y64.197
G1 F1800 X66.65 Y75.25 E70.76261
G0 F3600 X63.984 Y75.25
G1 F1800 X63.984 Y63.449 E72.17873
G0 F3600 X62.874 Y66.65
G1 F1800 X69.552 Y66.65 E72.98009
G0 F3600 X69.316 Y64.451
G1 F1800 X69.316 Y75.001 E74.24609
G0 F3600 X69.538 Y74.648
G1 F1800 X62.908 Y74.648 E75.04169
G0 F3600 X62.877 Y71.982
G1 F1800 X69.55 Y71.982 E75.84245
G0 F3600 X69.551 Y69.316
G1 F1800 X62.875 Y69.316 E76.64357
G0 F3600 X76.716 Y74.343
G1 F1800 X76.718 Y64.29 E77.84993
G1 X79.123 Y64.29 E78.13853
G1 X79.375 Y64.037 E78.18138
G1 X80.839 Y64.037 E78.35706
G1 X81.239 Y63.638 E78.42486
G1 X81.24 Y63.244 E78.47214
G1 X82.909 Y63.324 E78.67265
G1 X83.073 Y63.369 E78.69306
G1 X83.15 Y63.403 E78.70316
G1 X83.288 Y63.487 E78.72254
G1 X83.411 Y63.58 E78.74105
G1 X83.539 Y63.747 E78.7663
G1 X83.614 Y63.86 E78.78257
G1 X83.676 Y64.023 E78.8035
G1 X83.705 Y64.179 E78.82254
G1 X83.715 Y64.29 E78.83591
G1 X83.709 Y74.564 E80.06879
G1 X83.674 Y74.695 E80.08506
G1 X83.561 Y74.951 E80.11864
G1 X83.443 Y75.097 E80.14117
G1 X83.308 Y75.214 E80.16261
G1 X83.173 Y75.297 E80.18163
G1 X83.092 Y75.338 E80.19252
G1 X82.896 Y75.392 E80.21692
G1 X82.691 Y75.41 E80.24161
G1 X77.568 Y75.401 E80.85637
G1 X77.395 Y75.359 E80.87773
G1 X77.251 Y75.29 E80.8969
G1 X77.138 Y75.224 E80.9126
G1 X77.006 Y75.112 E80.93337
G1 X76.905 Y74.997 E80.95174
G1 X76.779 Y74.767 E80.98321
G1 X76.748 Y74.643 E80.99855
G1 X76.725 Y74.485 E81.01771
G1 X76.716 Y74.343 E81.03478
G0 F3600 X76.914 Y74.648
G1 F1800 X83.519 Y74.648 E81.82738
G0 F3600 X82.646 Y75.249
G1 F1800 X82.646 Y63.472 E83.24062
G0 F3600 X83.491 Y63.984
G1 F1800 X81.119 Y63.984 E83.52526
G0 F3600 X79.98 Y64.197
G1 F1800 X79.98 Y75.245 E84.85102
G0 F3600 X77.314 Y75.136
G1 F1800 X77.314 Y64.45 E86.13334
G0 F3600 X76.878 Y66.65
G1 F1800 X83.553 Y66.65 E86.93434
G0 F3600 X83.552 Y69.316
G1 F1800 X76.878 Y69.316 E87.73522
G0 F3600 X76.877 Y71.982
G1 F1800 X83.55 Y71.982 E88.53598
G10
G0 F3600 X56.607 Y55.867
G0 X55.343 Y55.66
G0 X54.658 Y53.746
G0 X54.559 Y53.737
;TYPE:WALL-INNER
G11
G1 F1800 X54.566 Y53.525 E88.56144
G1 X54.558 Y53.329 E88.58498
G1 X54.525 Y53.117 E88.61072
G1 X54.472 Y52.91 E88.63636
G1 X54.398 Y52.711 E88.66184
G1 X54.304 Y52.52 E88.68739
G1 X54.192 Y52.34 E88.71283
G1 X54.062 Y52.17 E88.73851
G1 X53.914 Y52.016 E88.76414
G1 X53.755 Y51.879 E88.78932
G1 X53.579 Y51.756 E88.81509
G1 X53.392 Y51.652 E88.84077
G1 X53.195 Y51.568 E88.86647
G1 X52.993 Y51.505 E88.89186
G1 X52.786 Y51.462 E88.91723
G1 X52.573 Y51.441 E88.94291
G1 X52.362 Y51.441 E88.96823
G1 X52.149 Y51.462 E88.99392
G1 X51.942 Y51.505 E89.01929
G1 X51.74 Y51.568 E89.04468
G1 X51.543 Y51.652 E89.07038
G1 X51.356 Y51.756 E89.09605
G1 X51.18 Y51.879 E89.12182
G1 X51.021 Y52.016 E89.14701
G1 X50.873 Y52.17 E89.17264
G1 X50.743 Y52.34 E89.19832
G1 X50.631 Y52.52 E89.22376
G1 X50.537 Y52.711 E89.2493
G1 X50.463 Y52.91 E89.27478
G1 X50.41 Y53.117 E89.30042
G1 X50.378 Y53.327 E89.32591
G1 X50.368 Y53.522 E89.34934
G1 X50.374 Y53.733 E89.37467
G1 X50.406 Y53.947 E89.40064
G1 X50.458 Y54.151 E89.4259
G1 X50.53 Y54.352 E89.45152
G1 X50.623 Y54.545 E89.47723
G1 X50.734 Y54.724 E89.50251
G1 X50.862 Y54.893 E89.52795
G1 X51.007 Y55.049 E89.5535
G1 X51.169 Y55.191 E89.57936
G1 X51.343 Y55.312 E89.60479
G1 X51.526 Y55.416 E89.63005
G1 X51.723 Y55.503 E89.65589
G1 X51.924 Y55.567 E89.6812
G1 X52.132 Y55.612 E89.70674
G1 X52.345 Y55.635 E89.73245
G1 X52.553 Y55.637 E89.75741
G1 X52.768 Y55.619 E89.7833
G1 X52.978 Y55.576 E89.80902
G1 X53.179 Y55.515 E89.83423
G1 X53.376 Y55.433 E89.85983
G1 X53.562 Y55.332 E89.88523
G1 X53.742 Y55.21 E89.91133
G1 X53.902 Y55.072 E89.93668
G1 X54.049 Y54.921 E89.96197
G1 X54.181 Y54.753 E89.98761
G1 X54.295 Y54.573 E90.01318
G1 X54.389 Y54.384 E90.03851
G1 X54.466 Y54.184 E90.06422
G1 X54.521 Y53.978 E90.08981
G1 X54.559 Y53.737 E90.11909
G0 F3600 X54.658 Y53.746
G0 X54.329 Y54.592
G0 X53.929 Y55.101
G0 X53.496 Y55.398
G0 X50.441 Y56.891
G0 X50.461 Y56.988
G1 F1800 X50.101 Y57.087 E90.16389
G1 X50.051 Y57.107 E90.17035
G1 X44.884 Y57.107 E90.79039
G1 X44.594 Y57.015 E90.8269
G1 X44.345 Y56.966 E90.85736
G1 X44.092 Y56.941 E90.88786
G1 X40.945 Y56.939 E91.2655
G1 X40.593 Y56.965 E91.30786
G1 X40.335 Y57.017 E91.33944
G1 X40.051 Y57.107 E91.37519
G1 X34.886 Y57.108 E91.99499
G1 X34.594 Y57.015 E92.03177
G1 X34.345 Y56.966 E92.06222
G1 X34.092 Y56.941 E92.09273
G1 X30.991 Y56.939 E92.46485
G1 X30.838 Y56.933 E92.48322
G1 X30.615 Y56.894 E92.51039
G1 X30.49 Y56.854 E92.52614
G1 X30.374 Y56.806 E92.5412
G1 X30.263 Y56.748 E92.55623
G1 X30.17 Y56.689 E92.56945
G1 X30.064 Y56.607 E92.58553
G1 X29.982 Y56.532 E92.59886
G1 X29.886 Y56.428 E92.61585
G1 X29.82 Y56.342 E92.62886
G1 X29.761 Y56.248 E92.64217
G1 X29.694 Y56.117 E92.65983
G1 X29.655 Y56.023 E92.67204
G1 X29.614 Y55.893 E92.6884
G1 X29.589 Y55.777 E92.70264
G1 X29.574 Y55.667 E92.71596
G1 X29.567 Y55.519 E92.73374
G1 X29.567 Y51.566 E93.2081
G1 X29.575 Y51.402 E93.22781
G1 X29.614 Y51.185 E93.25426
G1 X29.654 Y51.056 E93.27047
G1 X29.757 Y50.835 E93.29973
G1 X29.818 Y50.741 E93.31318
G1 X29.903 Y50.631 E93.32986
G1 X29.977 Y50.551 E93.34293
G1 X30.069 Y50.467 E93.35788
G1 X30.172 Y50.388 E93.37346
G1 X30.269 Y50.325 E93.38734
G1 X30.369 Y50.274 E93.40081
G1 X30.49 Y50.224 E93.41652
G1 X30.615 Y50.184 E93.43227
G1 X30.722 Y50.16 E93.44543
G1 X30.831 Y50.147 E93.4586
G1 X31.204 Y50.139 E93.50337
G1 X53.733 Y50.139 E96.20685
G1 X54.084 Y50.145 E96.24898
G1 X54.207 Y50.159 E96.26383
G1 X54.423 Y50.215 E96.29061
G1 X54.557 Y50.27 E96.30799
G1 X54.65 Y50.318 E96.32055
G1 X54.76 Y50.387 E96.33613
G1 X54.864 Y50.465 E96.35173
G1 X54.945 Y50.538 E96.36482
G1 X55.03 Y50.629 E96.37976
G1 X55.108 Y50.73 E96.39508
G1 X55.176 Y50.835 E96.41009
G1 X55.232 Y50.941 E96.42447
G1 X55.273 Y51.038 E96.43711
G1 X55.316 Y51.173 E96.45411
G1 X55.344 Y51.295 E96.46913
G1 X55.358 Y51.39 E96.48066
G1 X55.365 Y51.544 E96.49915
G1 X55.362 Y55.661 E96.99319
G1 X55.323 Y55.89 E97.02107
G1 X55.29 Y55.997 E97.03451
G1 X55.184 Y56.231 E97.06533
G1 X55.047 Y56.431 E97.09442
G1 X54.884 Y56.596 E97.12226
G1 X54.78 Y56.676 E97.138
G1 X54.661 Y56.754 E97.15508
G1 X54.585 Y56.794 E97.16538
G1 X54.442 Y56.853 E97.18395
G1 X54.338 Y56.887 E97.19708
G1 X54.219 Y56.915 E97.21175
G1 X54.115 Y56.929 E97.22434
G1 X53.953 Y56.937 E97.2438
G1 X50.945 Y56.939 E97.60476
G1 X50.712 Y56.952 E97.63277
G1 X50.461 Y56.988 E97.66319
G0 F3600 X50.441 Y56.891
G0 X34.657 Y53.76
G0 X34.558 Y53.751
